M-oikawa-robotics/p/CSV/log_joint.csv
t,j1,j2,j3,j4,j5,j6,jc1,jc2,jc3,jc4,jc5,jc6,t1,t2,t3,t4,t5,t6
0,0,0,0,0,0,0,0,0,0,0,0,0,0,0,0,0,0,0
0.001,0,1.53775e-06,-6.07944e-06,0,2.1286e-06,0,0,0.00015708,0.00020944,0.000628319,-0.000314159,0,0,0.0622165,0.0862086,0.251328,-0.126516,0
0.002,-2.36309e-06,4.88936e-06,-1.99777e-05,1.81614e-05,-8.34485e-06,-1.25338e-06,0,0.000314159,0.000418879,0.00125664,-0.000628319,0,0.000945607,0.123707,0.175549,0.495392,-0.24799,0.00050136
0.003,-7.0954e-06,8.97832e-06,-3.84185e-05,6.01904e-05,-3.14947e-05,-2.57101e-06,0,0.000471239,0.000628319,0.00188496,-0.000942478,0,0.0028398,0.184901,0.266712,0.729906,-0.364391,0.00102843
0.004,-1.34201e-05,1.30003e-05,-5.88839e-05,0.000125618,-6.67149e-05,-3.84426e-06,0,0.000628319,0.000837758,0.00251327,-0.00125664,0,0.00537211,0.246122,0.358693,0.955057,-0.475961,0.00153776
0.005,-2.07147e-05,1.63628e-05,-7.94335e-05,0.000213614,-0.000113442,-5.05084e-06,0,0.000785398,0.0010472,0.00314159,-0.0015708,0,0.00829354,0.307609,0.450713,1.17117,-0.582923,0.00202043
0.006,-2.8518e-05,1.86405e-05,-9.85844e-05,0.000323335,-0.000171153,-6.18226e-06,0,0.000942478,0.00125664,0.00376991,-0.00188496,0,0.0114195,0.369532,0.542179,1.37859,-0.685485,0.00247307
0.007,-3.64937e-05,1.95406e-05,-0.000115215,0.000453957,-0.000239356,-7.23498e-06,0,0.00109956,0.00146608,0.00439823,-0.00219911,0,0.0146154,0.432011,0.632642,1.57765,-0.783844,0.00289424
0.008,-4.43999e-05,1.88739e-05,-0.000128491,0.000604672,-0.000317592,-8.20807e-06,0,0.00125664,0.00167552,0.00502655,-0.00251327,0,0.0177842,0.495124,0.721766,1.76865,-0.878183,0.00328358
0.009,-5.20659e-05,1.65331e-05,-0.000137801,0.000774695,-0.000405427,-9.10222e-06,0,0.00141372,0.00188496,0.00565487,-0.00282743,0,0.0208574,0.558913,0.809305,1.95193,-0.968676,0.00364136
0.01,-5.93742e-05,1.24748e-05,-0.00014271,0.000963267,-0.00050245,-9.91919e-06,0,0.0015708,0.0020944,0.00628319,-0.00314159,0,0.0237879,0.623399,0.895085,2.12778,-1.05549,0.00396831
0.011,-6.62475e-05,6.70494e-06,-0.000142922,0.00116965,-0.000608273,-1.06615e-05,0,0.00172788,0.00230383,0.0069115,-0.00345575,0,0.0265446,0.68858,0.978985,2.29649,-1.13877,0.0042654
0.012,-7.26384e-05,-7.31927e-07,-0.00013825,0.00139314,-0.000722528,-1.13321e-05,0,0.00188496,0.00251327,0.00753982,-0.00376991,0,0.0291083,0.754439,1.06093,2.45836,-1.21867,0.00453385
0.013,-7.85212e-05,-9.76193e-06,-0.000128588,0.00163304,-0.000844865,-1.19343e-05,0,0.00204204,0.00272271,0.00816814,-0.00408407,0,0.0314686,0.820947,1.14087,2.61365,-1.29534,0.00477496
0.014,-8.38864e-05,-2.02889e-05,-0.000113896,0.0018887,-0.000974949,-1.24716e-05,0,0.00219911,0.00293215,0.00879646,-0.00439823,0,0.0336216,0.888066,1.21881,2.76263,-1.3689,0.00499012
0.015,-8.87365e-05,-3.21999e-05,-9.41808e-05,0.00215948,-0.00111246,-1.29474e-05,0,0.00235619,0.00314159,0.00942478,-0.00471239,0,0.0355682,0.955753,1.29472,2.90557,-1.43948,0.00518074
0.016,-9.30818e-05,-4.53701e-05,-6.94888e-05,0.00244477,-0.0012571,-1.33654e-05,0,0.00251327,0.00335103,0.0100531,-0.00502655,0,0.0373124,1.02396,1.36865,3.04269,-1.50721,0.00534823
0.017,-9.6939e-05,-5.96657e-05,-3.98924e-05,0.00274398,-0.00140857,-1.3729e-05,0,0.00267035,0.00356047,0.0106814,-0.00534071,0,0.0388609,1.09262,1.4406,3.17424,-1.5722,0.00549399
0.018,-0.000100328,-7.49472e-05,-5.48426e-06,0.00305656,-0.0015666,-1.40416e-05,0,0.00282743,0.00376991,0.0113097,-0.00565487,0,0.0402217,1.1617,1.51063,3.30044,-1.63457,0.0056194
0.019,-0.000103273,-9.10715e-05,3.3629e-05,0.00338195,-0.00173092,-1.43065e-05,0,0.00298451,0.00397935,0.0119381,-0.00596903,0,0.0414039,1.23112,1.57877,3.42152,-1.69442,0.00572576
0.02,-0.000105796,-0.000107893,7.73311e-05,0.00371964,-0.00190128,-1.4527e-05,0,0.00314159,0.00418879,0.0125664,-0.00628319,0,0.0424173,1.30084,1.64508,3.53768,-1.75185,0.00581435
0.021,-0.000107924,-0.000125267,0.0001255,0.00406914,-0.00207743,-1.4706e-05,0,0.00329867,0.00439823,0.0131947,-0.00659734,0,0.0432718,1.37078,1.70959,3.64912,-1.80696,0.0058864
0.022,-0.000109681,-0.000143048,0.00017801,0.00442995,-0.00225914,-1.48465e-05,0,0.00345575,0.00460767,0.013823,-0.0069115,0,0.0439775,1.44091,1.77236,3.75603,-1.85985,0.00594306
0.023,-0.000111092,-0.000161091,0.000234736,0.00480163,-0.00244618,-1.49513e-05,0,0.00361283,0.00481711,0.0144513,-0.00722566,0,0.0445444,1.51115,1.83344,3.85861,-1.9106,0.00598545
0.024,-0.000112182,-0.000179256,0.000295552,0.00518372,-0.00263834,-1.5023e-05,0,0.00376991,0.00502655,0.0150796,-0.00753982,0,0.044982,1.58144,1.89289,3.95702,-1.95931,0.00601461
0.025,-0.000112973,-0.000197401,0.000360333,0.00557582,-0.00283542,-1.5064e-05,0,0.00392699,0.00523599,0.015708,-0.00785398,0,0.0452999,1.65174,1.95074,4.05144,-2.00606,0.00603155
0.026,-0.000113489,-0.000215391,0.00042896,0.0059775,-0.00303722,-1.50768e-05,0,0.00408407,0.00544543,0.0163363,-0.00816814,0,0.0455069,1.72199,2.00706,4.14203,-2.05091,0.00603719
0.027,-0.00011375,-0.000233092,0.000501314,0.00638839,-0.00324355,-1.50635e-05,0,0.00424115,0.00565487,0.0169646,-0.0084823,0,0.0456118,1.79213,2.06189,4.22895,-2.09397,0.00603244
0.028,-0.000113778,-0.000250373,0.000577281,0.00680811,-0.00345422,-1.50262e-05,0,0.00439823,0.00586431,0.0175929,-0.00879646,0,0.0456228,1.86211,2.11527,4.31235,-2.13528,0.00601812
0.029,-0.00011359,-0.000267107,0.000656754,0.00723631,-0.00366906,-1.4967e-05,0,0.00455531,0.00607375,0.0182212,-0.00911062,0,0.0455475,1.93188,2.16725,4.39237,-2.17494,0.00599502
0.03,-0.000113206,-0.00028317,0.000739626,0.00767263,-0.00388791,-1.48876e-05,0,0.00471239,0.00628319,0.0188496,-0.00942478,0,0.0453933,2.00138,2.21787,4.46915,-2.21299,0.00596388
0.031,-0.000112643,-0.000298442,0.000825797,0.00811675,-0.00411061,-1.47899e-05,0,0.00486947,0.00649262,0.0194779,-0.00973894,0,0.0451672,2.07058,2.26717,4.54283,-2.24951,0.0059254
0.032,-0.000111917,-0.000312806,0.00091517,0.00856835,-0.004337,-1.46754e-05,0,0.00502655,0.00670206,0.0201062,-0.0100531,0,0.0448756,2.13941,2.31519,4.61352,-2.28457,0.00588023
0.033,-0.000111043,-0.000326149,0.00100766,0.00902714,-0.00456693,-1.45456e-05,0,0.00518363,0.0069115,0.0207345,-0.0103673,0,0.0445247,2.20785,2.36198,4.68136,-2.31821,0.00582899
0.034,-0.000110036,-0.000338362,0.00110316,0.00949282,-0.00480026,-1.44021e-05,0,0.00534071,0.00712094,0.0213628,-0.0106814,0,0.0441201,2.27583,2.40755,4.74646,-2.3505,0.00577224
0.035,-0.000108907,-0.000349338,0.00120161,0.0099651,-0.00503686,-1.42461e-05,0,0.00549779,0.00733038,0.0219911,-0.0109956,0,0.0436672,2.34332,2.45196,4.80893,-2.38149,0.00571052
0.036,-0.000107671,-0.000358975,0.00130293,0.0104437,-0.00527659,-1.40789e-05,0,0.00565487,0.00753982,0.0226195,-0.0113097,0,0.0431709,2.41027,2.49522,4.86888,-2.41124,0.00564434
0.037,-0.000106338,-0.000367173,0.00140703,0.0109285,-0.00551933,-1.39018e-05,0,0.00581195,0.00774926,0.0232478,-0.0116239,0,0.042636,2.47665,2.53737,4.92641,-2.43979,0.00557416
0.038,-0.00010492,-0.000373837,0.00151384,0.011419,-0.00576496,-1.37157e-05,0,0.00596903,0.0079587,0.0238761,-0.0119381,0,0.0420668,2.54242,2.57845,4.98163,-2.4672,0.00550042
0.039,-0.000103426,-0.000378874,0.00162331,0.0119152,-0.00601337,-1.35217e-05,0,0.00612611,0.00816814,0.0245044,-0.0122522,0,0.0414673,2.60754,2.61847,5.03462,-2.4935,0.00542353
0.04,-0.000101865,-0.000382194,0.00173536,0.0124168,-0.00626444,-1.33208e-05,0,0.00628319,0.00837758,0.0251327,-0.0125664,0,0.0408413,2.67197,2.65746,5.08548,-2.51875,0.00534388
0.041,-0.000100247,-0.000383713,0.00184994,0.0129235,-0.00651807,-1.31139e-05,0,0.00644026,0.00858702,0.0257611,-0.0128805,0,0.0401922,2.73567,2.69545,5.13429,-2.54299,0.00526182
0.042,-9.85786e-05,-0.000383346,0.00196699,0.0134351,-0.00677415,-1.29017e-05,0,0.00659734,0.00879646,0.0263894,-0.0131947,0,0.0395233,2.79862,2.73246,5.18115,-2.56626,0.00517767
0.043,-9.68682e-05,-0.000381014,0.00208645,0.0139516,-0.00703258,-1.26851e-05,0,0.00675442,0.0090059,0.0270177,-0.0135088,0,0.0388376,2.86078,2.76851,5.22612,-2.58859,0.00509175
0.044,-9.51224e-05,-0.000376641,0.00220827,0.0144726,-0.00729329,-1.24648e-05,0,0.0069115,0.00921534,0.027646,-0.013823,0,0.0381378,2.92213,2.80362,5.26928,-2.61003,0.00500435
0.045,-9.33476e-05,-0.000370153,0.0023324,0.014998,-0.00755616,-1.22415e-05,0,0.00706858,0.00942478,0.0282743,-0.0141372,0,0.0374265,2.98262,2.83782,5.31072,-2.63062,0.00491572
0.046,-9.15495e-05,-0.00036148,0.00245881,0.0155275,-0.00782112,-1.20156e-05,0,0.00722566,0.00963422,0.0289027,-0.0144513,0,0.0367061,3.04223,2.87112,5.35049,-2.65038,0.00482612
0.047,-8.97337e-05,-0.000350552,0.00258744,0.0160612,-0.00808808,-1.1788e-05,0,0.00738274,0.00984366,0.029531,-0.0147655,0,0.0359787,3.10094,2.90354,5.38868,-2.66935,0.00473577
0.048,-8.7905e-05,-0.000337307,0.00271825,0.0165987,-0.00835697,-1.1559e-05,0,0.00753982,0.0100531,0.0301593,-0.0150796,0,0.0352463,3.15872,2.93509,5.42533,-2.68756,0.00464488
0.049,-8.60681e-05,-0.000321681,0.0028512,0.0171399,-0.0086277,-1.13291e-05,0,0.0076969,0.0102625,0.0307876,-0.0153938,0,0.0345108,3.21554,2.9658,5.46052,-2.70505,0.00455365
0.05,-8.42271e-05,-0.000303615,0.00298626,0.0176847,-0.0089002,-1.10988e-05,0,0.00785398,0.010472,0.0314159,-0.015708,0,0.0337739,3.27137,2.99568,5.49431,-2.72185,0.00446225
0.051,-8.23858e-05,-0.000283052,0.00312339,0.0182329,-0.0091744,-1.08686e-05,0,0.00801106,0.0106814,0.0320442,-0.0160221,0,0.0330371,3.32621,3.02473,5.52674,-2.73797,0.00437086
0.052,-8.05479e-05,-0.000259939,0.00326256,0.0187844,-0.00945024,-1.06387e-05,0,0.00816814,0.0108909,0.0326726,-0.0163363,0,0.0323018,3.38002,3.05299,5.55789,-2.75345,0.00427961
0.053,-7.87164e-05,-0.000234224,0.00340373,0.0193391,-0.00972765,-1.04096e-05,0,0.00832522,0.0111003,0.0333009,-0.0166504,0,0.0315692,3.43278,3.08045,5.58779,-2.76832,0.00418866
0.054,-7.68943e-05,-0.000205859,0.00354688,0.0198968,-0.0100066,-1.01815e-05,0,0.0084823,0.0113097,0.0339292,-0.0169646,0,0.0308406,3.48447,3.10713,5.6165,-2.7826,0.00409813
0.055,-7.50842e-05,-0.000174797,0.00369197,0.0204575,-0.0102869,-9.95481e-06,0,0.00863938,0.0115192,0.0345575,-0.0172788,0,0.0301171,3.53508,3.13304,5.64407,-2.79631,0.00400814
0.056,-7.32885e-05,-0.000140994,0.00383898,0.0210209,-0.0105687,-9.72973e-06,0,0.00879646,0.0117286,0.0351858,-0.0175929,0,0.0293995,3.58459,3.1582,5.67054,-2.80948,0.00391879
0.057,-7.15094e-05,-0.000104409,0.00398788,0.021587,-0.0108518,-9.50651e-06,0,0.00895354,0.0119381,0.0358142,-0.0179071,0,0.0286887,3.63297,3.18261,5.69597,-2.82213,0.00383017
0.058,-6.97488e-05,-6.50032e-05,0.00413864,0.0221557,-0.0111361,-9.28538e-06,0,0.00911062,0.0121475,0.0364425,-0.0182212,0,0.0279855,3.68022,3.20629,5.72038,-2.83428,0.00374239
0.059,-6.80084e-05,-2.274e-05,0.00429125,0.0227269,-0.0114217,-9.06653e-06,0,0.0092677,0.0123569,0.0370708,-0.0185354,0,0.0272906,3.72633,3.22924,5.74383,-2.84596,0.0036555
0.06,-6.62898e-05,2.24148e-05,0.00444567,0.0233004,-0.0117085,-8.85014e-06,0,0.00942478,0.0125664,0.0376991,-0.0188496,0,0.0266046,3.77126,3.25148,5.76634,-2.85717,0.0035696
0.061,-6.45943e-05,7.04933e-05,0.00460188,0.0238763,-0.0119964,-8.63638e-06,0,0.00958186,0.0127758,0.0383274,-0.0191637,0,0.0259281,3.81503,3.273,5.78797,-2.86794,0.00348473
0.062,-6.29232e-05,0.000121525,0.00475987,0.0244543,-0.0122854,-8.42538e-06,0,0.00973894,0.0129852,0.0389557,-0.0194779,0,0.0252615,3.8576,3.29383,5.80874,-2.87829,0.00340096
0.063,-6.12775e-05,0.000175538,0.00491961,0.0250344,-0.0125754,-8.21727e-06,0,0.00989602,0.0131947,0.0395841,-0.019792,0,0.0246052,3.89897,3.31398,5.82869,-2.88823,0.00331833
0.064,-5.96581e-05,0.000232557,0.00508108,0.0256166,-0.0128665,-8.01217e-06,0,0.0100531,0.0134041,0.0402124,-0.0201062,0,0.0239596,3.93914,3.33343,5.84786,-2.89778,0.0032369
0.065,-5.80657e-05,0.000292605,0.00524426,0.0262007,-0.0131585,-7.81017e-06,0,0.0102102,0.0136136,0.0408407,-0.0204204,0,0.0233251,3.97808,3.35222,5.86627,-2.90696,0.0031567
0.066,-5.65012e-05,0.000355704,0.00540913,0.0267867,-0.0134514,-7.61135e-06,0,0.0103673,0.013823,0.041469,-0.0207345,0,0.0227018,4.0158,3.37034,5.88395,-2.91578,0.00307776
0.067,-5.4965e-05,0.000421872,0.00557568,0.0273745,-0.0137452,-7.4158e-06,0,0.0105243,0.0140324,0.0420973,-0.0210487,0,0.02209,4.05229,3.3878,5.90094,-2.92426,0.00300011
0.068,-5.34575e-05,0.000491126,0.00574388,0.0279639,-0.0140399,-7.22356e-06,0,0.0106814,0.0142419,0.0427257,-0.0213628,0,0.0214898,4.08753,3.40461,5.91726,-2.93241,0.00292378
0.069,-5.19792e-05,0.000563483,0.00591372,0.0285551,-0.0143354,-7.03469e-06,0,0.0108385,0.0144513,0.043354,-0.021677,0,0.0209015,4.12153,3.42077,5.93294,-2.94025,0.00284879
0.07,-5.05303e-05,0.000638954,0.00608518,0.0291478,-0.0146317,-6.84923e-06,0,0.0109956,0.0146608,0.0439823,-0.0219911,0,0.020325,4.15427,3.4363,5.948,-2.94778,0.00277515
0.071,-4.9111e-05,0.00071755,0.00625825,0.0297421,-0.0149287,-6.66722e-06,0,0.0111527,0.0148702,0.0446106,-0.0223053,0,0.0197605,4.18576,3.45119,5.96247,-2.95502,0.00270287
0.072,-4.77213e-05,0.000799282,0.0064329,0.0303378,-0.0152264,-6.48867e-06,0,0.0113097,0.0150796,0.0452389,-0.0226195,0,0.019208,4.21599,3.46546,5.97638,-2.96198,0.00263197
0.073,-4.63615e-05,0.000884155,0.00660912,0.030935,-0.0155249,-6.31361e-06,0,0.0114668,0.0152891,0.0458673,-0.0229336,0,0.0186676,4.24496,3.47911,5.98974,-2.96868,0.00256245
0.074,-4.50314e-05,0.000972177,0.00678689,0.0315335,-0.015824,-6.14204e-06,0,0.0116239,0.0154985,0.0464956,-0.0232478,0,0.0181391,4.27266,3.49215,6.00258,-2.97512,0.00249431
0.075,-4.3731e-05,0.00106335,0.0069662,0.0321333,-0.0161238,-5.97396e-06,0,0.011781,0.015708,0.0471239,-0.0235619,0,0.0176226,4.29909,3.50459,6.01492,-2.98131,0.00242756
0.076,-4.24601e-05,0.00115768,0.00714703,0.0327343,-0.0164242,-5.80938e-06,0,0.0119381,0.0159174,0.0477522,-0.0238761,0,0.017118,4.32426,3.51643,6.02678,-2.98727,0.0023622
0.077,-4.12187e-05,0.00125516,0.00732937,0.0333366,-0.0167251,-5.64827e-06,0,0.0120951,0.0161268,0.0483805,-0.0241903,0,0.0166253,4.34817,3.52767,6.03818,-2.993,0.00229821
0.078,-4.00064e-05,0.00135579,0.0075132,0.03394,-0.0170267,-5.49064e-06,0,0.0122522,0.0163363,0.0490088,-0.0245044,0,0.0161443,4.3708,3.53832,6.04913,-2.99851,0.0022356
0.079,-3.88231e-05,0.00145957,0.00769851,0.0345445,-0.0173288,-5.33645e-06,0,0.0124093,0.0165457,0.0496372,-0.0248186,0,0.0156749,4.39217,3.5484,6.05966,-3.00382,0.00217435
0.08,-3.76685e-05,0.0015665,0.00788527,0.0351501,-0.0176314,-5.18568e-06,0,0.0125664,0.0167552,0.0502655,-0.0251327,0,0.0152171,4.41229,3.5579,6.06977,-3.00893,0.00211446
0.081,-3.65422e-05,0.00167657,0.00807348,0.0357567,-0.0179345,-5.03832e-06,0,0.0127235,0.0169646,0.0508938,-0.0254469,0,0.0147707,4.43114,3.56683,6.0795,-3.01384,0.00205592
0.082,-3.5444e-05,0.00178976,0.00826312,0.0363643,-0.0182381,-4.89432e-06,0,0.0128805,0.017174,0.0515221,-0.0257611,0,0.0143355,4.44873,3.5752,6.08884,-3.01857,0.00199871
0.083,-3.43735e-05,0.00190608,0.00845417,0.0369729,-0.0185421,-4.75366e-06,0,0.0130376,0.0173835,0.0521504,-0.0260752,0,0.0139115,4.46508,3.58301,6.09783,-3.02313,0.00194283
0.084,-3.33303e-05,0.00202551,0.00864661,0.0375823,-0.0188466,-4.6163e-06,0,0.0131947,0.0175929,0.0527788,-0.0263894,0,0.0134984,4.48017,3.59028,6.10647,-3.02752,0.00188825
0.085,-3.23139e-05,0.00214803,0.00884044,0.0381927,-0.0191516,-4.4822e-06,0,0.0133518,0.0178024,0.0534071,-0.0267035,0,0.013096,4.49403,3.59699,6.11477,-3.03174,0.00183496
0.086,-3.1324e-05,0.00227364,0.00903564,0.0388039,-0.0194569,-4.35131e-06,0,0.0135088,0.0180118,0.0540354,-0.0270177,0,0.0127043,4.50665,3.60317,6.12275,-3.03581,0.00178295
0.087,-3.03602e-05,0.00240232,0.00923219,0.0394158,-0.0197626,-4.2236e-06,0,0.0136659,0.0182212,0.0546637,-0.0273319,0,0.012323,4.51804,3.60882,6.13043,-3.03974,0.00173219
0.088,-2.94219e-05,0.00253405,0.00943007,0.0400286,-0.0200687,-4.09903e-06,0,0.013823,0.0184307,0.055292,-0.027646,0,0.011952,4.5282,3.61394,6.13781,-3.04352,0.00168267
0.089,-2.85089e-05,0.00266882,0.00962928,0.0406421,-0.0203752,-3.97753e-06,0,0.0139801,0.0186401,0.0559203,-0.0279602,0,0.011591,4.53715,3.61854,6.1449,-3.04716,0.00163438
0.09,-2.76205e-05,0.00280659,0.00982978,0.0412564,-0.020682,-3.85907e-06,0,0.0141372,0.0188496,0.0565487,-0.0282743,0,0.0112398,4.5449,3.62262,6.15172,-3.05067,0.00158729
0.091,-2.67563e-05,0.00294737,0.0100316,0.0418713,-0.0209892,-3.7436e-06,0,0.0142942,0.019059,0.057177,-0.0285885,0,0.0108984,4.55144,3.6262,6.15828,-3.05405,0.00154138
0.092,-2.59158e-05,0.00309111,0.0102346,0.0424869,-0.0212967,-3.63107e-06,0,0.0144513,0.0192684,0.0578053,-0.0289027,0,0.0105664,4.5568,3.62928,6.16459,-3.05732,0.00149663
0.093,-2.50986e-05,0.00323781,0.010439,0.0431031,-0.0216045,-3.52142e-06,0,0.0146084,0.0194779,0.0584336,-0.0292168,0,0.0102437,4.56097,3.63186,6.17065,-3.06047,0.00145302
0.094,-2.43042e-05,0.00338743,0.0106445,0.04372,-0.0219126,-3.41461e-06,0,0.0147655,0.0196873,0.0590619,-0.029531,0,0.00993006,4.56398,3.63395,6.17649,-3.06351,0.00141054
0.095,-2.35321e-05,0.00353995,0.0108513,0.0443374,-0.0222209,-3.31058e-06,0,0.0149226,0.0198968,0.0596903,-0.0298451,0,0.00962532,4.56583,3.63556,6.18209,-3.06644,0.00136916
0.096,-2.27819e-05,0.00369534,0.0110593,0.0449554,-0.0225296,-3.20928e-06,0,0.0150796,0.0201062,0.0603186,-0.0301593,0,0.00932927,4.56652,3.63669,6.18749,-3.06927,0.00132885
0.097,-2.20529e-05,0.00385358,0.0112685,0.0455739,-0.0228385,-3.11066e-06,0,0.0152367,0.0203156,0.0609469,-0.0304734,0,0.00904172,4.56608,3.63736,6.19268,-3.072,0.00128961
0.098,-2.13448e-05,0.00401464,0.0114789,0.046193,-0.0231476,-3.01466e-06,0,0.0153938,0.0205251,0.0615752,-0.0307876,0,0.00876245,4.56452,3.63755,6.19767,-3.07464,0.00125141
0.099,-2.06571e-05,0.00417848,0.0116904,0.0468126,-0.023457,-2.92123e-06,0,0.0155509,0.0207345,0.0622035,-0.0311018,0,0.00849129,4.56184,3.6373,6.20247,-3.07718,0.00121422
0.1,-1.99893e-05,0.00434508,0.011903,0.0474327,-0.0237667,-2.83033e-06,0,0.015708,0.020944,0.0628319,-0.0314159,0,0.00822803,4.55806,3.63659,6.20708,-3.07965,0.00117803
0.101,-1.93409e-05,0.00451441,0.0121168,0.0480532,-0.0240765,-2.74188e-06,0,0.015865,0.0211534,0.0634602,-0.0317301,0,0.00797249,4.55319,3.63544,6.21152,-3.08202,0.00114281
0.102,-1.87114e-05,0.00468642,0.0123317,0.0486742,-0.0243866,-2.65586e-06,0,0.0160221,0.0213628,0.0640885,-0.0320442,0,0.00772446,4.54725,3.63385,6.2158,-3.08432,0.00110855
0.103,-1.81005e-05,0.0048611,0.0125477,0.0492956,-0.0246969,-2.57219e-06,0,0.0161792,0.0215723,0.0647168,-0.0323584,0,0.00748377,4.54025,3.63184,6.2199,-3.08655,0.00107522
0.104,-1.75076e-05,0.0050384,0.0127647,0.0499174,-0.0250073,-2.49083e-06,0,0.0163363,0.0217817,0.0653451,-0.0326726,0,0.00725023,4.5322,3.6294,6.22386,-3.0887,0.00104281
0.105,-1.69322e-05,0.00521828,0.0129828,0.0505397,-0.025318,-2.41173e-06,0,0.0164934,0.0219911,0.0659734,-0.0329867,0,0.00702365,4.52312,3.62654,6.22766,-3.09078,0.00101129
0.106,-1.6374e-05,0.00540072,0.0132019,0.0511623,-0.0256288,-2.33483e-06,0,0.0166504,0.0222006,0.0666018,-0.0333009,0,0.00680386,4.51302,3.62327,6.23132,-3.09279,0.000980636
0.107,-1.58325e-05,0.00558568,0.0134221,0.0517853,-0.0259398,-2.26009e-06,0,0.0168075,0.02241,0.0672301,-0.033615,0,0.00659067,4.50192,3.61961,6.23484,-3.09474,0.000950838
0.108,-1.53073e-05,0.00577311,0.0136433,0.0524086,-0.026251,-2.18746e-06,0,0.0169646,0.0226195,0.0678584,-0.0339292,0,0.00638391,4.48984,3.61554,6.23822,-3.09662,0.000921872
0.109,-1.47979e-05,0.00596298,0.0138654,0.0530323,-0.0265624,-2.11688e-06,0,0.0171217,0.0228289,0.0684867,-0.0342434,0,0.00618341,4.47678,3.61109,6.24148,-3.09845,0.000893717
0.11,-1.43039e-05,0.00615525,0.0140885,0.0536564,-0.0268739,-2.04831e-06,0,0.0172788,0.0230383,0.069115,-0.0345575,0,0.00598899,4.46277,3.60626,6.24461,-3.10022,0.000866356
0.111,-1.38249e-05,0.00634989,0.0143125,0.0542807,-0.0271855,-1.98169e-06,0,0.0174358,0.0232478,0.0697434,-0.0348717,0,0.0058005,4.44782,3.60105,6.24763,-3.10194,0.000839769
0.112,-1.33605e-05,0.00654684,0.0145375,0.0549053,-0.0274973,-1.91699e-06,0,0.0175929,0.0234572,0.0703717,-0.0351858,0,0.00561776,4.43194,3.59548,6.25053,-3.1036,0.000813937
0.113,-1.29103e-05,0.00674607,0.0147634,0.0555303,-0.0278093,-1.85415e-06,0,0.01775,0.0236667,0.071,-0.0355,0,0.00544062,4.41516,3.58954,6.25332,-3.10521,0.00078884
0.114,-1.24739e-05,0.00694754,0.0149902,0.0561555,-0.0281213,-1.79312e-06,0,0.0179071,0.0238761,0.0716283,-0.0358142,0,0.00526892,4.39749,3.58326,6.25601,-3.10677,0.000764462
0.115,-1.20509e-05,0.0071512,0.0152178,0.056781,-0.0284335,-1.73387e-06,0,0.0180642,0.0240855,0.0722566,-0.0361283,0,0.0051025,4.37895,3.57663,6.25859,-3.10829,0.000740784
0.116,-1.1641e-05,0.00735701,0.0154463,0.0574067,-0.0287458,-1.67635e-06,0,0.0182212,0.024295,0.0728849,-0.0364425,0,0.00494122,4.35956,3.56966,6.26108,-3.10977,0.000717788
0.117,-1.12438e-05,0.00756494,0.0156757,0.0580328,-0.0290582,-1.62051e-06,0,0.0183783,0.0245044,0.0735133,-0.0367566,0,0.00478493,4.33933,3.56236,6.26347,-3.1112,0.000695457
0.118,-1.08588e-05,0.00777492,0.0159058,0.058659,-0.0293708,-1.5663e-06,0,0.0185354,0.0247139,0.0741416,-0.0370708,0,0.00463348,4.31828,3.55474,6.26577,-3.11259,0.000673773
0.119,-1.04859e-05,0.00798693,0.0161368,0.0592855,-0.0296834,-1.5137e-06,0,0.0186925,0.0249233,0.0747699,-0.037385,0,0.00448674,4.29643,3.5468,6.26799,-3.11394,0.000652721
0.12,-1.01246e-05,0.00820091,0.0163685,0.0599122,-0.0299962,-1.46265e-06,0,0.0188496,0.0251327,0.0753982,-0.0376991,0,0.00434457,4.2738,3.53856,6.27012,-3.11525,0.000632282
0.121,-9.77461e-06,0.00841682,0.016601,0.0605391,-0.030309,-1.41312e-06,0,0.0190066,0.0253422,0.0760265,-0.0380133,0,0.00420682,4.2504,3.53002,6.27218,-3.11652,0.000612443
0.122,-9.43558e-06,0.00863462,0.0168342,0.0611663,-0.030622,-1.36506e-06,0,0.0191637,0.0255516,0.0766549,-0.0383274,0,0.00407338,4.22625,3.52118,6.27415,-3.11777,0.000593185
0.123,-9.1072e-06,0.00885426,0.0170681,0.0617936,-0.030935,-1.31844e-06,0,0.0193208,0.0257611,0.0772832,-0.0386416,0,0.00394411,4.20138,3.51205,6.27605,-3.11897,0.000574495
0.124,-8.78915e-06,0.00907569,0.0173028,0.0624211,-0.0312481,-1.27322e-06,0,0.0194779,0.0259705,0.0779115,-0.0389557,0,0.00381889,4.1758,3.50265,6.27788,-3.12015,0.000556357
0.125,-8.48114e-06,0.00929886,0.0175381,0.0630488,-0.0315614,-1.22936e-06,0,0.019635,0.0261799,0.0785398,-0.0392699,0,0.0036976,4.14953,3.49298,6.27964,-3.12129,0.000538755
0.126,-8.18287e-06,0.00952374,0.0177741,0.0636767,-0.0318746,-1.18682e-06,0,0.019792,0.0263894,0.0791681,-0.0395841,0,0.00358011,4.12259,3.48305,6.28133,-3.12241,0.000521677
0.127,-7.89404e-06,0.00975027,0.0180107,0.0643048,-0.032188,-1.14557e-06,0,0.0199491,0.0265988,0.0797965,-0.0398982,0,0.00346632,4.095,3.47286,6.28296,-3.12349,0.000505106
0.128,-7.61438e-06,0.0099784,0.018248,0.064933,-0.0325015,-1.10557e-06,0,0.0201062,0.0268083,0.0804248,-0.0402124,0,0.00335611,4.06677,3.46242,6.28453,-3.12455,0.00048903
0.129,-7.34361e-06,0.0102081,0.0184859,0.0655614,-0.032815,-1.06679e-06,0,0.0202633,0.0270177,0.0810531,-0.0405265,0,0.00324938,4.03793,3.45174,6.28604,-3.12558,0.000473434
0.13,-7.08147e-06,0.0104393,0.0187243,0.0661899,-0.0331286,-1.02919e-06,0,0.0204204,0.0272271,0.0816814,-0.0408407,0,0.00314601,4.0085,3.44083,6.28749,-3.12659,0.000458306
0.131,-6.82768e-06,0.010672,0.0189634,0.0668186,-0.0334422,-9.92746e-07,0,0.0205774,0.0274366,0.0823097,-0.0411549,0,0.0030459,3.97848,3.4297,6.28889,-3.12757,0.000443632
0.132,-6.58201e-06,0.010906,0.0192029,0.0674474,-0.033756,-9.57421e-07,0,0.0207345,0.027646,0.082938,-0.041469,0,0.00294895,3.94792,3.41835,6.29023,-3.12853,0.000429401
0.133,-6.34419e-06,0.0111415,0.019443,0.0680764,-0.0340697,-9.23184e-07,0,0.0208916,0.0278555,0.0835664,-0.0417832,0,0.00285506,3.91681,3.40678,6.29152,-3.12946,0.000415598
0.134,-6.114e-06,0.0113783,0.0196836,0.0687055,-0.0343836,-8.90005e-07,0,0.0210487,0.0280649,0.0841947,-0.0420973,0,0.00276414,3.88519,3.39502,6.29277,-3.13038,0.000402214
0.135,-5.8912e-06,0.0116163,0.0199247,0.0693347,-0.0346975,-8.57854e-07,0,0.0212058,0.0282743,0.084823,-0.0424115,0,0.0026761,3.85307,3.38306,6.29396,-3.13127,0.000389234
0.136,-5.67555e-06,0.0118556,0.0201663,0.069964,-0.0350115,-8.26701e-07,0,0.0213628,0.0284838,0.0854513,-0.0427257,0,0.00259084,3.82046,3.37091,6.29512,-3.13214,0.00037665
0.137,-5.46685e-06,0.012096,0.0204083,0.0705935,-0.0353255,-7.9652e-07,0,0.0215199,0.0286932,0.0860796,-0.0430398,0,0.00250828,3.7874,3.35859,6.29623,-3.13299,0.000364448
0.138,-5.26486e-06,0.0123376,0.0206508,0.0712231,-0.0356395,-7.67281e-07,0,0.021677,0.0289027,0.086708,-0.043354,0,0.00242834,3.7539,3.34609,6.29729,-3.13383,0.000352618
0.139,-5.0694e-06,0.0125802,0.0208937,0.0718527,-0.0359536,-7.38958e-07,0,0.0218341,0.0291121,0.0873363,-0.0436681,0,0.00235092,3.71998,3.33343,6.29832,-3.13464,0.000341149
0.14,-4.88024e-06,0.0128239,0.0211369,0.0724825,-0.0362678,-7.11525e-07,0,0.0219911,0.0293215,0.0879646,-0.0439823,0,0.00227595,3.68565,3.32061,6.2993,-3.13544,0.000330032
0.141,-4.6972e-06,0.0130686,0.0213806,0.0731124,-0.036582,-6.84955e-07,0,0.0221482,0.029531,0.0885929,-0.0442965,0,0.00220336,3.65094,3.30764,6.30025,-3.13622,0.000319256
0.142,-4.52009e-06,0.0133142,0.0216246,0.0737424,-0.0368963,-6.59225e-07,0,0.0223053,0.0297404,0.0892212,-0.0446106,0,0.00213306,3.61587,3.29452,6.30117,-3.13698,0.00030881
0.143,-4.34871e-06,0.0135607,0.021869,0.0743724,-0.0372106,-6.3431e-07,0,0.0224624,0.0299498,0.0898495,-0.0449248,0,0.00206499,3.58045,3.28127,6.30204,-3.13773,0.000298687
0.144,-4.18289e-06,0.013808,0.0221136,0.0750026,-0.0375249,-6.10185e-07,0,0.0226195,0.0301593,0.0904779,-0.0452389,0,0.00199907,3.54471,3.2679,6.30289,-3.13846,0.000288875
0.145,-4.02245e-06,0.0140562,0.0223586,0.0756328,-0.0378393,-5.86829e-07,0,0.0227765,0.0303687,0.0911062,-0.0455531,0,0.00193523,3.50866,3.2544,6.3037,-3.13918,0.000279367
0.146,-3.86722e-06,0.014305,0.0226039,0.0762632,-0.0381537,-5.64219e-07,0,0.0229336,0.0305782,0.0917345,-0.0458673,0,0.00187341,3.47232,3.24079,6.30448,-3.13988,0.000270153
0.147,-3.71704e-06,0.0145546,0.0228494,0.0768936,-0.0384682,-5.42332e-07,0,0.0230907,0.0307876,0.0923628,-0.0461814,0,0.00181354,3.43571,3.22707,6.30523,-3.14057,0.000261224
0.148,-3.57175e-06,0.0148049,0.0230952,0.0775241,-0.0387827,-5.21148e-07,0,0.0232478,0.030997,0.0929911,-0.0464956,0,0.00175557,3.39885,3.21326,6.30595,-3.14124,0.000252573
0.149,-3.43119e-06,0.0150557,0.0233412,0.0781546,-0.0390972,-5.00646e-07,0,0.0234049,0.0312065,0.0936195,-0.0468097,0,0.00169942,3.36175,3.19935,6.30665,-3.1419,0.000244191
0.15,-3.2952e-06,0.0153071,0.0235874,0.0787852,-0.0394118,-4.80805e-07,0,0.0235619,0.0314159,0.0942478,-0.0471239,0,0.00164504,3.32444,3.18535,6.30731,-3.14255,0.000236071
0.151,-3.16366e-06,0.015559,0.0238338,0.0794159,-0.0397264,-4.61607e-07,0,0.023719,0.0316254,0.0948761,-0.047438,0,0.00159237,3.28694,3.17128,6.30795,-3.14319,0.000228204
0.152,-3.0364e-06,0.0158114,0.0240804,0.0800467,-0.040041,-4.43032e-07,0,0.0238761,0.0318348,0.0955044,-0.0477522,0,0.00154136,3.24926,3.15714,6.30857,-3.14381,0.000220583
0.153,-2.9133e-06,0.0160643,0.0243272,0.0806775,-0.0403556,-4.25061e-07,0,0.0240332,0.0320442,0.0961327,-0.0480664,0,0.00149195,3.21142,3.14293,6.30916,-3.14443,0.0002132
0.154,-2.79422e-06,0.0163175,0.0245741,0.0813084,-0.0406703,-4.07677e-07,0,0.0241903,0.0322537,0.0967611,-0.0483805,0,0.00144409,3.17343,3.12866,6.30973,-3.14503,0.00020605
0.155,-2.67904e-06,0.016571,0.0248211,0.0819393,-0.040985,-3.90862e-07,0,0.0243473,0.0324631,0.0973894,-0.0486947,0,0.00139773,3.13533,3.11435,6.31028,-3.14562,0.000199124
0.156,-2.56762e-06,0.0168249,0.0250682,0.0825703,-0.0412998,-3.74599e-07,0,0.0245044,0.0326726,0.0980177,-0.0490088,0,0.00135283,3.09711,3.09998,6.3108,-3.14619,0.000192416
0.157,-2.45984e-06,0.017079,0.0253155,0.0832014,-0.0416146,-3.58872e-07,0,0.0246615,0.032882,0.098646,-0.049323,0,0.00130933,3.05881,3.08558,6.31131,-3.14676,0.00018592
0.158,-2.3556e-06,0.0173333,0.0255628,0.0838325,-0.0419294,-3.43665e-07,0,0.0248186,0.0330914,0.0992743,-0.0496372,0,0.00126719,3.02043,3.07115,6.31179,-3.14732,0.000179628
0.159,-2.25477e-06,0.0175877,0.0258101,0.0844636,-0.0422442,-3.28961e-07,0,0.0249757,0.0333009,0.0999026,-0.0499513,0,0.00122636,2.982,3.0567,6.31225,-3.14787,0.000173537
0.16,-2.15725e-06,0.0178423,0.0260576,0.0850948,-0.0425591,-3.14746e-07,0,0.0251327,0.0335103,0.100531,-0.0502655,0,0.00118681,2.94353,3.04222,6.3127,-3.14841,0.000167638
0.161,-2.06292e-06,0.018097,0.026305,0.085726,-0.0428739,-3.01004e-07,0,0.0252898,0.0337198,0.101159,-0.0505796,0,0.00114848,2.90503,3.02774,6.31313,-3.14893,0.000161926
0.162,-1.97168e-06,0.0183517,0.0265525,0.0863573,-0.0431888,-2.87723e-07,0,0.0254469,0.0339292,0.101788,-0.0508938,0,0.00111135,2.86653,3.01324,6.31354,-3.14945,0.000156396
0.163,-1.88345e-06,0.0186064,0.0267999,0.0869887,-0.0435038,-2.74887e-07,0,0.025604,0.0341386,0.102416,-0.051208,0,0.00107537,2.82804,2.99875,6.31393,-3.14996,0.000151043
0.164,-1.7981e-06,0.0188611,0.0270474,0.08762,-0.0438187,-2.62483e-07,0,0.0257611,0.0343481,0.103044,-0.0515221,0,0.0010405,2.78958,2.98427,6.31431,-3.15046,0.00014586
0.165,-1.71556e-06,0.0191157,0.0272948,0.0882514,-0.0441337,-2.50498e-07,0,0.0259181,0.0345575,0.103673,-0.0518363,0,0.00100671,2.75116,2.96979,6.31467,-3.15095,0.000140843
0.166,-1.63573e-06,0.0193702,0.0275421,0.0888829,-0.0444487,-2.38919e-07,0,0.0260752,0.034767,0.104301,-0.0521504,0,0.000973955,2.7128,2.95534,6.31502,-3.15143,0.000135987
0.167,-1.55853e-06,0.0196245,0.0277894,0.0895143,-0.0447637,-2.27734e-07,0,0.0262323,0.0349764,0.104929,-0.0524646,0,0.000942213,2.67451,2.9409,6.31535,-3.15191,0.000131287
0.168,-1.48386e-06,0.0198786,0.0280366,0.0901458,-0.0450787,-2.16931e-07,0,0.0263894,0.0351858,0.105558,-0.0527788,0,0.000911446,2.63631,2.9265,6.31567,-3.15237,0.000126737
0.169,-1.41165e-06,0.0201325,0.0282838,0.0907774,-0.0453938,-2.06498e-07,0,0.0265465,0.0353953,0.106186,-0.0530929,0,0.000881622,2.59822,2.91213,6.31597,-3.15283,0.000122335
0.17,-1.34182e-06,0.0203861,0.0285308,0.091409,-0.0457089,-1.96424e-07,0,0.0267035,0.0356047,0.106814,-0.0534071,0,0.000852711,2.56024,2.89781,6.31627,-3.15328,0.000118074
0.171,-1.27428e-06,0.0206394,0.0287777,0.0920406,-0.0460239,-1.86698e-07,0,0.0268606,0.0358142,0.107442,-0.0537212,0,0.000824682,2.52239,2.88353,6.31654,-3.15372,0.000113951
0.172,-1.20897e-06,0.0208924,0.0290245,0.0926722,-0.0463391,-1.77308e-07,0,0.0270177,0.0360236,0.108071,-0.0540354,0,0.000797508,2.48469,2.8693,6.31681,-3.15415,0.000109962
0.173,-1.14581e-06,0.021145,0.0292711,0.0933039,-0.0466542,-1.68245e-07,0,0.0271748,0.036233,0.108699,-0.0543496,0,0.000771159,2.44715,2.85512,6.31707,-3.15458,0.000106102
0.174,-1.08474e-06,0.0213972,0.0295176,0.0939355,-0.0469693,-1.59499e-07,0,0.0273319,0.0364425,0.109327,-0.0546637,0,0.00074561,2.40979,2.84101,6.31731,-3.155,0.000102368
0.175,-1.02567e-06,0.0216489,0.0297639,0.0945672,-0.0472845,-1.5106e-07,0,0.0274889,0.0366519,0.109956,-0.0549779,0,0.000720833,2.37261,2.82697,6.31755,-3.15541,9.87549e-05
0.176,-9.68559e-07,0.0219001,0.03001,0.095199,-0.0475997,-1.42918e-07,0,0.027646,0.0368614,0.110584,-0.055292,0,0.000696805,2.33564,2.813,6.31777,-3.15581,9.52603e-05
0.177,-9.1333e-07,0.0221509,0.0302559,0.0958307,-0.0479149,-1.35064e-07,0,0.0278031,0.0370708,0.111212,-0.0556062,0,0.000673501,2.29887,2.7991,6.31798,-3.1562,9.18799e-05
0.178,-8.59925e-07,0.0224011,0.0305017,0.0964625,-0.0482301,-1.27488e-07,0,0.0279602,0.0372802,0.111841,-0.0559203,0,0.000650896,2.26234,2.78529,6.31818,-3.15659,8.86104e-05
0.179,-8.08285e-07,0.0226507,0.0307471,0.0970943,-0.0485454,-1.20184e-07,0,0.0281173,0.0374897,0.112469,-0.0562345,0,0.00062897,2.22604,2.77156,6.31838,-3.15697,8.54483e-05
0.18,-7.58352e-07,0.0228997,0.0309924,0.0977261,-0.0488606,-1.13141e-07,0,0.0282743,0.0376991,0.113097,-0.0565487,0,0.000607699,2.19,2.75793,6.31856,-3.15735,8.23903e-05
0.181,-7.10071e-07,0.023148,0.0312374,0.098358,-0.0491759,-1.06352e-07,0,0.0284314,0.0379086,0.113726,-0.0568628,0,0.000587062,2.15421,2.74439,6.31874,-3.15771,7.94332e-05
0.182,-6.63389e-07,0.0233957,0.0314822,0.0989898,-0.0494912,-9.9809e-08,0,0.0285885,0.038118,0.114354,-0.057177,0,0.00056704,2.11871,2.73094,6.3189,-3.15807,7.65738e-05
0.183,-6.18254e-07,0.0236427,0.0317267,0.0996217,-0.0498065,-9.3504e-08,0,0.0287456,0.0383274,0.114982,-0.0574911,0,0.000547612,2.08348,2.71761,6.31906,-3.15843,7.38092e-05
0.184,-5.74616e-07,0.023889,0.0319709,0.100254,-0.0501218,-8.74296e-08,0,0.0289027,0.0385369,0.115611,-0.0578053,0,0.000528759,2.04856,2.70438,6.31921,-3.15877,7.11365e-05
0.185,-5.32425e-07,0.0241345,0.0322149,0.100885,-0.0504371,-8.15785e-08,0,0.0290597,0.0387463,0.116239,-0.0581195,0,0.000510463,2.01394,2.69126,6.31936,-3.15911,6.85527e-05
0.186,-4.91637e-07,0.0243793,0.0324585,0.101517,-0.0507525,-7.59436e-08,0,0.0292168,0.0389557,0.116867,-0.0584336,0,0.000492705,1.97964,2.67826,6.31949,-3.15944,6.60551e-05
0.187,-4.52205e-07,0.0246232,0.0327019,0.102149,-0.0510678,-7.05182e-08,0,0.0293739,0.0391652,0.117496,-0.0587478,0,0.00047547,1.94567,2.66538,6.31962,-3.15977,6.3641e-05
0.188,-4.14085e-07,0.0248663,0.0329449,0.102781,-0.0513832,-6.52956e-08,0,0.029531,0.0393746,0.118124,-0.0590619,0,0.000458739,1.91204,2.65262,6.31975,-3.16009,6.13079e-05
0.189,-3.77236e-07,0.0251086,0.0331876,0.103413,-0.0516986,-6.02694e-08,0,0.0296881,0.0395841,0.118752,-0.0593761,0,0.000442497,1.87876,2.63999,6.31986,-3.1604,5.90532e-05
0.19,-3.41616e-07,0.02535,0.03343,0.104045,-0.052014,-5.54332e-08,0,0.0298451,0.0397935,0.119381,-0.0596903,0,0.000426729,1.84583,2.62749,6.31997,-3.16071,5.68743e-05
0.191,-3.07187e-07,0.0255905,0.033672,0.104677,-0.0523294,-5.0781e-08,0,0.0300022,0.0400029,0.120009,-0.0600044,0,0.00041142,1.81327,2.61513,6.32007,-3.161,5.47691e-05
0.192,-2.73909e-07,0.02583,0.0339137,0.105309,-0.0526449,-4.63069e-08,0,0.0301593,0.0402124,0.120637,-0.0603186,0,0.000396554,1.78109,2.6029,6.32017,-3.1613,5.27351e-05
0.193,-2.41746e-07,0.0260686,0.034155,0.105941,-0.0529603,-4.20052e-08,0,0.0303164,0.0404218,0.121265,-0.0606327,0,0.000382119,1.74928,2.59081,6.32026,-3.16158,5.07701e-05
0.194,-2.10663e-07,0.0263062,0.034396,0.106573,-0.0532758,-3.78702e-08,0,0.0304734,0.0406313,0.121894,-0.0609469,0,0.0003681,1.71788,2.57887,6.32035,-3.16186,4.88719e-05
0.195,-1.80626e-07,0.0265429,0.0346365,0.107205,-0.0535912,-3.38967e-08,0,0.0306305,0.0408407,0.122522,-0.0612611,0,0.000354484,1.68687,2.56707,6.32043,-3.16214,4.70385e-05
0.196,-1.51599e-07,0.0267785,0.0348767,0.107837,-0.0539067,-3.00794e-08,0,0.0307876,0.0410501,0.12315,-0.0615752,0,0.00034126,1.65627,2.55543,6.3205,-3.16241,4.52677e-05
0.197,-1.23553e-07,0.0270131,0.0351166,0.108469,-0.0542222,-2.64132e-08,0,0.0309447,0.0412596,0.123779,-0.0618894,0,0.000328415,1.62608,2.54394,6.32057,-3.16267,4.35576e-05
0.198,-9.64556e-08,0.0272467,0.035356,0.109101,-0.0545378,-2.28931e-08,0,0.0311018,0.041469,0.124407,-0.0622035,0,0.000315937,1.59632,2.5326,6.32064,-3.16292,4.19063e-05
0.199,-7.02767e-08,0.0274792,0.035595,0.109733,-0.0548533,-1.95144e-08,0,0.0312588,0.0416785,0.125035,-0.0625177,0,0.000303814,1.56698,2.52142,6.3207,-3.16317,4.03118e-05
0.2,-4.49876e-08,0.0277106,0.0358336,0.110365,-0.0551688,-1.62725e-08,0,0.0314159,0.0418879,0.125664,-0.0628319,0,0.000292037,1.53808,2.5104,6.32075,-3.16341,3.87724e-05
0.201,-2.05603e-08,0.0279409,0.0360718,0.110998,-0.0554844,-1.31627e-08,0,0.031573,0.0420973,0.126292,-0.063146,0,0.000280594,1.50962,2.49954,6.3208,-3.16365,3.72862e-05
0.202,3.0322e-09,0.0281701,0.0363096,0.11163,-0.0557999,-1.01808e-08,0,0.0317301,0.0423068,0.12692,-0.0634602,0,0.000269475,1.48161,2.48885,6.32085,-3.16388,3.58517e-05
0.203,2.58161e-08,0.0283982,0.036547,0.112262,-0.0561155,-7.32242e-09,0,0.0318872,0.0425162,0.127549,-0.0637743,0,0.000258671,1.45406,2.47832,6.3209,-3.16411,3.4467e-05
0.204,4.78166e-08,0.0286252,0.0367839,0.112894,-0.0564311,-4.58349e-09,0,0.0320442,0.0427257,0.128177,-0.0640885,0,0.000248172,1.42696,2.46796,6.32093,-3.16433,3.31306e-05
0.205,6.9058e-08,0.028851,0.0370204,0.113526,-0.0567467,-1.95999e-09,0,0.0322013,0.0429351,0.128805,-0.0644026,0,0.000237968,1.40033,2.45778,6.32097,-3.16454,3.18409e-05
0.206,8.95639e-08,0.0290756,0.0372565,0.114158,-0.0570623,5.51988e-10,0,0.0323584,0.0431445,0.129434,-0.0647168,0,0.000228052,1.37416,2.44777,6.321,-3.16475,3.05964e-05
0.207,1.09357e-07,0.029299,0.0374921,0.11479,-0.057378,2.95622e-09,0,0.0325155,0.043354,0.130062,-0.065031,0,0.000218413,1.34847,2.43793,6.32103,-3.16495,2.93956e-05
0.208,1.28459e-07,0.0295213,0.0377273,0.115422,-0.0576936,5.25638e-09,0,0.0326726,0.0435634,0.13069,-0.0653451,0,0.000209045,1.32325,2.42827,6.32106,-3.16514,2.82371e-05
0.209,1.46892e-07,0.0297423,0.037962,0.116054,-0.0580092,7.45603e-09,0,0.0328296,0.0437729,0.131319,-0.0656593,0,0.000199939,1.29852,2.41878,6.32108,-3.16533,2.71194e-05
0.21,1.64676e-07,0.0299622,0.0381962,0.116686,-0.0583249,9.55865e-09,0,0.0329867,0.0439823,0.131947,-0.0659734,0,0.000191088,1.27427,2.40948,6.3211,-3.16552,2.60413e-05
0.211,1.8183e-07,0.0301808,0.03843,0.117318,-0.0586406,1.15676e-08,0,0.0331438,0.0441917,0.132575,-0.0662876,0,0.000182484,1.25051,2.40035,6.32111,-3.16569,2.50014e-05
0.212,1.98374e-07,0.0303982,0.0386634,0.11795,-0.0589563,1.34861e-08,0,0.0333009,0.0444012,0.133204,-0.0666018,0,0.000174119,1.22725,2.39141,6.32113,-3.16587,2.39983e-05
0.213,2.14327e-07,0.0306143,0.0388963,0.118583,-0.059272,1.53174e-08,0,0.033458,0.0446106,0.133832,-0.0669159,0,0.000165988,1.20447,2.38265,6.32114,-3.16603,2.3031e-05
0.214,2.29705e-07,0.0308292,0.0391287,0.119215,-0.0595877,1.70646e-08,0,0.033615,0.0448201,0.13446,-0.0672301,0,0.000158083,1.1822,2.37407,6.32114,-3.16619,2.20981e-05
0.215,2.44528e-07,0.0310429,0.0393606,0.119847,-0.0599034,1.87306e-08,0,0.0337721,0.0450295,0.135088,-0.0675442,0,0.000150398,1.16042,2.36568,6.32115,-3.16635,2.11985e-05
0.216,2.5881e-07,0.0312553,0.0395921,0.120479,-0.0602191,2.03183e-08,0,0.0339292,0.0452389,0.135717,-0.0678584,0,0.000142927,1.13915,2.35747,6.32115,-3.1665,2.0331e-05
0.217,2.72568e-07,0.0314664,0.0398231,0.121111,-0.0605349,2.18306e-08,0,0.0340863,0.0454484,0.136345,-0.0681726,0,0.000135663,1.11838,2.34945,6.32115,-3.16664,1.94946e-05
0.218,2.85818e-07,0.0316763,0.0400537,0.121743,-0.0608506,2.32703e-08,0,0.0342434,0.0456578,0.136973,-0.0684867,0,0.000128602,1.09811,2.34161,6.32115,-3.16678,1.86882e-05
0.219,2.98575e-07,0.0318849,0.0402837,0.122375,-0.0611664,2.46399e-08,0,0.0344004,0.0458673,0.137602,-0.0688009,0,0.000121736,1.07835,2.33397,6.32114,-3.16691,1.79107e-05
0.22,3.10853e-07,0.0320922,0.0405133,0.123007,-0.0614821,2.59422e-08,0,0.0345575,0.0460767,0.13823,-0.069115,0,0.000115062,1.0591,2.32651,6.32113,-3.16704,1.7161e-05
0.221,3.22667e-07,0.0322982,0.0407424,0.123639,-0.0617979,2.71795e-08,0,0.0347146,0.0462861,0.138858,-0.0694292,0,0.000108573,1.04036,2.31923,6.32112,-3.16716,1.64383e-05
0.222,3.34029e-07,0.032503,0.040971,0.124272,-0.0621137,2.83544e-08,0,0.0348717,0.0464956,0.139487,-0.0697434,0,0.000102265,1.02213,2.31215,6.32111,-3.16728,1.57416e-05
0.223,3.44953e-07,0.0327065,0.0411992,0.124904,-0.0624295,2.94692e-08,0,0.0350288,0.046705,0.140115,-0.0700575,0,9.61325e-05,1.00441,2.30526,6.3211,-3.16739,1.50699e-05
0.224,3.55453e-07,0.0329087,0.0414268,0.125536,-0.0627453,3.05262e-08,0,0.0351858,0.0469145,0.140743,-0.0703717,0,9.01712e-05,0.987191,2.29855,6.32108,-3.1675,1.44223e-05
0.225,3.65538e-07,0.0331096,0.041654,0.126168,-0.0630612,3.15277e-08,0,0.0353429,0.0471239,0.141372,-0.0706858,0,8.43762e-05,0.970486,2.29203,6.32107,-3.1676,1.37979e-05
0.226,3.75223e-07,0.0333092,0.0418807,0.1268,-0.063377,3.24758e-08,0,0.0355,0.0473333,0.142,-0.071,0,7.87434e-05,0.95429,2.2857,6.32105,-3.1677,1.31959e-05
0.227,3.84518e-07,0.0335076,0.042107,0.127432,-0.0636928,3.33728e-08,0,0.0356571,0.0475428,0.142628,-0.0713142,0,7.32684e-05,0.938603,2.27956,6.32103,-3.16779,1.26155e-05
0.228,3.93434e-07,0.0337047,0.0423327,0.128064,-0.0640087,3.42205e-08,0,0.0358142,0.0477522,0.143257,-0.0716283,0,6.7947e-05,0.923423,2.27361,6.321,-3.16787,1.20558e-05
0.229,4.01983e-07,0.0339005,0.042558,0.128696,-0.0643246,3.50211e-08,0,0.0359712,0.0479616,0.143885,-0.0719425,0,6.27754e-05,0.90875,2.26784,6.32098,-3.16796,1.1516e-05
0.23,4.10173e-07,0.034095,0.0427828,0.129328,-0.0646404,3.57765e-08,0,0.0361283,0.0481711,0.144513,-0.0722566,0,5.77497e-05,0.894582,2.26226,6.32095,-3.16803,1.09955e-05
0.231,4.18016e-07,0.0342883,0.0430071,0.12996,-0.0649563,3.64885e-08,0,0.0362854,0.0483805,0.145142,-0.0725708,0,5.28661e-05,0.880918,2.25687,6.32093,-3.1681,1.04934e-05
0.232,4.25521e-07,0.0344802,0.043231,0.130592,-0.0652722,3.7159e-08,0,0.0364425,0.04859,0.14577,-0.0728849,0,4.8121e-05,0.867756,2.25166,6.3209,-3.16817,1.0009e-05
0.233,4.32698e-07,0.034671,0.0434544,0.131225,-0.0655881,3.77898e-08,0,0.0365996,0.0487994,0.146398,-0.0731991,0,4.35111e-05,0.855093,2.24664,6.32087,-3.16823,9.54162e-06
0.234,4.39555e-07,0.0348604,0.0436773,0.131857,-0.065904,3.83826e-08,0,0.0367566,0.0490088,0.147027,-0.0735133,0,3.90328e-05,0.842929,2.24181,6.32084,-3.16829,9.09059e-06
0.235,4.46101e-07,0.0350486,0.0438998,0.132489,-0.0662199,3.89391e-08,0,0.0369137,0.0492183,0.147655,-0.0738274,0,3.4683e-05,0.83126,2.23715,6.32081,-3.16834,8.65524e-06
0.236,4.52345e-07,0.0352356,0.0441218,0.133121,-0.0665358,3.94609e-08,0,0.0370708,0.0494277,0.148283,-0.0741416,0,3.04584e-05,0.820085,2.23268,6.32077,-3.16838,8.23491e-06
0.237,4.58295e-07,0.0354213,0.0443433,0.133753,-0.0668518,3.99497e-08,0,0.0372279,0.0496372,0.148911,-0.0744557,0,2.63561e-05,0.809399,2.22839,6.32074,-3.16843,7.829e-06
0.238,4.63959e-07,0.0356058,0.0445644,0.134385,-0.0671677,4.04069e-08,0,0.037385,0.0498466,0.14954,-0.0747699,0,2.2373e-05,0.799201,2.22428,6.3207,-3.16846,7.43687e-06
0.239,4.69345e-07,0.0357891,0.044785,0.135017,-0.0674837,4.08341e-08,0,0.037542,0.050056,0.150168,-0.0750841,0,1.85063e-05,0.789488,2.22035,6.32067,-3.1685,7.05795e-06
0.24,4.7446e-07,0.0359711,0.0450052,0.135649,-0.0677996,4.12327e-08,0,0.0376991,0.0502655,0.150796,-0.0753982,0,1.47533e-05,0.780255,2.2166,6.32063,-3.16852,6.69165e-06
0.241,4.79312e-07,0.0361519,0.0452249,0.136281,-0.0681156,4.16042e-08,0,0.0378562,0.0504749,0.151425,-0.0757124,0,1.11111e-05,0.771499,2.21303,6.32059,-3.16855,6.33742e-06
0.242,4.83907e-07,0.0363316,0.0454442,0.136913,-0.0684316,4.19498e-08,0,0.0380133,0.0506844,0.152053,-0.0760265,0,7.57727e-06,0.763218,2.20963,6.32055,-3.16857,5.99471e-06
0.243,4.88253e-07,0.03651,0.045663,0.137545,-0.0687475,4.2271e-08,0,0.0381704,0.0508938,0.152681,-0.0763407,0,4.14917e-06,0.755406,2.20641,6.32051,-3.16858,5.663e-06
0.244,4.92355e-07,0.0366873,0.0458814,0.138177,-0.0690635,4.25691e-08,0,0.0383274,0.0511032,0.15331,-0.0766549,0,8.24371e-07,0.74806,2.20335,6.32047,-3.16859,5.34177e-06
0.245,4.96221e-07,0.0368633,0.0460993,0.138809,-0.0693795,4.28452e-08,0,0.0384845,0.0513127,0.153938,-0.076969,0,-2.39952e-06,0.741176,2.20047,6.32043,-3.1686,5.03052e-06
0.246,4.99856e-07,0.0370382,0.0463169,0.139441,-0.0696955,4.31007e-08,0,0.0386416,0.0515221,0.154566,-0.0772832,0,-5.52481e-06,0.734749,2.19776,6.32038,-3.1686,4.72877e-06
0.247,5.03268e-07,0.037212,0.046534,0.140073,-0.0700115,4.33366e-08,0,0.0387987,0.0517316,0.155195,-0.0775973,0,-8.55377e-06,0.728775,2.19522,6.32034,-3.1686,4.43604e-06
0.248,5.0646e-07,0.0373846,0.0467506,0.140705,-0.0703276,4.35543e-08,0,0.0389557,0.051941,0.155823,-0.0779115,0,-1.14886e-05,0.723249,2.19284,6.32029,-3.16859,4.15188e-06
0.249,5.0944e-07,0.0375561,0.0469669,0.141337,-0.0706436,4.37547e-08,0,0.0391128,0.0521504,0.156451,-0.0782257,0,-1.43314e-05,0.718167,2.19063,6.32025,-3.16858,3.87585e-06
0.25,5.12212e-07,0.0377265,0.0471827,0.141969,-0.0709596,4.39389e-08,0,0.0392699,0.0523599,0.15708,-0.0785398,0,-1.70842e-05,0.713523,2.18858,6.3202,-3.16857,3.60751e-06
0.251,5.14783e-07,0.0378957,0.0473982,0.142602,-0.0712757,4.41081e-08,0,0.039427,0.0525693,0.157708,-0.078854,0,-1.97491e-05,0.709312,2.18669,6.32016,-3.16855,3.34645e-06
0.252,5.17157e-07,0.0380639,0.0476132,0.143234,-0.0715917,4.42633e-08,0,0.0395841,0.0527788,0.158336,-0.0791681,0,-2.2328e-05,0.70553,2.18496,6.32011,-3.16853,3.09226e-06
0.253,5.1934e-07,0.038231,0.0478278,0.143866,-0.0719078,4.44053e-08,0,0.0397411,0.0529882,0.158965,-0.0794823,0,-2.48228e-05,0.70217,2.18338,6.32006,-3.1685,2.84453e-06
0.254,5.21336e-07,0.038397,0.0480421,0.144498,-0.0722238,4.45352e-08,0,0.0398982,0.0531976,0.159593,-0.0797965,0,-2.72355e-05,0.699227,2.18197,6.32001,-3.16848,2.6029e-06
0.255,5.2315e-07,0.038562,0.0482559,0.14513,-0.0725399,4.4654e-08,0,0.0400553,0.0534071,0.160221,-0.0801106,0,-2.95677e-05,0.696696,2.1807,6.31996,-3.16844,2.36699e-06
0.256,5.24787e-07,0.0387259,0.0484694,0.145762,-0.0728559,4.47624e-08,0,0.0402124,0.0536165,0.16085,-0.0804248,0,-3.18212e-05,0.694571,2.17958,6.31991,-3.16841,2.13644e-06
0.257,5.26251e-07,0.0388888,0.0486825,0.146394,-0.073172,4.48615e-08,0,0.0403695,0.053826,0.161478,-0.0807389,0,-3.39979e-05,0.692846,2.17862,6.31987,-3.16837,1.9109e-06
0.258,5.27548e-07,0.0390507,0.0488952,0.147025,-0.0734881,4.49519e-08,0,0.0405265,0.0540354,0.162106,-0.0810531,0,-3.60992e-05,0.691515,2.17779,6.31982,-3.16832,1.69003e-06
0.259,5.28681e-07,0.0392116,0.0491076,0.147657,-0.0738042,4.50347e-08,0,0.0406836,0.0542448,0.162734,-0.0813672,0,-3.8127e-05,0.690572,2.17712,6.31976,-3.16828,1.4735e-06
0.26,5.29654e-07,0.0393715,0.0493195,0.148289,-0.0741203,4.51104e-08,0,0.0408407,0.0544543,0.163363,-0.0816814,0,-4.00828e-05,0.690011,2.17658,6.31971,-3.16823,1.261e-06
0.261,5.30472e-07,0.0395304,0.0495312,0.148921,-0.0744364,4.518e-08,0,0.0409978,0.0546637,0.163991,-0.0819956,0,-4.19681e-05,0.689826,2.17619,6.31966,-3.16817,1.05221e-06
0.262,5.31139e-07,0.0396884,0.0497425,0.149553,-0.0747525,4.52441e-08,0,0.0411549,0.0548732,0.164619,-0.0823097,0,-4.37845e-05,0.690009,2.17593,6.31961,-3.16811,8.46841e-07
0.263,5.31658e-07,0.0398455,0.0499534,0.150185,-0.0750686,4.53035e-08,0,0.0413119,0.0550826,0.165248,-0.0826239,0,-4.55335e-05,0.690555,2.1758,6.31956,-3.16806,6.44601e-07
0.264,5.32034e-07,0.0400016,0.050164,0.150817,-0.0753847,4.53589e-08,0,0.041469,0.055292,0.165876,-0.082938,0,-4.72165e-05,0.691458,2.17581,6.31951,-3.16799,4.4521e-07
0.265,5.3227e-07,0.0401569,0.0503743,0.151449,-0.0757008,4.54108e-08,0,0.0416261,0.0555015,0.166504,-0.0832522,0,-4.8835e-05,0.69271,2.17595,6.31945,-3.16793,2.48399e-07
0.266,5.3237e-07,0.0403113,0.0505843,0.152081,-0.0760169,4.54601e-08,0,0.0417832,0.0557109,0.167133,-0.0835664,0,-5.03904e-05,0.694304,2.17621,6.3194,-3.16786,5.39064e-08
0.267,5.32337e-07,0.0404647,0.0507939,0.152713,-0.076333,4.55072e-08,0,0.0419403,0.0559203,0.167761,-0.0838805,0,-5.1884e-05,0.696235,2.1766,6.31935,-3.16779,-1.38521e-07
0.268,5.32176e-07,0.0406174,0.0510032,0.153345,-0.0766491,4.55529e-08,0,0.0420973,0.0561298,0.168389,-0.0841947,0,-5.33173e-05,0.698495,2.17711,6.31929,-3.16771,-3.29126e-07
0.269,5.31889e-07,0.0407692,0.0512122,0.153977,-0.0769653,4.55976e-08,0,0.0422544,0.0563392,0.169018,-0.0845088,0,-5.46914e-05,0.701077,2.17774,6.31924,-3.16763,-5.18145e-07
0.27,5.3148e-07,0.0409202,0.051421,0.154609,-0.0772814,4.56419e-08,0,0.0424115,0.0565487,0.169646,-0.084823,0,-5.60078e-05,0.703974,2.17849,6.31919,-3.16755,-7.05805e-07
0.271,5.30952e-07,0.0410704,0.0516294,0.155241,-0.0775975,4.56865e-08,0,0.0425686,0.0567581,0.170274,-0.0851372,0,-5.72677e-05,0.707179,2.17935,6.31913,-3.16747,-8.92324e-07
0.272,5.30308e-07,0.0412198,0.0518375,0.155873,-0.0779137,4.57317e-08,0,0.0427257,0.0569675,0.170903,-0.0854513,0,-5.84723e-05,0.710686,2.18032,6.31908,-3.16738,-1.07791e-06
0.273,5.29553e-07,0.0413684,0.0520454,0.156505,-0.0782298,4.57781e-08,0,0.0428827,0.057177,0.171531,-0.0857655,0,-5.96229e-05,0.714486,2.18141,6.31902,-3.1673,-1.26278e-06
0.274,5.28687e-07,0.0415164,0.052253,0.157137,-0.078546,4.58261e-08,0,0.0430398,0.0573864,0.172159,-0.0860796,0,-6.07206e-05,0.718573,2.1826,6.31897,-3.16721,-1.44711e-06
0.275,5.27716e-07,0.0416635,0.0524603,0.157768,-0.0788621,4.58763e-08,0,0.0431969,0.0575959,0.172788,-0.0863938,0,-6.17668e-05,0.72294,2.18389,6.31891,-3.16711,-1.6311e-06
0.276,5.26642e-07,0.04181,0.0526674,0.1584,-0.0791783,4.5929e-08,0,0.043354,0.0578053,0.173416,-0.086708,0,-6.27625e-05,0.727579,2.18529,6.31886,-3.16702,-1.81493e-06
0.277,5.25467e-07,0.0419558,0.0528742,0.159032,-0.0794944,4.59847e-08,0,0.0435111,0.0580147,0.174044,-0.0870221,0,-6.37089e-05,0.732483,2.18678,6.3188,-3.16692,-1.99877e-06
0.278,5.24195e-07,0.0421009,0.0530808,0.159664,-0.0798106,4.60438e-08,0,0.0436681,0.0582242,0.174673,-0.0873363,0,-6.46071e-05,0.737644,2.18837,6.31875,-3.16682,-2.18278e-06
0.279,5.22829e-07,0.0422453,0.0532871,0.160296,-0.0801267,4.61066e-08,0,0.0438252,0.0584336,0.175301,-0.0876504,0,-6.54583e-05,0.743056,2.19005,6.31869,-3.16672,-2.36713e-06
0.28,5.21371e-07,0.0423891,0.0534933,0.160928,-0.0804429,4.61735e-08,0,0.0439823,0.0586431,0.175929,-0.0879646,0,-6.62636e-05,0.748711,2.19182,6.31864,-3.16662,-2.55197e-06
0.281,5.19824e-07,0.0425323,0.0536991,0.16156,-0.080759,4.62449e-08,0,0.0441394,0.0588525,0.176558,-0.0882788,0,-6.7024e-05,0.7546,2.19368,6.31858,-3.16651,-2.73744e-06
0.282,5.18191e-07,0.0426749,0.0539048,0.162192,-0.0810752,4.63211e-08,0,0.0442965,0.0590619,0.177186,-0.0885929,0,-6.77407e-05,0.760718,2.19562,6.31853,-3.16641,-2.92369e-06
0.283,5.16475e-07,0.0428169,0.0541103,0.162823,-0.0813914,4.64025e-08,0,0.0444535,0.0592714,0.177814,-0.0889071,0,-6.84146e-05,0.767057,2.19765,6.31847,-3.1663,-3.11084e-06
0.284,5.14677e-07,0.0429583,0.0543155,0.163455,-0.0817075,4.64892e-08,0,0.0446106,0.0594808,0.178442,-0.0892212,0,-6.90469e-05,0.773608,2.19975,6.31842,-3.16619,-3.29902e-06
0.285,5.12802e-07,0.0430992,0.0545206,0.164087,-0.0820237,4.65816e-08,0,0.0447677,0.0596903,0.179071,-0.0895354,0,-6.96386e-05,0.780366,2.20193,6.31836,-3.16607,-3.48836e-06
0.286,5.10851e-07,0.0432396,0.0547255,0.164719,-0.0823399,4.66801e-08,0,0.0449248,0.0598997,0.179699,-0.0898495,0,-7.01907e-05,0.787321,2.20419,6.31831,-3.16596,-3.67896e-06
0.287,5.08828e-07,0.0433795,0.0549301,0.165351,-0.082656,4.67847e-08,0,0.0450819,0.0601091,0.180327,-0.0901637,0,-7.07042e-05,0.794467,2.20651,6.31825,-3.16584,-3.87093e-06
0.288,5.06733e-07,0.0435189,0.0551347,0.165983,-0.0829722,4.68957e-08,0,0.0452389,0.0603186,0.180956,-0.0904779,0,-7.11802e-05,0.801797,2.20891,6.3182,-3.16573,-4.06437e-06
0.289,5.04571e-07,0.0436578,0.055339,0.166614,-0.0832884,4.70135e-08,0,0.045396,0.060528,0.181584,-0.090792,0,-7.16195e-05,0.809302,2.21136,6.31814,-3.16561,-4.25938e-06
0.29,5.02343e-07,0.0437962,0.0555432,0.167246,-0.0836045,4.71381e-08,0,0.0455531,0.0607375,0.182212,-0.0911062,0,-7.20232e-05,0.816976,2.21389,6.31809,-3.16549,-4.45605e-06
0.291,5.00052e-07,0.0439343,0.0557472,0.167878,-0.0839207,4.72698e-08,0,0.0457102,0.0609469,0.182841,-0.0914203,0,-7.23924e-05,0.824811,2.21647,6.31803,-3.16537,-4.65447e-06
0.292,4.977e-07,0.0440719,0.0559511,0.16851,-0.0842369,4.74087e-08,0,0.0458673,0.0611563,0.183469,-0.0917345,0,-7.27278e-05,0.832799,2.2191,6.31798,-3.16525,-4.85471e-06
0.293,4.9529e-07,0.0442091,0.0561548,0.169142,-0.084553,4.7555e-08,0,0.0460243,0.0613658,0.184097,-0.0920487,0,-7.30305e-05,0.840934,2.2218,6.31792,-3.16512,-5.05684e-06
0.294,4.92823e-07,0.044346,0.0563585,0.169773,-0.0848692,4.7709e-08,0,0.0461814,0.0615752,0.184726,-0.0923628,0,-7.33015e-05,0.849208,2.22454,6.31787,-3.165,-5.26094e-06
0.295,4.90303e-07,0.0444824,0.0565619,0.170405,-0.0851854,4.78706e-08,0,0.0463385,0.0617847,0.185354,-0.092677,0,-7.35416e-05,0.857613,2.22733,6.31781,-3.16487,-5.46707e-06
0.296,4.87732e-07,0.0446186,0.0567653,0.171037,-0.0855016,4.804e-08,0,0.0464956,0.0619941,0.185982,-0.0929911,0,-7.37518e-05,0.866143,2.23017,6.31776,-3.16475,-5.67528e-06
0.297,4.85111e-07,0.0447544,0.0569686,0.171669,-0.0858177,4.82174e-08,0,0.0466527,0.0622035,0.186611,-0.0933053,0,-7.3933e-05,0.87479,2.23306,6.3177,-3.16462,-5.88563e-06
0.298,4.82443e-07,0.0448899,0.0571717,0.172301,-0.0861339,4.84028e-08,0,0.0468097,0.062413,0.187239,-0.0936195,0,-7.40861e-05,0.883547,2.23598,6.31765,-3.16449,-6.09816e-06
0.299,4.79731e-07,0.0450252,0.0573747,0.172932,-0.0864501,4.85963e-08,0,0.0469668,0.0626224,0.187867,-0.0939336,0,-7.42121e-05,0.892407,2.23894,6.31759,-3.16436,-6.31292e-06
0.3,4.76976e-07,0.0451601,0.0575777,0.173564,-0.0867662,4.8798e-08,0,0.0471239,0.0628319,0.188496,-0.0942478,0,-7.43118e-05,0.901362,2.24194,6.31754,-3.16423,-6.52995e-06
0.301,4.7418e-07,0.0452949,0.0577806,0.174196,-0.0870824,4.9008e-08,0,0.047281,0.0630413,0.189124,-0.0945619,0,-7.43861e-05,0.910406,2.24497,6.31748,-3.1641,-6.74928e-06
0.302,4.71347e-07,0.0454293,0.0579834,0.174828,-0.0873985,4.92263e-08,0,0.047438,0.0632507,0.189752,-0.0948761,0,-7.44359e-05,0.919532,2.24803,6.31743,-3.16397,-6.97093e-06
0.303,4.68477e-07,0.0455636,0.0581861,0.175459,-0.0877147,4.9453e-08,0,0.0475951,0.0634602,0.190381,-0.0951903,0,-7.4462e-05,0.928732,2.25111,6.31738,-3.16384,-7.19495e-06
0.304,4.65573e-07,0.0456977,0.0583887,0.176091,-0.0880309,4.96881e-08,0,0.0477522,0.0636696,0.191009,-0.0955044,0,-7.44655e-05,0.937999,2.25423,6.31732,-3.16371,-7.42133e-06
0.305,4.62638e-07,0.0458316,0.0585913,0.176723,-0.088347,4.99315e-08,0,0.0479093,0.0638791,0.191637,-0.0958186,0,-7.4447e-05,0.947328,2.25736,6.31727,-3.16358,-7.65011e-06
0.306,4.59672e-07,0.0459653,0.0587938,0.177354,-0.0886632,5.01834e-08,0,0.0480664,0.0640885,0.192265,-0.0961327,0,-7.44075e-05,0.95671,2.26052,6.31721,-3.16344,-7.88128e-06
0.307,4.56679e-07,0.0460989,0.0589963,0.177986,-0.0889793,5.04437e-08,0,0.0482234,0.0642979,0.192894,-0.0964469,0,-7.43478e-05,0.96614,2.26369,6.31716,-3.16331,-8.11487e-06
0.308,4.5366e-07,0.0462324,0.0591988,0.178618,-0.0892955,5.07123e-08,0,0.0483805,0.0645074,0.193522,-0.0967611,0,-7.42688e-05,0.97561,2.26688,6.31711,-3.16318,-8.35087e-06
0.309,4.50618e-07,0.0463657,0.0594012,0.17925,-0.0896116,5.09894e-08,0,0.0485376,0.0647168,0.19415,-0.0970752,0,-7.41713e-05,0.985114,2.27008,6.31705,-3.16305,-8.58928e-06
0.31,4.47554e-07,0.046499,0.0596036,0.179881,-0.0899278,5.12748e-08,0,0.0486947,0.0649262,0.194779,-0.0973894,0,-7.40562e-05,0.994646,2.27329,6.317,-3.16291,-8.83009e-06
0.311,4.4447e-07,0.0466322,0.0598059,0.180513,-0.0902439,5.15685e-08,0,0.0488518,0.0651357,0.195407,-0.0977035,0,-7.39242e-05,1.0042,2.2765,6.31695,-3.16278,-9.07331e-06
0.312,4.41368e-07,0.0467653,0.0600083,0.181145,-0.09056,5.18704e-08,0,0.0490088,0.0653451,0.196035,-0.0980177,0,-7.37762e-05,1.01377,2.27973,6.3169,-3.16265,-9.31892e-06
0.313,4.3825e-07,0.0468983,0.0602106,0.181776,-0.0908762,5.21806e-08,0,0.0491659,0.0655546,0.196664,-0.0983319,0,-7.36129e-05,1.02334,2.28295,6.31684,-3.16251,-9.5669e-06
0.314,4.35119e-07,0.0470314,0.060413,0.182408,-0.0911923,5.24989e-08,0,0.049323,0.065764,0.197292,-0.098646,0,-7.34353e-05,1.03292,2.28618,6.31679,-3.16238,-9.81723e-06
0.315,4.31975e-07,0.0471644,0.0606153,0.18304,-0.0915084,5.28252e-08,0,0.0494801,0.0659734,0.19792,-0.0989602,0,-7.32442e-05,1.04249,2.2894,6.31674,-3.16225,-1.00699e-05
0.316,4.28822e-07,0.0472974,0.0608176,0.183671,-0.0918246,5.31595e-08,0,0.0496372,0.0661829,0.198549,-0.0992743,0,-7.30402e-05,1.05205,2.29262,6.31669,-3.16211,-1.03249e-05
0.317,4.2566e-07,0.0474305,0.06102,0.184303,-0.0921407,5.35017e-08,0,0.0497942,0.0663923,0.199177,-0.0995885,0,-7.28242e-05,1.0616,2.29584,6.31663,-3.16198,-1.05821e-05
0.318,4.22492e-07,0.0475636,0.0612223,0.184935,-0.0924568,5.38516e-08,0,0.0499513,0.0666018,0.199805,-0.0999026,0,-7.2597e-05,1.07112,2.29904,6.31658,-3.16185,-1.08416e-05
0.319,4.19319e-07,0.0476967,0.0614247,0.185566,-0.0927729,5.42092e-08,0,0.0501084,0.0668112,0.200434,-0.100217,0,-7.23594e-05,1.08062,2.30224,6.31653,-3.16172,-1.11033e-05
0.32,4.16144e-07,0.0478299,0.0616272,0.186198,-0.0930891,5.45744e-08,0,0.0502655,0.0670206,0.201062,-0.100531,0,-7.21121e-05,1.09008,2.30542,6.31648,-3.16159,-1.13672e-05
0.321,4.12968e-07,0.0479631,0.0618296,0.18683,-0.0934052,5.4947e-08,0,0.0504226,0.0672301,0.20169,-0.100845,0,-7.1856e-05,1.0995,2.30859,6.31643,-3.16145,-1.16332e-05
0.322,4.09793e-07,0.0480965,0.0620321,0.187461,-0.0937213,5.53269e-08,0,0.0505796,0.0674395,0.202319,-0.101159,0,-7.15917e-05,1.10888,2.31174,6.31638,-3.16132,-1.19013e-05
0.323,4.06621e-07,0.04823,0.0622347,0.188093,-0.0940374,5.5714e-08,0,0.0507367,0.067649,0.202947,-0.101473,0,-7.132e-05,1.11821,2.31487,6.31633,-3.16119,-1.21715e-05
0.324,4.03453e-07,0.0483635,0.0624373,0.188725,-0.0943535,5.61081e-08,0,0.0508938,0.0678584,0.203575,-0.101788,0,-7.10417e-05,1.12748,2.31798,6.31627,-3.16106,-1.24436e-05
0.325,4.00291e-07,0.0484972,0.0626399,0.189356,-0.0946696,5.6509e-08,0,0.0510509,0.0680678,0.204204,-0.102102,0,-7.07576e-05,1.13669,2.32107,6.31622,-3.16094,-1.27177e-05
0.326,3.97137e-07,0.0486311,0.0628426,0.189988,-0.0949857,5.69167e-08,0,0.051208,0.0682773,0.204832,-0.102416,0,-7.04683e-05,1.14583,2.32413,6.31617,-3.16081,-1.29937e-05
0.327,3.93993e-07,0.0487651,0.0630454,0.19062,-0.0953017,5.73309e-08,0,0.051365,0.0684867,0.20546,-0.10273,0,-7.01745e-05,1.1549,2.32717,6.31612,-3.16068,-1.32715e-05
0.328,3.9086e-07,0.0488993,0.0632482,0.191251,-0.0956178,5.77516e-08,0,0.0515221,0.0686962,0.206088,-0.103044,0,-6.98771e-05,1.16389,2.33018,6.31607,-3.16055,-1.35511e-05
0.329,3.8774e-07,0.0490337,0.0634511,0.191883,-0.0959339,5.81785e-08,0,0.0516792,0.0689056,0.206717,-0.103358,0,-6.95767e-05,1.17281,2.33315,6.31602,-3.16043,-1.38324e-05
0.33,3.84635e-07,0.0491682,0.0636541,0.192514,-0.09625,5.86114e-08,0,0.0518363,0.069115,0.207345,-0.103673,0,-6.9274e-05,1.18163,2.3361,6.31597,-3.1603,-1.41153e-05
0.331,3.81546e-07,0.049303,0.0638572,0.193146,-0.096566,5.90501e-08,0,0.0519934,0.0693245,0.207973,-0.103987,0,-6.89698e-05,1.19037,2.33901,6.31592,-3.16018,-1.43999e-05
0.332,3.78475e-07,0.049438,0.0640604,0.193778,-0.0968821,5.94946e-08,0,0.0521504,0.0695339,0.208602,-0.104301,0,-6.86647e-05,1.19901,2.34188,6.31588,-3.16006,-1.46859e-05
0.333,3.75423e-07,0.0495733,0.0642636,0.194409,-0.0971982,5.99445e-08,0,0.0523075,0.0697434,0.20923,-0.104615,0,-6.83595e-05,1.20755,2.34472,6.31583,-3.15993,-1.49734e-05
0.334,3.72392e-07,0.0497087,0.064467,0.195041,-0.0975142,6.03998e-08,0,0.0524646,0.0699528,0.209858,-0.104929,0,-6.80547e-05,1.21598,2.34752,6.31578,-3.15981,-1.52623e-05
0.335,3.69384e-07,0.0498445,0.0646704,0.195672,-0.0978303,6.08601e-08,0,0.0526217,0.0701622,0.210487,-0.105243,0,-6.77511e-05,1.22431,2.35027,6.31573,-3.15969,-1.55525e-05
0.336,3.66401e-07,0.0499805,0.064874,0.196304,-0.0981463,6.13253e-08,0,0.0527788,0.0703717,0.211115,-0.105558,0,-6.74494e-05,1.23252,2.35299,6.31568,-3.15957,-1.58439e-05
0.337,3.63442e-07,0.0501167,0.0650777,0.196935,-0.0984623,6.17953e-08,0,0.0529358,0.0705811,0.211743,-0.105872,0,-6.71502e-05,1.24062,2.35566,6.31563,-3.15945,-1.61365e-05
0.338,3.60511e-07,0.0502533,0.0652814,0.197567,-0.0987784,6.22696e-08,0,0.0530929,0.0707906,0.212372,-0.106186,0,-6.68541e-05,1.2486,2.35828,6.31559,-3.15934,-1.64302e-05
0.339,3.57609e-07,0.0503901,0.0654853,0.198199,-0.0990944,6.27483e-08,0,0.05325,0.071,0.213,-0.1065,0,-6.65619e-05,1.25645,2.36086,6.31554,-3.15922,-1.67248e-05
0.34,3.54737e-07,0.0505273,0.0656893,0.19883,-0.0994104,6.3231e-08,0,0.0534071,0.0712094,0.213628,-0.106814,0,-6.62741e-05,1.26417,2.36339,6.31549,-3.15911,-1.70204e-05
0.341,3.51896e-07,0.0506648,0.0658935,0.199462,-0.0997264,6.37175e-08,0,0.0535642,0.0714189,0.214257,-0.107128,0,-6.59914e-05,1.27176,2.36588,6.31544,-3.15899,-1.73168e-05
0.342,3.49088e-07,0.0508026,0.0660977,0.200093,-0.100042,6.42076e-08,0,0.0537212,0.0716283,0.214885,-0.107442,0,-6.57143e-05,1.27921,2.36831,6.3154,-3.15888,-1.7614e-05
0.343,3.46315e-07,0.0509407,0.0663021,0.200725,-0.100358,6.47012e-08,0,0.0538783,0.0718378,0.215513,-0.107757,0,-6.54436e-05,1.28653,2.37068,6.31535,-3.15877,-1.79119e-05
0.344,3.43577e-07,0.0510792,0.0665066,0.201356,-0.100674,6.51978e-08,0,0.0540354,0.0720472,0.216142,-0.108071,0,-6.51798e-05,1.2937,2.37301,6.3153,-3.15866,-1.82103e-05
0.345,3.40876e-07,0.0512181,0.0667113,0.201988,-0.10099,6.56974e-08,0,0.0541925,0.0722566,0.21677,-0.108385,0,-6.49235e-05,1.30072,2.37528,6.31526,-3.15855,-1.85093e-05
0.346,3.38214e-07,0.0513573,0.0669161,0.202619,-0.101306,6.61997e-08,0,0.0543496,0.0724661,0.217398,-0.108699,0,-6.46753e-05,1.3076,2.3775,6.31521,-3.15845,-1.88087e-05
0.347,3.35591e-07,0.0514968,0.067121,0.203251,-0.101622,6.67045e-08,0,0.0545066,0.0726755,0.218027,-0.109013,0,-6.44357e-05,1.31433,2.37965,6.31516,-3.15834,-1.91084e-05
0.348,3.33009e-07,0.0516368,0.0673261,0.203882,-0.101938,6.72114e-08,0,0.0546637,0.0728849,0.218655,-0.109327,0,-6.42054e-05,1.3209,2.38175,6.31512,-3.15824,-1.94084e-05
0.349,3.3047e-07,0.0517771,0.0675313,0.204514,-0.102254,6.77204e-08,0,0.0548208,0.0730944,0.219283,-0.109642,0,-6.39849e-05,1.32731,2.38379,6.31507,-3.15814,-1.97085e-05
0.35,3.27974e-07,0.0519178,0.0677367,0.205145,-0.10257,6.82312e-08,0,0.0549779,0.0733038,0.219911,-0.109956,0,-6.37748e-05,1.33356,2.38578,6.31503,-3.15803,-2.00087e-05
0.351,3.25522e-07,0.0520589,0.0679422,0.205777,-0.102886,6.87434e-08,0,0.055135,0.0735133,0.22054,-0.11027,0,-6.35755e-05,1.33965,2.3877,6.31498,-3.15793,-2.03089e-05
0.352,3.23117e-07,0.0522004,0.0681478,0.206408,-0.103202,6.9257e-08,0,0.055292,0.0737227,0.221168,-0.110584,0,-6.33877e-05,1.34557,2.38955,6.31494,-3.15784,-2.06089e-05
0.353,3.20758e-07,0.0523424,0.0683537,0.20704,-0.103518,6.97715e-08,0,0.0554491,0.0739321,0.221796,-0.110898,0,-6.32119e-05,1.35133,2.39135,6.31489,-3.15774,-2.09088e-05
0.354,3.18448e-07,0.0524847,0.0685597,0.207671,-0.103834,7.02869e-08,0,0.0556062,0.0741416,0.222425,-0.111212,0,-6.30485e-05,1.35692,2.39308,6.31485,-3.15764,-2.12084e-05
0.355,3.16187e-07,0.0526275,0.0687658,0.208303,-0.10415,7.08029e-08,0,0.0557633,0.074351,0.223053,-0.111527,0,-6.28981e-05,1.36233,2.39475,6.3148,-3.15755,-2.15076e-05
0.356,3.13976e-07,0.0527707,0.0689721,0.208934,-0.104466,7.13192e-08,0,0.0559203,0.0745605,0.223681,-0.111841,0,-6.27611e-05,1.36757,2.39635,6.31476,-3.15746,-2.18063e-05
0.357,3.11817e-07,0.0529143,0.0691786,0.209566,-0.104782,7.18356e-08,0,0.0560774,0.0747699,0.22431,-0.112155,0,-6.26381e-05,1.37263,2.39789,6.31472,-3.15737,-2.21045e-05
0.358,3.09711e-07,0.0530584,0.0693852,0.210197,-0.105098,7.23518e-08,0,0.0562345,0.0749793,0.224938,-0.112469,0,-6.25296e-05,1.37752,2.39936,6.31467,-3.15728,-2.24021e-05
0.359,3.07657e-07,0.0532029,0.069592,0.210829,-0.105414,7.28677e-08,0,0.0563916,0.0751888,0.225566,-0.112783,0,-6.24359e-05,1.38223,2.40076,6.31463,-3.15719,-2.26989e-05
0.36,3.05659e-07,0.0533478,0.069799,0.21146,-0.10573,7.33829e-08,0,0.0565487,0.0753982,0.226195,-0.113097,0,-6.23576e-05,1.38675,2.4021,6.31458,-3.15711,-2.29948e-05
0.361,3.03715e-07,0.0534932,0.0700061,0.212092,-0.106046,7.38973e-08,0,0.0567057,0.0756077,0.226823,-0.113411,0,-6.2295e-05,1.3911,2.40337,6.31454,-3.15702,-2.32899e-05
0.362,3.01828e-07,0.0536391,0.0702134,0.212723,-0.106361,7.44106e-08,0,0.0568628,0.0758171,0.227451,-0.113726,0,-6.22487e-05,1.39525,2.40456,6.3145,-3.15694,-2.35839e-05
0.363,2.99999e-07,0.0537854,0.0704209,0.213355,-0.106677,7.49225e-08,0,0.0570199,0.0760265,0.22808,-0.11404,0,-6.22191e-05,1.39923,2.40569,6.31446,-3.15686,-2.38769e-05
0.364,2.98227e-07,0.0539322,0.0706286,0.213986,-0.106993,7.54329e-08,0,0.057177,0.076236,0.228708,-0.114354,0,-6.22064e-05,1.40301,2.40675,6.31441,-3.15678,-2.41686e-05
0.365,2.96515e-07,0.0540795,0.0708364,0.214618,-0.107309,7.59416e-08,0,0.0573341,0.0764454,0.229336,-0.114668,0,-6.22113e-05,1.40661,2.40774,6.31437,-3.1567,-2.44591e-05
0.366,2.94862e-07,0.0542272,0.0710444,0.215249,-0.107625,7.64482e-08,0,0.0574911,0.0766549,0.229965,-0.114982,0,-6.2234e-05,1.41002,2.40866,6.31433,-3.15663,-2.47483e-05
0.367,2.9327e-07,0.0543754,0.0712526,0.21588,-0.107941,7.69525e-08,0,0.0576482,0.0768643,0.230593,-0.115296,0,-6.22749e-05,1.41324,2.40951,6.31429,-3.15655,-2.50359e-05
0.368,2.9174e-07,0.054524,0.0714609,0.216512,-0.108257,7.74544e-08,0,0.0578053,0.0770737,0.231221,-0.115611,0,-6.23344e-05,1.41627,2.41028,6.31425,-3.15648,-2.53221e-05
0.369,2.90272e-07,0.0546732,0.0716695,0.217143,-0.108573,7.79536e-08,0,0.0579624,0.0772832,0.23185,-0.115925,0,-6.24129e-05,1.41911,2.41099,6.3142,-3.15641,-2.56066e-05
0.37,2.88866e-07,0.0548228,0.0718782,0.217775,-0.108888,7.84498e-08,0,0.0581195,0.0774926,0.232478,-0.116239,0,-6.25107e-05,1.42176,2.41162,6.31416,-3.15634,-2.58894e-05
0.371,2.87524e-07,0.0549729,0.0720871,0.218406,-0.109204,7.8943e-08,0,0.0582765,0.0777021,0.233106,-0.116553,0,-6.26281e-05,1.42422,2.41218,6.31412,-3.15627,-2.61705e-05
0.372,2.86247e-07,0.0551235,0.0722961,0.219038,-0.10952,7.94327e-08,0,0.0584336,0.0779115,0.233734,-0.116867,0,-6.27654e-05,1.42648,2.41267,6.31408,-3.15621,-2.64496e-05
0.373,2.85034e-07,0.0552745,0.0725054,0.219669,-0.109836,7.99189e-08,0,0.0585907,0.0781209,0.234363,-0.117181,0,-6.29231e-05,1.42855,2.41309,6.31404,-3.15614,-2.67269e-05
0.374,2.83887e-07,0.0554261,0.0727148,0.2203,-0.110152,8.04014e-08,0,0.0587478,0.0783304,0.234991,-0.117496,0,-6.31013e-05,1.43043,2.41343,6.314,-3.15608,-2.7002e-05
0.375,2.82806e-07,0.0555781,0.0729244,0.220932,-0.110468,8.08798e-08,0,0.0589049,0.0785398,0.235619,-0.11781,0,-6.33003e-05,1.43211,2.41371,6.31396,-3.15602,-2.72751e-05
0.376,2.81792e-07,0.0557306,0.0731342,0.221563,-0.110783,8.13541e-08,0,0.0590619,0.0787493,0.236248,-0.118124,0,-6.35205e-05,1.4336,2.41391,6.31392,-3.15596,-2.7546e-05
0.377,2.80844e-07,0.0558836,0.0733442,0.222195,-0.111099,8.1824e-08,0,0.059219,0.0789587,0.236876,-0.118438,0,-6.37621e-05,1.4349,2.41403,6.31388,-3.15591,-2.78146e-05
0.378,2.79965e-07,0.0560371,0.0735543,0.222826,-0.111415,8.22892e-08,0,0.0593761,0.0791681,0.237504,-0.118752,0,-6.40253e-05,1.436,2.41409,6.31384,-3.15585,-2.80808e-05
0.379,2.79153e-07,0.056191,0.0737647,0.223457,-0.111731,8.27497e-08,0,0.0595332,0.0793776,0.238133,-0.119066,0,-6.43105e-05,1.43691,2.41407,6.3138,-3.1558,-2.83447e-05
0.38,2.7841e-07,0.0563455,0.0739752,0.224089,-0.112047,8.32052e-08,0,0.0596903,0.079587,0.238761,-0.119381,0,-6.46177e-05,1.43763,2.41399,6.31376,-3.15574,-2.8606e-05
0.381,2.77736e-07,0.0565004,0.0741858,0.22472,-0.112362,8.36556e-08,0,0.0598473,0.0797965,0.239389,-0.119695,0,-6.49473e-05,1.43816,2.41383,6.31372,-3.15569,-2.88648e-05
0.382,2.77131e-07,0.0566558,0.0743967,0.225351,-0.112678,8.41006e-08,0,0.0600044,0.0800059,0.240018,-0.120009,0,-6.52995e-05,1.4385,2.41359,6.31368,-3.15565,-2.91209e-05
0.383,2.76596e-07,0.0568117,0.0746077,0.225983,-0.112994,8.454e-08,0,0.0601615,0.0802153,0.240646,-0.120323,0,-6.56744e-05,1.43864,2.41329,6.31365,-3.1556,-2.93744e-05
0.384,2.76131e-07,0.0569681,0.074819,0.226614,-0.11331,8.49738e-08,0,0.0603186,0.0804248,0.241274,-0.120637,0,-6.60722e-05,1.43859,2.41292,6.31361,-3.15555,-2.9625e-05
0.385,2.75736e-07,0.0571249,0.0750304,0.227246,-0.113625,8.54017e-08,0,0.0604757,0.0806342,0.241903,-0.120951,0,-6.64931e-05,1.43836,2.41247,6.31357,-3.15551,-2.98728e-05
0.386,2.75411e-07,0.0572822,0.0752419,0.227877,-0.113941,8.58235e-08,0,0.0606327,0.0808437,0.242531,-0.121265,0,-6.69373e-05,1.43793,2.41196,6.31353,-3.15547,-3.01177e-05
0.387,2.75158e-07,0.05744,0.0754537,0.228508,-0.114257,8.62391e-08,0,0.0607898,0.0810531,0.243159,-0.12158,0,-6.74048e-05,1.43732,2.41137,6.31349,-3.15543,-3.03596e-05
0.388,2.74975e-07,0.0575983,0.0756656,0.22914,-0.114573,8.66484e-08,0,0.0609469,0.0812625,0.243788,-0.121894,0,-6.78959e-05,1.43652,2.41071,6.31345,-3.15539,-3.05985e-05
0.389,2.74863e-07,0.057757,0.0758777,0.229771,-0.114888,8.70511e-08,0,0.061104,0.081472,0.244416,-0.122208,0,-6.84107e-05,1.43553,2.40999,6.31342,-3.15535,-3.08343e-05
0.39,2.74823e-07,0.0579163,0.0760899,0.230402,-0.115204,8.74472e-08,0,0.0612611,0.0816814,0.245044,-0.122522,0,-6.89492e-05,1.43436,2.40919,6.31338,-3.15532,-3.10669e-05
0.391,2.74854e-07,0.0580759,0.0763024,0.231034,-0.11552,8.78364e-08,0,0.0614181,0.0818908,0.245673,-0.122836,0,-6.95116e-05,1.43301,2.40833,6.31334,-3.15528,-3.12964e-05
0.392,2.74956e-07,0.0582361,0.076515,0.231665,-0.115835,8.82186e-08,0,0.0615752,0.0821003,0.246301,-0.12315,0,-7.0098e-05,1.43147,2.4074,6.31331,-3.15525,-3.15225e-05
0.393,2.7513e-07,0.0583967,0.0767277,0.232296,-0.116151,8.85938e-08,0,0.0617323,0.0823097,0.246929,-0.123465,0,-7.07084e-05,1.42975,2.4064,6.31327,-3.15522,-3.17454e-05
0.394,2.75375e-07,0.0585577,0.0769407,0.232928,-0.116467,8.89617e-08,0,0.0618894,0.0825192,0.247558,-0.123779,0,-7.13428e-05,1.42786,2.40533,6.31323,-3.15519,-3.19648e-05
0.395,2.75692e-07,0.0587192,0.0771538,0.233559,-0.116783,8.93222e-08,0,0.0620465,0.0827286,0.248186,-0.124093,0,-7.20015e-05,1.42578,2.4042,6.3132,-3.15516,-3.21809e-05
0.396,2.7608e-07,0.0588812,0.077367,0.23419,-0.117098,8.96753e-08,0,0.0622035,0.082938,0.248814,-0.124407,0,-7.26842e-05,1.42353,2.403,6.31316,-3.15513,-3.23935e-05
0.397,2.7654e-07,0.0590436,0.0775805,0.234822,-0.117414,9.00207e-08,0,0.0623606,0.0831475,0.249442,-0.124721,0,-7.33913e-05,1.4211,2.40173,6.31312,-3.15511,-3.26026e-05
0.398,2.77071e-07,0.0592064,0.0777941,0.235453,-0.11773,9.03584e-08,0,0.0625177,0.0833569,0.250071,-0.125035,0,-7.41225e-05,1.4185,2.4004,6.31309,-3.15509,-3.28081e-05
0.399,2.77673e-07,0.0593697,0.0780078,0.236084,-0.118045,9.06883e-08,0,0.0626748,0.0835664,0.250699,-0.12535,0,-7.48779e-05,1.41572,2.39901,6.31305,-3.15507,-3.301e-05
0.4,2.78346e-07,0.0595334,0.0782217,0.236716,-0.118361,9.10103e-08,0,0.0628319,0.0837758,0.251327,-0.125664,0,-7.56576e-05,1.41278,2.39755,6.31302,-3.15505,-3.32083e-05
0.401,2.7909e-07,0.0596975,0.0784358,0.237347,-0.118677,9.13242e-08,0,0.0629889,0.0839852,0.251956,-0.125978,0,-7.64615e-05,1.40967,2.39603,6.31298,-3.15503,-3.34029e-05
0.402,2.79905e-07,0.0598621,0.07865,0.237978,-0.118992,9.163e-08,0,0.063146,0.0841947,0.252584,-0.126292,0,-7.72895e-05,1.40639,2.39445,6.31294,-3.15501,-3.35938e-05
0.403,2.8079e-07,0.0600271,0.0788644,0.23861,-0.119308,9.19276e-08,0,0.0633031,0.0844041,0.253212,-0.126606,0,-7.81417e-05,1.40294,2.3928,6.31291,-3.15499,-3.37809e-05
0.404,2.81746e-07,0.0601925,0.0790789,0.239241,-0.119624,9.22169e-08,0,0.0634602,0.0846136,0.253841,-0.12692,0,-7.9018e-05,1.39934,2.3911,6.31287,-3.15498,-3.39643e-05
0.405,2.82771e-07,0.0603583,0.0792936,0.239872,-0.119939,9.24979e-08,0,0.0636173,0.084823,0.254469,-0.127235,0,-7.99182e-05,1.39557,2.38933,6.31284,-3.15497,-3.41438e-05
0.406,2.83866e-07,0.0605245,0.0795084,0.240503,-0.120255,9.27704e-08,0,0.0637743,0.0850324,0.255097,-0.127549,0,-8.08424e-05,1.39165,2.38751,6.3128,-3.15495,-3.43195e-05
0.407,2.8503e-07,0.0606911,0.0797233,0.241135,-0.120571,9.30344e-08,0,0.0639314,0.0852419,0.255726,-0.127863,0,-8.17905e-05,1.38756,2.38562,6.31277,-3.15494,-3.44914e-05
0.408,2.86262e-07,0.0608581,0.0799384,0.241766,-0.120886,9.32898e-08,0,0.0640885,0.0854513,0.256354,-0.128177,0,-8.27622e-05,1.38333,2.38368,6.31274,-3.15494,-3.46594e-05
0.409,2.87564e-07,0.0610255,0.0801537,0.242397,-0.121202,9.35366e-08,0,0.0642456,0.0856608,0.256982,-0.128491,0,-8.37577e-05,1.37894,2.38168,6.3127,-3.15493,-3.48234e-05
0.41,2.88933e-07,0.0611933,0.0803691,0.243029,-0.121517,9.37747e-08,0,0.0644026,0.0858702,0.257611,-0.128805,0,-8.47766e-05,1.3744,2.37963,6.31267,-3.15492,-3.49836e-05
0.411,2.9037e-07,0.0613615,0.0805846,0.24366,-0.121833,9.40041e-08,0,0.0645597,0.0860796,0.258239,-0.129119,0,-8.5819e-05,1.36972,2.37752,6.31263,-3.15492,-3.51397e-05
0.412,2.91874e-07,0.06153,0.0808003,0.244291,-0.122149,9.42247e-08,0,0.0647168,0.0862891,0.258867,-0.129434,0,-8.68845e-05,1.36489,2.37536,6.3126,-3.15491,-3.5292e-05
0.413,2.93445e-07,0.0616989,0.081016,0.244922,-0.122464,9.44365e-08,0,0.0648739,0.0864985,0.259496,-0.129748,0,-8.79732e-05,1.35991,2.37314,6.31257,-3.15491,-3.54402e-05
0.414,2.95082e-07,0.0618682,0.081232,0.245554,-0.12278,9.46395e-08,0,0.065031,0.086708,0.260124,-0.130062,0,-8.90848e-05,1.3548,2.37087,6.31253,-3.15491,-3.55845e-05
0.415,2.96784e-07,0.0620378,0.081448,0.246185,-0.123095,9.48336e-08,0,0.065188,0.0869174,0.260752,-0.130376,0,-9.02192e-05,1.34955,2.36855,6.3125,-3.15491,-3.57248e-05
0.416,2.98552e-07,0.0622078,0.0816642,0.246816,-0.123411,9.50189e-08,0,0.0653451,0.0871268,0.261381,-0.13069,0,-9.13762e-05,1.34416,2.36618,6.31247,-3.15491,-3.5861e-05
0.417,3.00384e-07,0.0623781,0.0818805,0.247448,-0.123727,9.51953e-08,0,0.0655022,0.0873363,0.262009,-0.131004,0,-9.25555e-05,1.33864,2.36376,6.31243,-3.15491,-3.59933e-05
0.418,3.02279e-07,0.0625488,0.0820969,0.248079,-0.124042,9.53628e-08,0,0.0656593,0.0875457,0.262637,-0.131319,0,-9.3757e-05,1.33299,2.36129,6.3124,-3.15492,-3.61215e-05
0.419,3.04238e-07,0.0627197,0.0823134,0.24871,-0.124358,9.55214e-08,0,0.0658164,0.0877552,0.263265,-0.131633,0,-9.49805e-05,1.32721,2.35877,6.31237,-3.15492,-3.62458e-05
0.42,3.06259e-07,0.062891,0.08253,0.249341,-0.124673,9.56711e-08,0,0.0659734,0.0879646,0.263894,-0.131947,0,-9.62258e-05,1.3213,2.3562,6.31234,-3.15493,-3.6366e-05
0.421,3.08342e-07,0.0630627,0.0827468,0.249973,-0.124989,9.58119e-08,0,0.0661305,0.088174,0.264522,-0.132261,0,-9.74926e-05,1.31527,2.35359,6.3123,-3.15493,-3.64822e-05
0.422,3.10486e-07,0.0632346,0.0829637,0.250604,-0.125305,9.59438e-08,0,0.0662876,0.0883835,0.26515,-0.132575,0,-9.87806e-05,1.30912,2.35094,6.31227,-3.15494,-3.65945e-05
0.423,3.12691e-07,0.0634068,0.0831807,0.251235,-0.12562,9.60669e-08,0,0.0664447,0.0885929,0.265779,-0.132889,0,-0.00010009,1.30286,2.34824,6.31224,-3.15495,-3.67027e-05
0.424,3.14955e-07,0.0635794,0.0833977,0.251866,-0.125936,9.61811e-08,0,0.0666018,0.0888024,0.266407,-0.133204,0,-0.00010142,1.29648,2.3455,6.31221,-3.15496,-3.68069e-05
0.425,3.17278e-07,0.0637522,0.0836149,0.252498,-0.126251,9.62866e-08,0,0.0667588,0.0890118,0.267035,-0.133518,0,-0.00010277,1.28999,2.34271,6.31218,-3.15497,-3.69072e-05
0.426,3.19659e-07,0.0639253,0.0838322,0.253129,-0.126567,9.63832e-08,0,0.0669159,0.0892212,0.267664,-0.133832,0,-0.000104141,1.28338,2.33989,6.31215,-3.15498,-3.70035e-05
0.427,3.22097e-07,0.0640987,0.0840496,0.25376,-0.126882,9.64711e-08,0,0.067073,0.0894307,0.268292,-0.134146,0,-0.000105531,1.27667,2.33702,6.31211,-3.15499,-3.70959e-05
0.428,3.24592e-07,0.0642724,0.0842671,0.254391,-0.127198,9.65504e-08,0,0.0672301,0.0896401,0.26892,-0.13446,0,-0.000106941,1.26986,2.33412,6.31208,-3.15501,-3.71844e-05
0.429,3.27142e-07,0.0644463,0.0844846,0.255022,-0.127513,9.66209e-08,0,0.0673872,0.0898495,0.269549,-0.134774,0,-0.000108371,1.26294,2.33117,6.31205,-3.15502,-3.72689e-05
0.43,3.29747e-07,0.0646205,0.0847023,0.255654,-0.127829,9.66829e-08,0,0.0675442,0.090059,0.270177,-0.135088,0,-0.00010982,1.25593,2.3282,6.31202,-3.15504,-3.73496e-05
0.431,3.32405e-07,0.064795,0.0849201,0.256285,-0.128144,9.67364e-08,0,0.0677013,0.0902684,0.270805,-0.135403,0,-0.000111287,1.24882,2.32518,6.31199,-3.15505,-3.74264e-05
0.432,3.35117e-07,0.0649696,0.0851379,0.256916,-0.12846,9.67813e-08,0,0.0678584,0.0904779,0.271434,-0.135717,0,-0.000112773,1.24162,2.32213,6.31196,-3.15507,-3.74993e-05
0.433,3.3788e-07,0.0651446,0.0853558,0.257547,-0.128776,9.68179e-08,0,0.0680155,0.0906873,0.272062,-0.136031,0,-0.000114276,1.23433,2.31905,6.31193,-3.15509,-3.75685e-05
0.434,3.40695e-07,0.0653197,0.0855738,0.258179,-0.129091,9.68461e-08,0,0.0681726,0.0908967,0.27269,-0.136345,0,-0.000115798,1.22695,2.31593,6.3119,-3.1551,-3.76339e-05
0.435,3.43559e-07,0.0654951,0.0857919,0.25881,-0.129407,9.68661e-08,0,0.0683296,0.0911062,0.273319,-0.136659,0,-0.000117337,1.21948,2.31279,6.31187,-3.15512,-3.76955e-05
0.436,3.46473e-07,0.0656707,0.08601,0.259441,-0.129722,9.68779e-08,0,0.0684867,0.0913156,0.273947,-0.136973,0,-0.000118893,1.21193,2.30961,6.31184,-3.15514,-3.77534e-05
0.437,3.49435e-07,0.0658465,0.0862282,0.260072,-0.130038,9.68816e-08,0,0.0686438,0.0915251,0.274575,-0.137288,0,-0.000120466,1.20431,2.3064,6.31181,-3.15516,-3.78076e-05
0.438,3.52444e-07,0.0660225,0.0864465,0.260703,-0.130353,9.68773e-08,0,0.0688009,0.0917345,0.275204,-0.137602,0,-0.000122055,1.19661,2.30317,6.31178,-3.15519,-3.78582e-05
0.439,3.55499e-07,0.0661987,0.0866649,0.261335,-0.130669,9.68651e-08,0,0.068958,0.0919439,0.275832,-0.137916,0,-0.00012366,1.18883,2.2999,6.31175,-3.15521,-3.79052e-05
0.44,3.58599e-07,0.0663751,0.0868833,0.261966,-0.130984,9.6845e-08,0,0.069115,0.0921534,0.27646,-0.13823,0,-0.00012528,1.18098,2.29661,6.31172,-3.15523,-3.79486e-05
0.441,3.61744e-07,0.0665516,0.0871018,0.262597,-0.1313,9.68173e-08,0,0.0692721,0.0923628,0.277088,-0.138544,0,-0.000126916,1.17307,2.2933,6.31169,-3.15525,-3.79885e-05
0.442,3.64931e-07,0.0667284,0.0873203,0.263228,-0.131615,9.67819e-08,0,0.0694292,0.0925723,0.277717,-0.138858,0,-0.000128567,1.16509,2.28996,6.31166,-3.15528,-3.80249e-05
0.443,3.6816e-07,0.0669053,0.0875389,0.263859,-0.131931,9.67391e-08,0,0.0695863,0.0927817,0.278345,-0.139173,0,-0.000130232,1.15705,2.2866,6.31163,-3.1553,-3.80578e-05
0.444,3.7143e-07,0.0670823,0.0877576,0.264491,-0.132246,9.66889e-08,0,0.0697434,0.0929911,0.278973,-0.139487,0,-0.000131911,1.14894,2.28322,6.3116,-3.15533,-3.80874e-05
0.445,3.7474e-07,0.0672595,0.0879763,0.265122,-0.132562,9.66314e-08,0,0.0699004,0.0932006,0.279602,-0.139801,0,-0.000133603,1.14079,2.27981,6.31157,-3.15535,-3.81137e-05
0.446,3.78089e-07,0.0674369,0.088195,0.265753,-0.132877,9.65668e-08,0,0.0700575,0.09341,0.28023,-0.140115,0,-0.000135309,1.13257,2.27638,6.31154,-3.15538,-3.81366e-05
0.447,3.81475e-07,0.0676144,0.0884138,0.266384,-0.133193,9.64952e-08,0,0.0702146,0.0936195,0.280858,-0.140429,0,-0.000137028,1.12431,2.27294,6.31151,-3.1554,-3.81563e-05
0.448,3.84897e-07,0.067792,0.0886326,0.267015,-0.133508,9.64166e-08,0,0.0703717,0.0938289,0.281487,-0.140743,0,-0.000138759,1.116,2.26948,6.31149,-3.15543,-3.81728e-05
0.449,3.88355e-07,0.0679698,0.0888515,0.267646,-0.133824,9.63314e-08,0,0.0705288,0.0940383,0.282115,-0.141058,0,-0.000140502,1.10764,2.266,6.31146,-3.15546,-3.81862e-05
0.45,3.91847e-07,0.0681476,0.0890704,0.268278,-0.134139,9.62395e-08,0,0.0706858,0.0942478,0.282743,-0.141372,0,-0.000142257,1.09923,2.2625,6.31143,-3.15548,-3.81964e-05
0.451,3.95372e-07,0.0683256,0.0892893,0.268909,-0.134455,9.61411e-08,0,0.0708429,0.0944572,0.283372,-0.141686,0,-0.000144022,1.09079,2.25899,6.3114,-3.15551,-3.82037e-05
0.452,3.98929e-07,0.0685037,0.0895083,0.26954,-0.13477,9.60364e-08,0,0.071,0.0946667,0.284,-0.142,0,-0.000145799,1.08231,2.25547,6.31137,-3.15554,-3.8208e-05
0.453,4.02517e-07,0.0686819,0.0897273,0.270171,-0.135086,9.59255e-08,0,0.0711571,0.0948761,0.284628,-0.142314,0,-0.000147585,1.0738,2.25193,6.31134,-3.15557,-3.82094e-05
0.454,4.06134e-07,0.0688602,0.0899464,0.270802,-0.135401,9.58086e-08,0,0.0713142,0.0950855,0.285257,-0.142628,0,-0.000149382,1.06525,2.24838,6.31132,-3.1556,-3.8208e-05
0.455,4.0978e-07,0.0690385,0.0901654,0.271433,-0.135717,9.56858e-08,0,0.0714712,0.095295,0.285885,-0.142942,0,-0.000151188,1.05667,2.24482,6.31129,-3.15563,-3.82037e-05
0.456,4.13452e-07,0.069217,0.0903845,0.272065,-0.136032,9.55573e-08,0,0.0716283,0.0955044,0.286513,-0.143257,0,-0.000153002,1.04807,2.24125,6.31126,-3.15566,-3.81968e-05
0.457,4.17151e-07,0.0693955,0.0906036,0.272696,-0.136347,9.54232e-08,0,0.0717854,0.0957139,0.287142,-0.143571,0,-0.000154825,1.03944,2.23767,6.31123,-3.15569,-3.81872e-05
0.458,4.20875e-07,0.069574,0.0908227,0.273327,-0.136663,9.52837e-08,0,0.0719425,0.0959233,0.28777,-0.143885,0,-0.000156657,1.03078,2.23408,6.31121,-3.15572,-3.81749e-05
0.459,4.24623e-07,0.0697527,0.0910419,0.273958,-0.136978,9.51389e-08,0,0.0720996,0.0961327,0.288398,-0.144199,0,-0.000158496,1.02211,2.23049,6.31118,-3.15575,-3.81602e-05
0.46,4.28393e-07,0.0699313,0.091261,0.274589,-0.137294,9.4989e-08,0,0.0722566,0.0963422,0.289027,-0.144513,0,-0.000160342,1.01342,2.22689,6.31115,-3.15578,-3.8143e-05
0.461,4.32184e-07,0.0701101,0.0914802,0.27522,-0.137609,9.48342e-08,0,0.0724137,0.0965516,0.289655,-0.144827,0,-0.000162194,1.00472,2.22328,6.31113,-3.15581,-3.81235e-05
0.462,4.35996e-07,0.0702888,0.0916993,0.275851,-0.137925,9.46747e-08,0,0.0725708,0.0967611,0.290283,-0.145142,0,-0.000164053,0.996005,2.21967,6.3111,-3.15584,-3.81016e-05
0.463,4.39826e-07,0.0704676,0.0919185,0.276483,-0.13824,9.45106e-08,0,0.0727279,0.0969705,0.290911,-0.145456,0,-0.000165918,0.98728,2.21606,6.31107,-3.15587,-3.80774e-05
0.464,4.43675e-07,0.0706464,0.0921377,0.277114,-0.138556,9.43421e-08,0,0.0728849,0.0971799,0.29154,-0.14577,0,-0.000167788,0.978548,2.21244,6.31104,-3.1559,-3.80511e-05
0.465,4.4754e-07,0.0708253,0.0923569,0.277745,-0.138871,9.41694e-08,0,0.073042,0.0973894,0.292168,-0.146084,0,-0.000169663,0.96981,2.20882,6.31102,-3.15593,-3.80227e-05
0.466,4.5142e-07,0.0710041,0.092576,0.278376,-0.139187,9.39926e-08,0,0.0731991,0.0975988,0.292796,-0.146398,0,-0.000171543,0.96107,2.2052,6.31099,-3.15596,-3.79922e-05
0.467,4.55314e-07,0.071183,0.0927952,0.279007,-0.139502,9.3812e-08,0,0.0733562,0.0978083,0.293425,-0.146712,0,-0.000173426,0.95233,2.20158,6.31097,-3.15599,-3.79598e-05
0.468,4.59222e-07,0.0713619,0.0930144,0.279638,-0.139818,9.36276e-08,0,0.0735133,0.0980177,0.294053,-0.147027,0,-0.000175313,0.943592,2.19797,6.31094,-3.15602,-3.79255e-05
0.469,4.63141e-07,0.0715407,0.0932335,0.280269,-0.140133,9.34398e-08,0,0.0736703,0.0982271,0.294681,-0.147341,0,-0.000177203,0.934858,2.19435,6.31091,-3.15605,-3.78894e-05
0.47,4.67071e-07,0.0717196,0.0934527,0.280901,-0.140449,9.32486e-08,0,0.0738274,0.0984366,0.29531,-0.147655,0,-0.000179096,0.926131,2.19074,6.31089,-3.15608,-3.78516e-05
0.471,4.7101e-07,0.0718984,0.0936718,0.281532,-0.140764,9.30543e-08,0,0.0739845,0.098646,0.295938,-0.147969,0,-0.000180991,0.917413,2.18713,6.31086,-3.15611,-3.78121e-05
0.472,4.74958e-07,0.0720772,0.093891,0.282163,-0.141079,9.28571e-08,0,0.0741416,0.0988554,0.296566,-0.148283,0,-0.000182888,0.908705,2.18352,6.31084,-3.15615,-3.7771e-05
0.473,4.78912e-07,0.072256,0.0941101,0.282794,-0.141395,9.26571e-08,0,0.0742987,0.0990649,0.297195,-0.148597,0,-0.000184785,0.90001,2.17992,6.31081,-3.15618,-3.77284e-05
0.474,4.82873e-07,0.0724347,0.0943292,0.283425,-0.14171,9.24545e-08,0,0.0744557,0.0992743,0.297823,-0.148911,0,-0.000186684,0.891331,2.17633,6.31078,-3.15621,-3.76844e-05
0.475,4.86838e-07,0.0726134,0.0945482,0.284056,-0.142026,9.22496e-08,0,0.0746128,0.0994838,0.298451,-0.149226,0,-0.000188583,0.882669,2.17274,6.31076,-3.15624,-3.76391e-05
0.476,4.90808e-07,0.0727921,0.0947673,0.284687,-0.142341,9.20424e-08,0,0.0747699,0.0996932,0.29908,-0.14954,0,-0.000190482,0.874026,2.16916,6.31073,-3.15627,-3.75925e-05
0.477,4.94779e-07,0.0729707,0.0949863,0.285318,-0.142657,9.18333e-08,0,0.074927,0.0999026,0.299708,-0.149854,0,-0.000192381,0.865405,2.16559,6.31071,-3.1563,-3.75446e-05
0.478,4.98752e-07,0.0731493,0.0952053,0.285949,-0.142972,9.16223e-08,0,0.0750841,0.100112,0.300336,-0.150168,0,-0.000194279,0.856806,2.16203,6.31068,-3.15633,-3.74957e-05
0.479,5.02725e-07,0.0733278,0.0954243,0.286581,-0.143288,9.14097e-08,0,0.0752411,0.100322,0.300965,-0.150482,0,-0.000196175,0.848233,2.15847,6.31066,-3.15636,-3.74458e-05
0.48,5.06697e-07,0.0735062,0.0956432,0.287212,-0.143603,9.11958e-08,0,0.0753982,0.100531,0.301593,-0.150796,0,-0.000198069,0.839687,2.15493,6.31063,-3.15639,-3.73949e-05
0.481,5.10667e-07,0.0736846,0.0958621,0.287843,-0.143919,9.09805e-08,0,0.0755553,0.10074,0.302221,-0.151111,0,-0.000199962,0.83117,2.1514,6.31061,-3.15642,-3.73431e-05
0.482,5.14634e-07,0.0738629,0.096081,0.288474,-0.144234,9.07643e-08,0,0.0757124,0.10095,0.30285,-0.151425,0,-0.000201851,0.822683,2.14788,6.31058,-3.15645,-3.72905e-05
0.483,5.18597e-07,0.0740411,0.0962999,0.289105,-0.144549,9.05472e-08,0,0.0758695,0.101159,0.303478,-0.151739,0,-0.000203738,0.814229,2.14437,6.31056,-3.15648,-3.72373e-05
0.484,5.22555e-07,0.0742193,0.0965187,0.289736,-0.144865,9.03294e-08,0,0.0760265,0.101369,0.304106,-0.152053,0,-0.000205621,0.805809,2.14088,6.31053,-3.1565,-3.71834e-05
0.485,5.26506e-07,0.0743973,0.0967374,0.290367,-0.14518,9.01112e-08,0,0.0761836,0.101578,0.304734,-0.152367,0,-0.0002075,0.797426,2.13739,6.31051,-3.15653,-3.71289e-05
0.486,5.30449e-07,0.0745753,0.0969562,0.290998,-0.145496,8.98927e-08,0,0.0763407,0.101788,0.305363,-0.152681,0,-0.000209375,0.789079,2.13393,6.31049,-3.15656,-3.7074e-05
0.487,5.34384e-07,0.0747532,0.0971749,0.291629,-0.145811,8.96741e-08,0,0.0764978,0.101997,0.305991,-0.152996,0,-0.000211245,0.780773,2.13048,6.31046,-3.15659,-3.70186e-05
0.488,5.38309e-07,0.0749309,0.0973935,0.29226,-0.146127,8.94557e-08,0,0.0766549,0.102206,0.306619,-0.15331,0,-0.00021311,0.772506,2.12704,6.31044,-3.15662,-3.6963e-05
0.489,5.42224e-07,0.0751086,0.0976121,0.292891,-0.146442,8.92375e-08,0,0.0768119,0.102416,0.307248,-0.153624,0,-0.000214969,0.764283,2.12362,6.31041,-3.15664,-3.69072e-05
0.49,5.46127e-07,0.0752862,0.0978307,0.293523,-0.146758,8.90199e-08,0,0.076969,0.102625,0.307876,-0.153938,0,-0.000216822,0.756103,2.12022,6.31039,-3.15667,-3.68511e-05
0.491,5.50018e-07,0.0754636,0.0980492,0.294154,-0.147073,8.8803e-08,0,0.0771261,0.102835,0.308504,-0.154252,0,-0.000218669,0.747969,2.11683,6.31036,-3.1567,-3.67951e-05
0.492,5.53894e-07,0.0756409,0.0982677,0.294785,-0.147388,8.85869e-08,0,0.0772832,0.103044,0.309133,-0.154566,0,-0.00022051,0.739881,2.11346,6.31034,-3.15672,-3.6739e-05
0.493,5.57757e-07,0.0758181,0.0984861,0.295416,-0.147704,8.83719e-08,0,0.0774403,0.103254,0.309761,-0.154881,0,-0.000222343,0.731842,2.11011,6.31032,-3.15675,-3.6683e-05
0.494,5.61603e-07,0.0759952,0.0987045,0.296047,-0.148019,8.81581e-08,0,0.0775973,0.103463,0.310389,-0.155195,0,-0.000224169,0.723852,2.10678,6.31029,-3.15678,-3.66271e-05
0.495,5.65433e-07,0.0761722,0.0989228,0.296678,-0.148335,8.79458e-08,0,0.0777544,0.103673,0.311018,-0.155509,0,-0.000225987,0.715913,2.10347,6.31027,-3.1568,-3.65716e-05
0.496,5.69245e-07,0.076349,0.0991411,0.297309,-0.14865,8.77351e-08,0,0.0779115,0.103882,0.311646,-0.155823,0,-0.000227797,0.708026,2.10018,6.31025,-3.15683,-3.65163e-05
0.497,5.73039e-07,0.0765257,0.0993593,0.29794,-0.148966,8.75262e-08,0,0.0780686,0.104091,0.312274,-0.156137,0,-0.000229598,0.700192,2.09691,6.31022,-3.15685,-3.64614e-05
0.498,5.76814e-07,0.0767023,0.0995774,0.298571,-0.149281,8.73193e-08,0,0.0782257,0.104301,0.312903,-0.156451,0,-0.00023139,0.692413,2.09366,6.3102,-3.15687,-3.6407e-05
0.499,5.80568e-07,0.0768787,0.0997955,0.299202,-0.149597,8.71146e-08,0,0.0783827,0.10451,0.313531,-0.156765,0,-0.000233173,0.68469,2.09043,6.31018,-3.1569,-3.63531e-05
0.5,5.84302e-07,0.077055,0.100014,0.299833,-0.149912,8.69122e-08,0,0.0785398,0.10472,0.314159,-0.15708,0,-0.000234946,0.677023,2.08722,6.31015,-3.15692,-3.62999e-05
0.501,5.88013e-07,0.0772311,0.100232,0.300464,-0.150227,8.67123e-08,0,0.0786969,0.104929,0.314788,-0.157394,0,-0.00023671,0.669415,2.08403,6.31013,-3.15694,-3.62474e-05
0.502,5.91701e-07,0.0774071,0.10045,0.301095,-0.150543,8.65151e-08,0,0.078854,0.105139,0.315416,-0.157708,0,-0.000238463,0.661865,2.08087,6.31011,-3.15697,-3.61956e-05
0.503,5.95366e-07,0.0775829,0.100667,0.301726,-0.150858,8.63208e-08,0,0.0790111,0.105348,0.316044,-0.158022,0,-0.000240205,0.654375,2.07773,6.31009,-3.15699,-3.61447e-05
0.504,5.99007e-07,0.0777586,0.100885,0.302358,-0.151174,8.61296e-08,0,0.0791681,0.105558,0.316673,-0.158336,0,-0.000241937,0.646946,2.07461,6.31006,-3.15701,-3.60947e-05
0.505,6.02622e-07,0.0779341,0.101103,0.302989,-0.151489,8.59415e-08,0,0.0793252,0.105767,0.317301,-0.15865,0,-0.000243657,0.639579,2.07151,6.31004,-3.15703,-3.60457e-05
0.506,6.0621e-07,0.0781095,0.101321,0.30362,-0.151805,8.57568e-08,0,0.0794823,0.105976,0.317929,-0.158965,0,-0.000245366,0.632274,2.06844,6.31002,-3.15705,-3.59977e-05
0.507,6.09773e-07,0.0782847,0.101538,0.304251,-0.15212,8.55757e-08,0,0.0796394,0.106186,0.318557,-0.159279,0,-0.000247063,0.625033,2.0654,6.31,-3.15707,-3.59509e-05
0.508,6.13307e-07,0.0784597,0.101756,0.304882,-0.152436,8.53983e-08,0,0.0797965,0.106395,0.319186,-0.159593,0,-0.000248748,0.617856,2.06237,6.30997,-3.15709,-3.59053e-05
0.509,6.16813e-07,0.0786346,0.101973,0.305513,-0.152751,8.52247e-08,0,0.0799535,0.106605,0.319814,-0.159907,0,-0.000250421,0.610744,2.05938,6.30995,-3.15711,-3.5861e-05
0.51,6.20291e-07,0.0788093,0.102191,0.306144,-0.153067,8.50552e-08,0,0.0801106,0.106814,0.320442,-0.160221,0,-0.000252081,0.603698,2.0564,6.30993,-3.15713,-3.5818e-05
0.511,6.23738e-07,0.0789838,0.102408,0.306775,-0.153382,8.48899e-08,0,0.0802677,0.107024,0.321071,-0.160535,0,-0.000253728,0.596718,2.05345,6.30991,-3.15715,-3.57764e-05
0.512,6.27156e-07,0.0791582,0.102625,0.307406,-0.153697,8.47288e-08,0,0.0804248,0.107233,0.321699,-0.16085,0,-0.000255361,0.589805,2.05053,6.30989,-3.15716,-3.57362e-05
0.513,6.30542e-07,0.0793324,0.102843,0.308037,-0.154013,8.45723e-08,0,0.0805819,0.107442,0.322327,-0.161164,0,-0.000256982,0.58296,2.04763,6.30986,-3.15718,-3.56976e-05
0.514,6.33897e-07,0.0795064,0.10306,0.308668,-0.154328,8.44204e-08,0,0.0807389,0.107652,0.322956,-0.161478,0,-0.000258588,0.576183,2.04476,6.30984,-3.1572,-3.56606e-05
0.515,6.37219e-07,0.0796803,0.103277,0.309299,-0.154644,8.42733e-08,0,0.080896,0.107861,0.323584,-0.161792,0,-0.000260181,0.569474,2.04192,6.30982,-3.15721,-3.56253e-05
0.516,6.40509e-07,0.0798539,0.103494,0.30993,-0.154959,8.41311e-08,0,0.0810531,0.108071,0.324212,-0.162106,0,-0.000261759,0.562835,2.0391,6.3098,-3.15723,-3.55917e-05
0.517,6.43765e-07,0.0800274,0.103711,0.310561,-0.155275,8.3994e-08,0,0.0812102,0.10828,0.324841,-0.16242,0,-0.000263324,0.556265,2.03631,6.30978,-3.15724,-3.55599e-05
0.518,6.46987e-07,0.0802007,0.103928,0.311192,-0.15559,8.3862e-08,0,0.0813672,0.10849,0.325469,-0.162734,0,-0.000264873,0.549765,2.03354,6.30976,-3.15726,-3.55299e-05
0.519,6.50175e-07,0.0803739,0.104144,0.311823,-0.155906,8.37354e-08,0,0.0815243,0.108699,0.326097,-0.163049,0,-0.000266408,0.543336,2.0308,6.30973,-3.15727,-3.55018e-05
0.52,6.53328e-07,0.0805468,0.104361,0.312454,-0.156221,8.36143e-08,0,0.0816814,0.108909,0.326726,-0.163363,0,-0.000267928,0.536977,2.02809,6.30971,-3.15728,-3.54757e-05
0.521,6.56445e-07,0.0807196,0.104578,0.313085,-0.156537,8.34987e-08,0,0.0818385,0.109118,0.327354,-0.163677,0,-0.000269432,0.53069,2.0254,6.30969,-3.1573,-3.54516e-05
0.522,6.59526e-07,0.0808921,0.104795,0.313716,-0.156852,8.33888e-08,0,0.0819956,0.109327,0.327982,-0.163991,0,-0.000270921,0.524473,2.02274,6.30967,-3.15731,-3.54296e-05
0.523,6.62571e-07,0.0810645,0.105011,0.314347,-0.157168,8.32848e-08,0,0.0821526,0.109537,0.328611,-0.164305,0,-0.000272395,0.518328,2.02011,6.30965,-3.15732,-3.54096e-05
0.524,6.65579e-07,0.0812367,0.105227,0.314978,-0.157483,8.31868e-08,0,0.0823097,0.109746,0.329239,-0.164619,0,-0.000273853,0.512255,2.0175,6.30963,-3.15733,-3.53919e-05
0.525,6.6855e-07,0.0814088,0.105444,0.315609,-0.157798,8.30948e-08,0,0.0824668,0.109956,0.329867,-0.164934,0,-0.000275295,0.506253,2.01493,6.30961,-3.15734,-3.53764e-05
0.526,6.71484e-07,0.0815806,0.10566,0.31624,-0.158114,8.3009e-08,0,0.0826239,0.110165,0.330496,-0.165248,0,-0.000276721,0.500323,2.01238,6.30959,-3.15735,-3.53632e-05
0.527,6.74379e-07,0.0817523,0.105876,0.316871,-0.158429,8.29294e-08,0,0.082781,0.110375,0.331124,-0.165562,0,-0.000278131,0.494465,2.00985,6.30957,-3.15736,-3.53523e-05
0.528,6.77236e-07,0.0819237,0.106093,0.317502,-0.158745,8.28563e-08,0,0.082938,0.110584,0.331752,-0.165876,0,-0.000279525,0.48868,2.00736,6.30955,-3.15737,-3.53437e-05
0.529,6.80054e-07,0.082095,0.106309,0.318133,-0.15906,8.27897e-08,0,0.0830951,0.110794,0.332381,-0.16619,0,-0.000280902,0.482966,2.00489,6.30953,-3.15738,-3.53376e-05
0.53,6.82834e-07,0.0822661,0.106525,0.318764,-0.159376,8.27296e-08,0,0.0832522,0.111003,0.333009,-0.166504,0,-0.000282262,0.477324,2.00244,6.30951,-3.15738,-3.5334e-05
0.531,6.85574e-07,0.082437,0.106741,0.319395,-0.159691,8.26762e-08,0,0.0834093,0.111212,0.333637,-0.166819,0,-0.000283606,0.471754,2.00003,6.30949,-3.15739,-3.53328e-05
0.532,6.88274e-07,0.0826077,0.106957,0.320026,-0.160007,8.26296e-08,0,0.0835664,0.111422,0.334265,-0.167133,0,-0.000284933,0.466257,1.99764,6.30946,-3.1574,-3.53342e-05
0.533,6.90935e-07,0.0827782,0.107172,0.320657,-0.160322,8.25899e-08,0,0.0837234,0.111631,0.334894,-0.167447,0,-0.000286244,0.460831,1.99528,6.30944,-3.1574,-3.53382e-05
0.534,6.93556e-07,0.0829486,0.107388,0.321288,-0.160638,8.25571e-08,0,0.0838805,0.111841,0.335522,-0.167761,0,-0.000287537,0.455476,1.99295,6.30942,-3.15741,-3.53448e-05
0.535,6.96137e-07,0.0831187,0.107604,0.321919,-0.160953,8.25314e-08,0,0.0840376,0.11205,0.33615,-0.168075,0,-0.000288814,0.450193,1.99064,6.3094,-3.15741,-3.53541e-05
0.536,6.98677e-07,0.0832887,0.107819,0.32255,-0.161269,8.25127e-08,0,0.0841947,0.11226,0.336779,-0.168389,0,-0.000290073,0.444981,1.98836,6.30938,-3.15742,-3.53661e-05
0.537,7.01177e-07,0.0834585,0.108035,0.323181,-0.161584,8.25013e-08,0,0.0843518,0.112469,0.337407,-0.168704,0,-0.000291315,0.439841,1.98611,6.30936,-3.15742,-3.53808e-05
0.538,7.03636e-07,0.0836281,0.10825,0.323812,-0.1619,8.24971e-08,0,0.0845088,0.112678,0.338035,-0.169018,0,-0.00029254,0.434771,1.98388,6.30934,-3.15742,-3.53982e-05
0.539,7.06054e-07,0.0837975,0.108466,0.324443,-0.162215,8.25002e-08,0,0.0846659,0.112888,0.338664,-0.169332,0,-0.000293748,0.429771,1.98168,6.30932,-3.15743,-3.54185e-05
0.54,7.08432e-07,0.0839667,0.108681,0.325074,-0.16253,8.25106e-08,0,0.084823,0.113097,0.339292,-0.169646,0,-0.000294938,0.424842,1.97951,6.30931,-3.15743,-3.54416e-05
0.541,7.10769e-07,0.0841358,0.108896,0.325705,-0.162846,8.25285e-08,0,0.0849801,0.113307,0.33992,-0.16996,0,-0.000296112,0.419982,1.97737,6.30929,-3.15743,-3.54675e-05
0.542,7.13064e-07,0.0843047,0.109112,0.326336,-0.163161,8.25539e-08,0,0.0851372,0.113516,0.340549,-0.170274,0,-0.000297268,0.415192,1.97524,6.30927,-3.15743,-3.54964e-05
0.543,7.15319e-07,0.0844733,0.109327,0.326967,-0.163477,8.25869e-08,0,0.0852942,0.113726,0.341177,-0.170588,0,-0.000298406,0.41047,1.97315,6.30925,-3.15743,-3.55281e-05
0.544,7.17532e-07,0.0846419,0.109542,0.327598,-0.163792,8.26274e-08,0,0.0854513,0.113935,0.341805,-0.170903,0,-0.000299527,0.405817,1.97108,6.30923,-3.15743,-3.55628e-05
0.545,7.19705e-07,0.0848102,0.109757,0.328229,-0.164108,8.26755e-08,0,0.0856084,0.114145,0.342434,-0.171217,0,-0.000300631,0.401233,1.96904,6.30921,-3.15743,-3.56004e-05
0.546,7.21836e-07,0.0849783,0.109972,0.32886,-0.164423,8.27313e-08,0,0.0857655,0.114354,0.343062,-0.171531,0,-0.000301718,0.396716,1.96702,6.30919,-3.15743,-3.56411e-05
0.547,7.23927e-07,0.0851463,0.110187,0.329491,-0.164739,8.27948e-08,0,0.0859226,0.114563,0.34369,-0.171845,0,-0.000302787,0.392266,1.96503,6.30917,-3.15743,-3.56847e-05
0.548,7.25976e-07,0.0853141,0.110401,0.330122,-0.165054,8.28661e-08,0,0.0860796,0.114773,0.344319,-0.172159,0,-0.000303839,0.387882,1.96306,6.30915,-3.15743,-3.57313e-05
0.549,7.27985e-07,0.0854817,0.110616,0.330753,-0.16537,8.29451e-08,0,0.0862367,0.114982,0.344947,-0.172473,0,-0.000304874,0.383565,1.96112,6.30913,-3.15742,-3.57809e-05
0.55,7.29953e-07,0.0856492,0.110831,0.331384,-0.165685,8.30319e-08,0,0.0863938,0.115192,0.345575,-0.172788,0,-0.000305892,0.379313,1.9592,6.30911,-3.15742,-3.58336e-05
0.551,7.3188e-07,0.0858164,0.111045,0.332015,-0.166001,8.31265e-08,0,0.0865509,0.115401,0.346204,-0.173102,0,-0.000306892,0.375125,1.95731,6.30909,-3.15742,-3.58894e-05
0.552,7.33767e-07,0.0859835,0.11126,0.332646,-0.166316,8.3229e-08,0,0.086708,0.115611,0.346832,-0.173416,0,-0.000307876,0.371002,1.95544,6.30907,-3.15741,-3.59482e-05
0.553,7.35613e-07,0.0861505,0.111474,0.333277,-0.166632,8.33393e-08,0,0.086865,0.11582,0.34746,-0.17373,0,-0.000308842,0.366943,1.9536,6.30906,-3.15741,-3.60101e-05
0.554,7.3742e-07,0.0863172,0.111689,0.333908,-0.166947,8.34574e-08,0,0.0870221,0.116029,0.348088,-0.174044,0,-0.000309791,0.362947,1.95178,6.30904,-3.1574,-3.60751e-05
0.555,7.39186e-07,0.0864838,0.111903,0.334539,-0.167263,8.35834e-08,0,0.0871792,0.116239,0.348717,-0.174358,0,-0.000310724,0.359012,1.94998,6.30902,-3.1574,-3.61432e-05
0.556,7.40913e-07,0.0866503,0.112117,0.33517,-0.167578,8.37173e-08,0,0.0873363,0.116448,0.349345,-0.174673,0,-0.00031164,0.355139,1.94821,6.309,-3.15739,-3.62144e-05
0.557,7.426e-07,0.0868165,0.112332,0.335801,-0.167894,8.3859e-08,0,0.0874934,0.116658,0.349973,-0.174987,0,-0.000312539,0.351327,1.94646,6.30898,-3.15739,-3.62887e-05
0.558,7.44247e-07,0.0869827,0.112546,0.336432,-0.168209,8.40086e-08,0,0.0876504,0.116867,0.350602,-0.175301,0,-0.000313421,0.347575,1.94473,6.30896,-3.15738,-3.63662e-05
0.559,7.45856e-07,0.0871486,0.11276,0.337063,-0.168525,8.4166e-08,0,0.0878075,0.117077,0.35123,-0.175615,0,-0.000314287,0.343883,1.94302,6.30894,-3.15737,-3.64467e-05
0.56,7.47426e-07,0.0873144,0.112974,0.337694,-0.16884,8.43313e-08,0,0.0879646,0.117286,0.351858,-0.175929,0,-0.000315137,0.340249,1.94134,6.30892,-3.15736,-3.65304e-05
0.561,7.48958e-07,0.0874801,0.113188,0.338325,-0.169156,8.45043e-08,0,0.0881217,0.117496,0.352487,-0.176243,0,-0.000315971,0.336672,1.93968,6.30891,-3.15736,-3.66171e-05
0.562,7.50451e-07,0.0876455,0.113402,0.338956,-0.169471,8.46852e-08,0,0.0882788,0.117705,0.353115,-0.176558,0,-0.000316788,0.333153,1.93803,6.30889,-3.15735,-3.6707e-05
0.563,7.51907e-07,0.0878109,0.113616,0.339587,-0.169786,8.48738e-08,0,0.0884358,0.117914,0.353743,-0.176872,0,-0.000317589,0.329689,1.93641,6.30887,-3.15734,-3.68e-05
0.564,7.53325e-07,0.0879761,0.11383,0.340218,-0.170102,8.50702e-08,0,0.0885929,0.118124,0.354372,-0.177186,0,-0.000318375,0.326281,1.93482,6.30885,-3.15733,-3.6896e-05
0.565,7.54706e-07,0.0881411,0.114043,0.340849,-0.170417,8.52744e-08,0,0.08875,0.118333,0.355,-0.1775,0,-0.000319145,0.322928,1.93324,6.30883,-3.15732,-3.69952e-05
0.566,7.56051e-07,0.088306,0.114257,0.34148,-0.170733,8.54862e-08,0,0.0889071,0.118543,0.355628,-0.177814,0,-0.000319899,0.319627,1.93168,6.30882,-3.15731,-3.70975e-05
0.567,7.57359e-07,0.0884708,0.114471,0.342111,-0.171048,8.57056e-08,0,0.0890642,0.118752,0.356257,-0.178128,0,-0.000320638,0.31638,1.93014,6.3088,-3.1573,-3.72028e-05
0.568,7.58631e-07,0.0886354,0.114685,0.342742,-0.171364,8.59327e-08,0,0.0892212,0.118962,0.356885,-0.178442,0,-0.000321361,0.313184,1.92862,6.30878,-3.15729,-3.73112e-05
0.569,7.59868e-07,0.0887999,0.114898,0.343373,-0.171679,8.61674e-08,0,0.0893783,0.119171,0.357513,-0.178757,0,-0.00032207,0.310039,1.92712,6.30876,-3.15727,-3.74226e-05
0.57,7.61069e-07,0.0889642,0.115112,0.344004,-0.171995,8.64095e-08,0,0.0895354,0.119381,0.358142,-0.179071,0,-0.000322764,0.306944,1.92564,6.30874,-3.15726,-3.75371e-05
0.571,7.62236e-07,0.0891284,0.115325,0.344634,-0.17231,8.66592e-08,0,0.0896925,0.11959,0.35877,-0.179385,0,-0.000323443,0.303898,1.92418,6.30873,-3.15725,-3.76546e-05
0.572,7.63369e-07,0.0892925,0.115539,0.345265,-0.172626,8.69163e-08,0,0.0898495,0.119799,0.359398,-0.179699,0,-0.000324107,0.3009,1.92274,6.30871,-3.15724,-3.77751e-05
0.573,7.64468e-07,0.0894565,0.115752,0.345896,-0.172941,8.71807e-08,0,0.0900066,0.120009,0.360027,-0.180013,0,-0.000324758,0.29795,1.92131,6.30869,-3.15723,-3.78986e-05
0.574,7.65534e-07,0.0896203,0.115965,0.346527,-0.173257,8.74525e-08,0,0.0901637,0.120218,0.360655,-0.180327,0,-0.000325394,0.295045,1.9199,6.30867,-3.15721,-3.8025e-05
0.575,7.66567e-07,0.089784,0.116179,0.347158,-0.173572,8.77314e-08,0,0.0903208,0.120428,0.361283,-0.180642,0,-0.000326016,0.292186,1.91851,6.30866,-3.1572,-3.81544e-05
0.576,7.67568e-07,0.0899476,0.116392,0.347789,-0.173888,8.80176e-08,0,0.0904779,0.120637,0.361911,-0.180956,0,-0.000326625,0.289371,1.91713,6.30864,-3.15718,-3.82868e-05
0.577,7.68538e-07,0.090111,0.116605,0.34842,-0.174203,8.83109e-08,0,0.0906349,0.120847,0.36254,-0.18127,0,-0.00032722,0.286599,1.91577,6.30862,-3.15717,-3.8422e-05
0.578,7.69476e-07,0.0902744,0.116818,0.349051,-0.174519,8.86112e-08,0,0.090792,0.121056,0.363168,-0.181584,0,-0.000327802,0.28387,1.91443,6.3086,-3.15716,-3.85601e-05
0.579,7.70384e-07,0.0904376,0.117031,0.349682,-0.174834,8.89185e-08,0,0.0909491,0.121265,0.363796,-0.181898,0,-0.000328371,0.281182,1.9131,6.30859,-3.15714,-3.87011e-05
0.58,7.71262e-07,0.0906007,0.117244,0.350313,-0.17515,8.92327e-08,0,0.0911062,0.121475,0.364425,-0.182212,0,-0.000328927,0.278534,1.91179,6.30857,-3.15712,-3.88448e-05
0.581,7.7211e-07,0.0907637,0.117457,0.350944,-0.175465,8.95538e-08,0,0.0912633,0.121684,0.365053,-0.182527,0,-0.00032947,0.275925,1.91049,6.30855,-3.15711,-3.89914e-05
0.582,7.72929e-07,0.0909266,0.11767,0.351575,-0.175781,8.98815e-08,0,0.0914203,0.121894,0.365681,-0.182841,0,-0.000330001,0.273355,1.90921,6.30853,-3.15709,-3.91408e-05
0.583,7.73721e-07,0.0910894,0.117883,0.352206,-0.176096,9.02159e-08,0,0.0915774,0.122103,0.36631,-0.183155,0,-0.00033052,0.270822,1.90794,6.30852,-3.15708,-3.92928e-05
