M-oikawa-robotics/p/CSV/pegin誤差１５mm/log_turnover.csv
t,p1,p2,p3,p4,p5,p6,v1,v2,v3,v4,v5,v6,pc1,pc2,pc3,pc4,pc5,pc6,vc1,vc2,vc3,vc4,vc5,vc6,j1,j2,j3,j4,j5,j6,t1,t2,t3,t4,t5,t6,Fx,Fy,Fz,Mx,My,Mz
0,0.397394,-0.000144501,0.210309,3.14099,-0.282899,-0.000175579,0,0,0,0,0,0,0.397394,-0.000144501,0.210309,3.14099,-0.282899,-0.000175579,0,0,0,0,0,0,1.29189e-19,0.801513,1.05252,3.14096,-1.57046,6.92476e-24,0,0,0,0,-0,0,0,0,0,0,0,0
0.001,0.397393,-0.000144501,0.210304,3.14099,-0.28291,-0.000175585,-6.6912e-05,1.682e-09,-0.000302702,1.3496e-07,-0.000703032,-4.2824e-07,0.397405,-0.000144453,0.210289,3.13994,-0.283852,-0.00017552,0,0,0,0,0,0,-2.05469e-11,0.801524,1.05252,3.14096,-1.57046,9.5998e-10,0.102066,0.467117,-0.443573,-0.138064,-0.281846,0.00312951,0,0,0,0,0,0
0.002,0.397385,-0.000146677,0.210293,3.14098,-0.282969,-0.000178152,-0.000597587,-0.000136682,-0.000989957,-0.000592382,-0.00436292,-0.000161687,0.397416,-0.000144405,0.210269,3.1389,-0.284805,-0.000175462,0,0,0,0,0,0,1.56215e-07,0.801556,1.05252,3.14095,-1.57048,3.42757e-07,0.206854,0.788962,-0.930145,-0.254295,-0.511164,0.00630083,0,0,0,0,0,0
0.003,0.397371,-0.000151475,0.210276,3.14096,-0.283067,-0.000184154,-0.00139702,-0.000429569,-0.00202189,-0.00188006,-0.0102549,-0.000528614,0.397427,-0.000144357,0.210249,3.13785,-0.285757,-0.000175403,0,0,0,0,0,0,6.85356e-07,0.801613,1.05251,3.14093,-1.57053,1.01386e-06,0.314247,0.936043,-1.40738,-0.344771,-0.69579,0.00952425,0,0,0,0,0,0
0.004,0.397356,-0.000158319,0.210252,3.14093,-0.283196,-0.000193178,-0.00229336,-0.000832595,-0.00336782,-0.00368867,-0.0176863,-0.00106242,0.397438,-0.000144309,0.210229,3.1368,-0.28671,-0.000175344,0,0,0,0,0,0,1.78593e-06,0.801695,1.05249,3.1409,-1.5706,2.01921e-06,0.422692,0.888685,-1.8356,-0.415865,-0.846939,0.0127799,0,0,0,0,0,0
0.005,0.397339,-0.000166646,0.210223,3.14089,-0.283348,-0.000204834,-0.00317431,-0.00130353,-0.00499794,-0.00585879,-0.0261547,-0.001728,0.397449,-0.00014426,0.210208,3.13575,-0.287663,-0.000175286,0,0,0,0,0,0,3.65617e-06,0.801804,1.05245,3.14086,-1.57069,3.36204e-06,0.530754,0.642087,-2.19242,-0.47343,-0.973628,0.0160495,0,0,0,0,0,0
0.006,0.397323,-0.000176026,0.210188,3.14085,-0.28352,-0.000218887,-0.00398315,-0.00181095,-0.00688432,-0.0082749,-0.0353314,-0.00250244,0.39746,-0.000144212,0.210188,3.13471,-0.288616,-0.000175227,0,0,0,0,0,0,6.49311e-06,0.80194,1.05239,3.14082,-1.57079,5.04359e-06,0.637274,0.205495,-2.47208,-0.521709,-1.08316,0.0193199,0,0,0,0,0,0
0.007,0.397308,-0.000186134,0.210147,3.1408,-0.28371,-0.000235235,-0.00470983,-0.00233232,-0.00900061,-0.0108571,-0.0450334,-0.00337239,0.39747,-0.000144164,0.210168,3.13366,-0.289569,-0.000175169,0,0,0,0,0,0,1.04896e-05,0.8021,1.05231,3.14077,-1.57089,7.06361e-06,0.741335,-0.399972,-2.68284,-0.563637,-1.18141,0.0225814,0,0,0,0,0,0
0.008,0.397293,-0.00019673,0.210101,3.14074,-0.283917,-0.000253863,-0.00537911,-0.00285152,-0.0113211,-0.0135506,-0.0551892,-0.0043309,0.397481,-0.000144116,0.210148,3.13261,-0.290522,-0.00017511,0,0,0,0,0,0,1.58316e-05,0.802283,1.05221,3.14071,-1.57101,9.42077e-06,0.842206,-1.14446,-2.84315,-0.601225,-1.27295,0.0258278,0,0,0,0,0,0
0.009,0.397277,-0.000207627,0.21005,3.14069,-0.284141,-0.000274812,-0.00603726,-0.00335703,-0.0138193,-0.0163182,-0.0657995,-0.00537507,0.397492,-0.000144068,0.210128,3.13157,-0.291475,-0.000175052,0,0,0,0,0,0,2.26964e-05,0.802487,1.05211,3.14065,-1.57114,1.2113e-05,0.939306,-1.99296,-2.97723,-0.635839,-1.36113,0.0290544,0,0,0,0,0,0
0.01,0.397259,-0.000218679,0.209994,3.14062,-0.284383,-0.000298161,-0.00673893,-0.00384054,-0.0164668,-0.0191342,-0.0769005,-0.00650436,0.397503,-0.00014402,0.210108,3.13052,-0.292428,-0.000174993,0,0,0,0,0,0,3.12511e-05,0.802707,1.05199,3.14059,-1.57127,1.51377e-05,1.03218,-2.90893,-3.11066,-0.668412,-1.44811,0.0322582,0,0,0,0,0,0
0.011,0.39724,-0.000229771,0.209934,3.14056,-0.284645,-0.000324004,-0.00753549,-0.00429614,-0.0192325,-0.0219812,-0.0885295,-0.00771948,0.397514,-0.000143971,0.210088,3.12947,-0.293381,-0.000174935,0,0,0,0,0,0,4.16515e-05,0.802942,1.05188,3.14052,-1.57142,1.84918e-05,1.12045,-3.85754,-3.2665,-0.699577,-1.53497,0.0354374,0,0,0,0,0,0
0.012,0.397218,-0.000240807,0.209869,3.14049,-0.284927,-0.000352448,-0.0084661,-0.00471963,-0.0220819,-0.0248472,-0.1007,-0.00902163,0.397525,-0.000143923,0.210068,3.12843,-0.294334,-0.000174876,0,0,0,0,0,0,5.40415e-05,0.803188,1.05176,3.14045,-1.57157,2.21721e-05,1.20387,-4.80814,-3.46242,-0.729761,-1.62187,0.0385906,0,0,0,0,0,0
0.013,0.397192,-0.00025171,0.209801,3.14042,-0.28523,-0.000383598,-0.00955186,-0.00510809,-0.0249781,-0.027724,-0.113381,-0.010412,0.397536,-0.000143875,0.210048,3.12738,-0.295286,-0.000174818,0,0,0,0,0,0,6.85524e-05,0.803442,1.05165,3.14038,-1.57173,2.61752e-05,1.28221,-5.736,-3.70889,-0.759257,-1.70828,0.0417171,0,0,0,0,0,0
0.014,0.397163,-0.000262412,0.20973,3.14035,-0.285552,-0.000417557,-0.0107934,-0.00545962,-0.0278818,-0.0306059,-0.126495,-0.0118915,0.397547,-0.000143827,0.210028,3.12633,-0.296239,-0.000174759,0,0,0,0,0,0,8.53029e-05,0.803704,1.05154,3.1403,-1.5719,3.04975e-05,1.35534,-6.62302,-4.00859,-0.788263,-1.79316,0.0448166,0,0,0,0,0,0
0.015,0.39713,-0.000272861,0.209656,3.14027,-0.285892,-0.000454419,-0.0121716,-0.00577307,-0.030753,-0.0334891,-0.139914,-0.0134604,0.397557,-0.000143779,0.210007,3.12528,-0.297192,-0.000174701,0,0,0,0,0,0,0.000104399,0.803971,1.05144,3.14023,-1.57207,3.51355e-05,1.42319,-7.45767,-4.35692,-0.816913,-1.87523,0.0478892,0,0,0,0,0,0
0.016,0.397094,-0.000283008,0.209581,3.14019,-0.286248,-0.000494269,-0.0136506,-0.00604791,-0.0335524,-0.0363708,-0.153467,-0.0151185,0.397568,-0.000143731,0.209987,3.12424,-0.298145,-0.000174642,0,0,0,0,0,0,0.000125934,0.804242,1.05134,3.14014,-1.57226,4.00857e-05,1.48573,-8.23425,-4.74327,-0.8453,-1.95322,0.050935,0,0,0,0,0,0
0.017,0.397056,-0.000292815,0.209505,3.14011,-0.286616,-0.000537181,-0.015183,-0.00628412,-0.0362425,-0.0392491,-0.166959,-0.0168648,0.397579,-0.000143682,0.209967,3.12319,-0.299098,-0.000174584,0,0,0,0,0,0,0.000149987,0.804517,1.05124,3.14006,-1.57245,4.53445e-05,1.54296,-8.95159,-5.1529,-0.873489,-2.02599,0.0539544,0,0,0,0,0,0
0.018,0.397017,-0.00030225,0.209428,3.14002,-0.286993,-0.000583217,-0.0167155,-0.00648209,-0.0387896,-0.0421229,-0.180181,-0.0186977,0.39759,-0.000143634,0.209947,3.12214,-0.300051,-0.000174525,0,0,0,0,0,0,0.000176628,0.804794,1.05114,3.13997,-1.57265,5.09086e-05,1.59496,-9.61162,-5.56907,-0.901525,-2.09271,0.0569481,0,0,0,0,0,0
0.019,0.396976,-0.000311286,0.209351,3.13994,-0.287376,-0.000632429,-0.0181944,-0.00664257,-0.0411642,-0.0449911,-0.192931,-0.020615,0.397601,-0.000143586,0.209927,3.1211,-0.301004,-0.000174467,0,0,0,0,0,0,0.000205912,0.805075,1.05104,3.13988,-1.57286,5.67745e-05,1.64181,-10.2179,-5.97507,-0.929439,-2.15291,0.0599168,0,0,0,0,0,0
0.02,0.396936,-0.000319903,0.209275,3.13985,-0.287762,-0.000684855,-0.0195715,-0.00676658,-0.0433423,-0.0478532,-0.205025,-0.0226137,0.397612,-0.000143538,0.209907,3.12005,-0.301957,-0.000174408,0,0,0,0,0,0,0.000237882,0.805358,1.05092,3.13979,-1.57307,6.29391e-05,1.68366,-10.774,-6.356,-0.957254,-2.20656,0.0628613,0,0,0,0,0,0
0.021,0.396897,-0.000328083,0.209201,3.13975,-0.288146,-0.000740525,-0.020807,-0.00685543,-0.0453057,-0.0507089,-0.216313,-0.0246907,0.397623,-0.00014349,0.209887,3.119,-0.30291,-0.00017435,0,0,0,0,0,0,0.000272574,0.805644,1.0508,3.1397,-1.57329,6.93994e-05,1.72065,-11.2831,-6.70009,-0.984984,-2.25394,0.0657824,0,0,0,0,0,0
0.022,0.396859,-0.000335817,0.209128,3.13966,-0.288528,-0.000799456,-0.0218729,-0.00691059,-0.0470419,-0.0535579,-0.22668,-0.0268421,0.397633,-0.000143442,0.209867,3.11796,-0.303862,-0.000174291,0,0,0,0,0,0,0.000310008,0.805931,1.05067,3.1396,-1.57352,7.61523e-05,1.75298,-11.7466,-6.99945,-1.01264,-2.29568,0.0686814,0,0,0,0,0,0
0.023,0.396823,-0.000343096,0.209057,3.13956,-0.288904,-0.000861656,-0.0227534,-0.00693373,-0.048544,-0.0564001,-0.236055,-0.0290637,0.397644,-0.000143393,0.209847,3.11691,-0.304815,-0.000174232,0,0,0,0,0,0,0.000350197,0.80622,1.05053,3.1395,-1.57375,8.31951e-05,1.78086,-12.1644,-7.25032,-1.04022,-2.33259,0.0715592,0,0,0,0,0,0
0.024,0.39679,-0.000349917,0.208988,3.13946,-0.289273,-0.000927126,-0.0234443,-0.00692667,-0.04981,-0.0592354,-0.24441,-0.0313512,0.397655,-0.000143345,0.209827,3.11586,-0.305768,-0.000174174,0,0,0,0,0,0,0.000393145,0.806509,1.05038,3.13939,-1.57398,9.05252e-05,1.8045,-12.5345,-7.45276,-1.06774,-2.36561,0.074417,0,0,0,0,0,0
0.025,0.396758,-0.000356281,0.208922,3.13935,-0.289634,-0.000995856,-0.0239518,-0.0068913,-0.0508422,-0.0620637,-0.25175,-0.0336998,0.397666,-0.000143297,0.209806,3.11481,-0.306721,-0.000174115,0,0,0,0,0,0,0.000438844,0.806799,1.05021,3.13929,-1.57421,9.81401e-05,1.82417,-12.8539,-7.61001,-1.09518,-2.3957,0.0772561,0,0,0,0,0,0
0.026,0.396729,-0.000362191,0.208858,3.13925,-0.289987,-0.00106783,-0.0242896,-0.00682965,-0.0516465,-0.0648849,-0.258111,-0.0361046,0.397677,-0.000143249,0.209786,3.11377,-0.307674,-0.000174057,0,0,0,0,0,0,0.000487282,0.807087,1.05004,3.13918,-1.57445,0.000106038,1.84011,-13.119,-7.72764,-1.12255,-2.42373,0.0800775,0,0,0,0,0,0
0.027,0.396701,-0.000367653,0.208797,3.13914,-0.290332,-0.00114302,-0.0244766,-0.00674375,-0.0522314,-0.0676991,-0.263549,-0.0385606,0.397688,-0.000143201,0.209766,3.11272,-0.308627,-0.000173998,0,0,0,0,0,0,0.000538437,0.807375,1.04986,3.13907,-1.57469,0.000114215,1.85258,-13.326,-7.81248,-1.14984,-2.45049,0.0828827,0,0,0,0,0,0
0.028,0.396676,-0.000372677,0.208739,3.13902,-0.290668,-0.0012214,-0.0245335,-0.00663571,-0.0526074,-0.070506,-0.268136,-0.0410626,0.397699,-0.000143152,0.209746,3.11167,-0.30958,-0.00017394,0,0,0,0,0,0,0.000592281,0.80766,1.04966,3.13895,-1.57494,0.000122672,1.86187,-13.4718,-7.87171,-1.17705,-2.47656,0.0856728,0,0,0,0,0,0
0.029,0.396652,-0.000377275,0.208684,3.13891,-0.290997,-0.00130294,-0.0244812,-0.00650764,-0.0527866,-0.0733055,-0.271947,-0.0436055,0.39771,-0.000143104,0.209726,3.11063,-0.310533,-0.000173881,0,0,0,0,0,0,0.00064878,0.807942,1.04947,3.13883,-1.57519,0.000131404,1.86823,-13.5545,-7.91204,-1.20417,-2.50239,0.088449,0,0,0,0,0,0
0.03,0.39663,-0.000381459,0.208631,3.13879,-0.291318,-0.00138758,-0.0243381,-0.00636163,-0.0527819,-0.0760977,-0.275058,-0.046184,0.39772,-0.000143056,0.209706,3.10958,-0.311486,-0.000173823,0,0,0,0,0,0,0.000707893,0.808221,1.04926,3.13871,-1.57543,0.000140412,1.87196,-13.5738,-7.93905,-1.23119,-2.52826,0.0912125,0,0,0,0,0,0
0.031,0.396609,-0.000385244,0.208581,3.13867,-0.291633,-0.00147529,-0.0241193,-0.00619977,-0.052607,-0.0788822,-0.277538,-0.0487929,0.397731,-0.000143008,0.209686,3.10853,-0.312439,-0.000173764,0,0,0,0,0,0,0.000769578,0.808497,1.04905,3.13859,-1.57569,0.000149693,1.87331,-13.5309,-7.9569,-1.25811,-2.55431,0.0939644,0,0,0,0,0,0
0.032,0.39659,-0.000388648,0.208534,3.13855,-0.291941,-0.001566,-0.0238361,-0.00602411,-0.052276,-0.081659,-0.279452,-0.0514271,0.397742,-0.00014296,0.209666,3.10749,-0.313391,-0.000173706,0,0,0,0,0,0,0.000833785,0.80877,1.04883,3.13847,-1.57594,0.000159246,1.87257,-13.429,-7.96818,-1.28493,-2.58059,0.096706,0,0,0,0,0,0
0.033,0.396571,-0.000391689,0.208489,3.13842,-0.292243,-0.00165968,-0.0234961,-0.00583663,-0.0518037,-0.0844279,-0.280854,-0.0540814,0.397753,-0.000142912,0.209646,3.10644,-0.314344,-0.000173647,0,0,0,0,0,0,0.000900463,0.80904,1.0486,3.13834,-1.5762,0.000169069,1.86999,-13.2727,-7.97403,-1.31164,-2.60709,0.0994382,0,0,0,0,0,0
0.034,0.396554,-0.000394384,0.208447,3.13829,-0.292538,-0.00175624,-0.0231035,-0.00563928,-0.0512048,-0.0871888,-0.281793,-0.0567508,0.397764,-0.000142863,0.209625,3.10539,-0.315297,-0.000173589,0,0,0,0,0,0,0.000969557,0.809306,1.04837,3.13821,-1.57645,0.000179162,1.86584,-13.0681,-7.97441,-1.33824,-2.63379,0.102162,0,0,0,0,0,0
0.035,0.396538,-0.000396755,0.208407,3.13816,-0.292829,-0.00185565,-0.0226607,-0.00543392,-0.0504946,-0.0899415,-0.282313,-0.0594307,0.397775,-0.000142815,0.209605,3.10434,-0.31625,-0.00017353,0,0,0,0,0,0,0.00104101,0.80957,1.04814,3.13807,-1.57672,0.000189524,1.86036,-12.8219,-7.96851,-1.36473,-2.66068,0.104878,0,0,0,0,0,0
0.036,0.396523,-0.000398822,0.208369,3.13803,-0.293113,-0.00195782,-0.0221688,-0.00522234,-0.0496889,-0.0926859,-0.282454,-0.0621163,0.397786,-0.000142767,0.209585,3.1033,-0.317203,-0.000173472,0,0,0,0,0,0,0.00111476,0.809833,1.0479,3.13794,-1.57698,0.000200154,1.85381,-12.5415,-7.95514,-1.39111,-2.6878,0.107588,0,0,0,0,0,0
0.037,0.39651,-0.000400604,0.208333,3.13789,-0.293392,-0.0020627,-0.021629,-0.00500622,-0.0488035,-0.0954218,-0.282257,-0.0648032,0.397796,-0.000142719,0.209565,3.10225,-0.318156,-0.000173413,0,0,0,0,0,0,0.00119076,0.810093,1.04765,3.1378,-1.57725,0.000211051,1.8464,-12.2345,-7.93318,-1.41736,-2.71521,0.110293,0,0,0,0,0,0
0.038,0.396497,-0.000402125,0.2083,3.13775,-0.293667,-0.00217022,-0.0210431,-0.00478719,-0.0478546,-0.0981491,-0.281766,-0.0674873,0.397807,-0.000142671,0.209545,3.1012,-0.319109,-0.000173355,0,0,0,0,0,0,0.00126894,0.810353,1.04739,3.13766,-1.57752,0.000222214,1.83835,-11.9079,-7.90184,-1.4435,-2.74306,0.112992,0,0,0,0,0,0
0.039,0.396486,-0.000403403,0.208268,3.13761,-0.293937,-0.00228032,-0.0204149,-0.00456675,-0.0468583,-0.100868,-0.281026,-0.0701647,0.397818,-0.000142623,0.209525,3.10016,-0.320062,-0.000173296,0,0,0,0,0,0,0.00134923,0.810613,1.04713,3.13751,-1.57779,0.000233644,1.82988,-11.5684,-7.86096,-1.46952,-2.77151,0.115688,0,0,0,0,0,0
0.04,0.396476,-0.000404462,0.208237,3.13747,-0.294203,-0.00239293,-0.0197497,-0.00434632,-0.0458307,-0.103577,-0.280087,-0.0728316,0.397829,-0.000142574,0.209505,3.09911,-0.321015,-0.000173238,0,0,0,0,0,0,0.00143159,0.810873,1.04686,3.13737,-1.57807,0.000245339,1.82118,-11.2219,-7.8111,-1.49541,-2.80078,0.11838,0,0,0,0,0,0
0.041,0.396468,-0.000405321,0.208208,3.13732,-0.294466,-0.00250799,-0.0190549,-0.0041272,-0.0447876,-0.106278,-0.279005,-0.0754848,0.39784,-0.000142526,0.209485,3.09806,-0.321968,-0.000173179,0,0,0,0,0,0,0.00151594,0.811133,1.04659,3.13722,-1.57835,0.0002573,1.81243,-10.8737,-7.75352,-1.52117,-2.83107,0.121069,0,0,0,0,0,0
0.042,0.39646,-0.000406001,0.20818,3.13717,-0.294726,-0.00262543,-0.0183396,-0.0039106,-0.043744,-0.108969,-0.277837,-0.0781213,0.397851,-0.000142478,0.209465,3.09702,-0.32292,-0.00017312,0,0,0,0,0,0,0.00160223,0.811395,1.0463,3.13707,-1.57863,0.000269526,1.80378,-10.5281,-7.69014,-1.5468,-2.86258,0.123756,0,0,0,0,0,0
0.043,0.396453,-0.000406522,0.208152,3.13702,-0.294985,-0.00274521,-0.0176138,-0.00369762,-0.0427143,-0.111651,-0.27664,-0.0807383,0.397862,-0.00014243,0.209445,3.09597,-0.323873,-0.000173062,0,0,0,0,0,0,0.00169041,0.811659,1.04602,3.13691,-1.57891,0.000282018,1.7954,-10.1887,-7.62334,-1.5723,-2.89549,0.126441,0,0,0,0,0,0
0.044,0.396447,-0.000406903,0.208126,3.13687,-0.295243,-0.00286725,-0.0168884,-0.00348924,-0.0417117,-0.114324,-0.275474,-0.0833333,0.397873,-0.000142382,0.209424,3.09492,-0.324826,-0.000173003,0,0,0,0,0,0,0.00178041,0.811925,1.04572,3.13675,-1.5792,0.000294774,1.78743,-9.85852,-7.55574,-1.59765,-2.92993,0.129125,0,0,0,0,0,0
0.045,0.396442,-0.000407163,0.208099,3.13671,-0.295501,-0.0029915,-0.0161741,-0.00328634,-0.0407483,-0.116986,-0.274394,-0.0859042,0.397883,-0.000142334,0.209404,3.09387,-0.325779,-0.000172945,0,0,0,0,0,0,0.00187219,0.812193,1.04542,3.1366,-1.57949,0.000307796,1.77997,-9.54004,-7.49002,-1.62287,-2.96599,0.131808,0,0,0,0,0,0
0.046,0.396437,-0.00040732,0.208073,3.13655,-0.295761,-0.0031179,-0.0154809,-0.0030897,-0.0398346,-0.119639,-0.273453,-0.0884492,0.397894,-0.000142285,0.209384,3.09283,-0.326732,-0.000172886,0,0,0,0,0,0,0.00196568,0.812464,1.04511,3.13643,-1.57979,0.000321083,1.77316,-9.23539,-7.42869,-1.64794,-3.00368,0.13449,0,0,0,0,0,0
0.047,0.396432,-0.00040739,0.208047,3.13639,-0.296022,-0.00324642,-0.0148178,-0.00289999,-0.0389798,-0.122281,-0.272696,-0.0909665,0.397905,-0.000142237,0.209364,3.09178,-0.327685,-0.000172828,0,0,0,0,0,0,0.00206084,0.812738,1.0448,3.13627,-1.58009,0.000334636,1.76707,-8.94645,-7.37393,-1.67286,-3.04299,0.137172,0,0,0,0,0,0
0.048,0.396427,-0.00040739,0.20802,3.13622,-0.296286,-0.00337699,-0.0141922,-0.00271777,-0.0381914,-0.124913,-0.272162,-0.0934548,0.397916,-0.000142189,0.209344,3.09073,-0.328638,-0.000172769,0,0,0,0,0,0,0.00215763,0.813016,1.04449,3.1361,-1.58039,0.000348454,1.76179,-8.67487,-7.32746,-1.69764,-3.08383,0.139854,0,0,0,0,0,0
0.049,0.396422,-0.000407334,0.207994,3.13606,-0.296554,-0.00350957,-0.0136096,-0.00254351,-0.0374754,-0.127534,-0.271882,-0.0959131,0.397927,-0.000142141,0.209324,3.08969,-0.329591,-0.000172711,0,0,0,0,0,0,0.00225599,0.813298,1.04417,3.13593,-1.5807,0.000362537,1.75739,-8.42221,-7.29052,-1.72226,-3.1261,0.142536,0,0,0,0,0,0
0.05,0.396417,-0.000407237,0.207966,3.13589,-0.296826,-0.00364411,-0.0130741,-0.00237758,-0.0368363,-0.130145,-0.271879,-0.0983403,0.397938,-0.000142093,0.209304,3.08864,-0.330544,-0.000172652,0,0,0,0,0,0,0.00235588,0.813583,1.04385,3.13576,-1.58101,0.000376886,1.75392,-8.18987,-7.26382,-1.74674,-3.16964,0.145218,0,0,0,0,0,0
0.051,0.396411,-0.00040711,0.207938,3.13572,-0.297102,-0.00378058,-0.0125878,-0.00222025,-0.0362772,-0.132744,-0.272171,-0.100736,0.397949,-0.000142045,0.209284,3.08759,-0.331497,-0.000172594,0,0,0,0,0,0,0.00245727,0.813873,1.04352,3.13559,-1.58132,0.000391501,1.75143,-7.97913,-7.24761,-1.77107,-3.21431,0.147899,0,0,0,0,0,0
0.052,0.396406,-0.000406967,0.20791,3.13554,-0.297384,-0.00391893,-0.0121515,-0.00207174,-0.0357999,-0.135332,-0.272764,-0.103099,0.39796,-0.000141996,0.209264,3.08655,-0.332449,-0.000172535,0,0,0,0,0,0,0.00256012,0.814168,1.04319,3.13541,-1.58164,0.000406382,1.74995,-7.79105,-7.24175,-1.79526,-3.25993,0.150581,0,0,0,0,0,0
0.053,0.3964,-0.000406817,0.20788,3.13537,-0.297671,-0.00405912,-0.0117648,-0.00193213,-0.0354047,-0.137909,-0.273663,-0.10543,0.39797,-0.000141948,0.209244,3.0855,-0.333402,-0.000172477,0,0,0,0,0,0,0.00266438,0.814467,1.04285,3.13523,-1.58197,0.000421529,1.7495,-7.62651,-7.2458,-1.8193,-3.30634,0.153263,0,0,0,0,0,0
0.054,0.396393,-0.00040667,0.20785,3.13519,-0.297964,-0.00420113,-0.0114263,-0.00180149,-0.0350911,-0.140474,-0.274864,-0.107728,0.397981,-0.0001419,0.209223,3.08445,-0.334355,-0.000172418,0,0,0,0,0,0,0.00277004,0.814772,1.04251,3.13505,-1.5823,0.000436943,1.7501,-7.48606,-7.25913,-1.8432,-3.35339,0.155945,0,0,0,0,0,0
0.055,0.396387,-0.000406534,0.207818,3.13501,-0.298263,-0.00434492,-0.0111342,-0.00167978,-0.0348576,-0.143028,-0.27636,-0.109994,0.397992,-0.000141852,0.209203,3.0834,-0.335308,-0.00017236,0,0,0,0,0,0,0.00287706,0.815082,1.04217,3.13487,-1.58263,0.000452622,1.75175,-7.36993,-7.28104,-1.86696,-3.40094,0.158627,0,0,0,0,0,0
0.056,0.396379,-0.000406417,0.207786,3.13482,-0.298567,-0.00449045,-0.0108861,-0.00156691,-0.0347015,-0.14557,-0.278143,-0.112227,0.398003,-0.000141804,0.209183,3.08236,-0.336261,-0.000172301,0,0,0,0,0,0,0.00298541,0.815397,1.04182,3.13468,-1.58297,0.000468569,1.75443,-7.27801,-7.31079,-1.89058,-3.44885,0.161309,0,0,0,0,0,0
0.057,0.396372,-0.000406326,0.207753,3.13464,-0.298878,-0.00463772,-0.0106797,-0.00146273,-0.0346199,-0.1481,-0.280199,-0.114429,0.398014,-0.000141756,0.209163,3.08131,-0.337214,-0.000172243,0,0,0,0,0,0,0.00309508,0.815718,1.04147,3.13449,-1.58331,0.000484782,1.75814,-7.20979,-7.34771,-1.91406,-3.49702,0.163991,0,0,0,0,0,0
0.058,0.396364,-0.000406266,0.207718,3.13445,-0.299195,-0.00478668,-0.0105124,-0.00136704,-0.0346086,-0.150619,-0.282514,-0.116598,0.398025,-0.000141707,0.209143,3.08026,-0.338167,-0.000172184,0,0,0,0,0,0,0.00320603,0.816044,1.04111,3.1343,-1.58366,0.000501262,1.76285,-7.16439,-7.3912,-1.93742,-3.54535,0.166672,0,0,0,0,0,0
0.059,0.396355,-0.000406241,0.207683,3.13426,-0.299518,-0.00493732,-0.0103821,-0.0012796,-0.0346633,-0.153126,-0.285073,-0.118737,0.398036,-0.000141659,0.209123,3.07922,-0.33912,-0.000172126,0,0,0,0,0,0,0.00331826,0.816376,1.04075,3.13411,-1.58401,0.000518008,1.76854,-7.14062,-7.44075,-1.96064,-3.59375,0.169353,0,0,0,0,0,0
0.06,0.396346,-0.000406256,0.207646,3.13407,-0.299848,-0.00508962,-0.0102863,-0.00120012,-0.034779,-0.155621,-0.287858,-0.120846,0.398046,-0.000141611,0.209103,3.07817,-0.340073,-0.000172067,0,0,0,0,0,0,0.00343173,0.816714,1.04039,3.13391,-1.58437,0.000535022,1.77517,-7.13696,-7.49595,-1.98373,-3.64213,0.172032,0,0,0,0,0,0
0.061,0.396337,-0.000406313,0.207609,3.13387,-0.300183,-0.00524356,-0.0102227,-0.00112829,-0.0349502,-0.158105,-0.290852,-0.122926,0.398057,-0.000141563,0.209083,3.07712,-0.341026,-0.000172008,0,0,0,0,0,0,0.00354645,0.817057,1.04002,3.13371,-1.58473,0.000552303,1.78271,-7.15167,-7.55643,-2.0067,-3.69043,0.174711,0,0,0,0,0,0
0.062,0.396328,-0.000406414,0.20757,3.13367,-0.300525,-0.00539913,-0.010189,-0.00106376,-0.0351714,-0.160577,-0.294035,-0.124977,0.398068,-0.000141515,0.209063,3.07608,-0.341978,-0.00017195,0,0,0,0,0,0,0.0036624,0.817405,1.03965,3.13351,-1.5851,0.000569851,1.79112,-7.18285,-7.62186,-2.02954,-3.73855,0.177389,0,0,0,0,0,0
0.063,0.396317,-0.000406561,0.207531,3.13347,-0.300872,-0.00555631,-0.0101829,-0.00100614,-0.0354365,-0.163037,-0.297389,-0.127,0.398079,-0.000141467,0.209042,3.07503,-0.342931,-0.000171891,0,0,0,0,0,0,0.00377957,0.817759,1.03927,3.13331,-1.58547,0.000587666,1.80033,-7.22844,-7.69189,-2.05226,-3.78644,0.180066,0,0,0,0,0,0
0.064,0.396307,-0.000406754,0.207491,3.13327,-0.301225,-0.00571509,-0.0102017,-0.000955039,-0.0357393,-0.165486,-0.300892,-0.128997,0.39809,-0.000141418,0.209022,3.07398,-0.343884,-0.000171833,0,0,0,0,0,0,0.00389794,0.818117,1.03889,3.13311,-1.58585,0.000605747,1.81032,-7.28638,-7.76616,-2.07487,-3.834,0.182741,0,0,0,0,0,0
0.065,0.396296,-0.000406993,0.20745,3.13307,-0.301584,-0.00587546,-0.0102427,-0.000910047,-0.0360736,-0.167923,-0.304522,-0.130968,0.398101,-0.00014137,0.209002,3.07293,-0.344837,-0.000171774,0,0,0,0,0,0,0.00401752,0.818481,1.03851,3.1329,-1.58623,0.000624096,1.82102,-7.35457,-7.84423,-2.09735,-3.88118,0.185414,0,0,0,0,0,0
0.066,0.396285,-0.000407277,0.207408,3.13286,-0.301948,-0.00603741,-0.0103029,-0.000870732,-0.036433,-0.170348,-0.308259,-0.132915,0.398112,-0.000141322,0.208982,3.07189,-0.34579,-0.000171716,0,0,0,0,0,0,0.0041383,0.818849,1.03812,3.13269,-1.58662,0.000642712,1.83238,-7.43098,-7.92559,-2.11973,-3.92791,0.188086,0,0,0,0,0,0
0.067,0.396273,-0.000407606,0.207365,3.13265,-0.302317,-0.00620093,-0.0103791,-0.00083666,-0.0368115,-0.172763,-0.312079,-0.134838,0.398123,-0.000141274,0.208962,3.07084,-0.346743,-0.000171657,0,0,0,0,0,0,0.00426027,0.819222,1.03773,3.13248,-1.58701,0.000661594,1.84435,-7.51364,-8.00966,-2.14199,-3.97411,0.190755,0,0,0,0,0,0
0.068,0.396262,-0.000407976,0.207322,3.13244,-0.302691,-0.00636602,-0.0104679,-0.000807389,-0.0372029,-0.175166,-0.31596,-0.136738,0.398133,-0.000141226,0.208942,3.06979,-0.347696,-0.000171599,0,0,0,0,0,0,0.00438343,0.8196,1.03733,3.13227,-1.58741,0.000680742,1.85687,-7.60069,-8.0958,-2.16415,-4.01973,0.193422,0,0,0,0,0,0
0.069,0.39625,-0.000408387,0.207279,3.13223,-0.303069,-0.00653267,-0.0105658,-0.000782478,-0.0376013,-0.177558,-0.31988,-0.138618,0.398144,-0.000141178,0.208922,3.06875,-0.348649,-0.00017154,0,0,0,0,0,0,0.00450779,0.819981,1.03693,3.13205,-1.58781,0.000700158,1.86988,-7.6904,-8.18334,-2.1862,-4.06472,0.196087,0,0,0,0,0,0
0.07,0.396237,-0.000408836,0.207235,3.13201,-0.303452,-0.00670088,-0.0106695,-0.000761487,-0.0380012,-0.179939,-0.323815,-0.140477,0.398155,-0.000141129,0.208902,3.0677,-0.349602,-0.000171482,0,0,0,0,0,0,0.00463334,0.820367,1.03652,3.13183,-1.58821,0.000719839,1.88333,-7.78113,-8.27157,-2.20815,-4.10905,0.198749,0,0,0,0,0,0
0.071,0.396225,-0.000409319,0.20719,3.1318,-0.303838,-0.00687063,-0.0107756,-0.000743984,-0.0383975,-0.182309,-0.327746,-0.142317,0.398166,-0.000141081,0.208882,3.06665,-0.350554,-0.000171423,0,0,0,0,0,0,0.00476009,0.820756,1.03612,3.13161,-1.58862,0.000739786,1.89716,-7.87139,-8.35979,-2.22999,-4.15268,0.201408,0,0,0,0,0,0
0.072,0.396213,-0.000409833,0.207146,3.13158,-0.304228,-0.00704194,-0.0108808,-0.000729544,-0.0387852,-0.184669,-0.331653,-0.144138,0.398177,-0.000141033,0.208862,3.06561,-0.351507,-0.000171365,0,0,0,0,0,0,0.00488803,0.821149,1.0357,3.13139,-1.58903,0.000759999,1.91132,-7.9598,-8.44734,-2.25174,-4.1956,0.204064,0,0,0,0,0,0
0.073,0.3962,-0.000410375,0.207101,3.13135,-0.304621,-0.00721479,-0.0109821,-0.000717755,-0.03916,-0.187018,-0.335516,-0.145942,0.398188,-0.000140985,0.208841,3.06456,-0.35246,-0.000171306,0,0,0,0,0,0,0.00501717,0.821546,1.03528,3.13116,-1.58945,0.000780477,1.92576,-8.04511,-8.53361,-2.2734,-4.23781,0.206717,0,0,0,0,0,0
0.074,0.396188,-0.000410941,0.207056,3.13113,-0.305017,-0.00738918,-0.0110768,-0.000708218,-0.0395181,-0.189356,-0.33932,-0.14773,0.398199,-0.000140937,0.208821,3.06351,-0.353413,-0.000171248,0,0,0,0,0,0,0.00514751,0.821946,1.03486,3.13094,-1.58987,0.00080122,1.94043,-8.12617,-8.61806,-2.29496,-4.27931,0.209367,0,0,0,0,0,0
0.075,0.396175,-0.000411527,0.207011,3.1309,-0.305416,-0.00756512,-0.0111625,-0.000700551,-0.039856,-0.191685,-0.34305,-0.149502,0.398209,-0.000140889,0.208801,3.06246,-0.354366,-0.000171189,0,0,0,0,0,0,0.00527905,0.822349,1.03443,3.13071,-1.5903,0.000822228,1.95526,-8.20195,-8.70024,-2.31643,-4.32013,0.212013,0,0,0,0,0,0
0.076,0.396163,-0.000412129,0.206966,3.13067,-0.305817,-0.00774259,-0.0112374,-0.000694388,-0.0401709,-0.194003,-0.346693,-0.151259,0.39822,-0.00014084,0.208781,3.06142,-0.355319,-0.000171131,0,0,0,0,0,0,0.0054118,0.822755,1.034,3.13048,-1.59073,0.000843501,1.97023,-8.27156,-8.77977,-2.3378,-4.36027,0.214655,0,0,0,0,0,0
0.077,0.396151,-0.000412744,0.206922,3.13044,-0.30622,-0.0079216,-0.0112996,-0.000689385,-0.0404604,-0.196312,-0.350239,-0.153003,0.398231,-0.000140792,0.208761,3.06037,-0.356272,-0.000171072,0,0,0,0,0,0,0.00554577,0.823164,1.03356,3.13024,-1.59116,0.000865038,1.98528,-8.33421,-8.85637,-2.35909,-4.39979,0.217294,0,0,0,0,0,0
0.078,0.396138,-0.000413367,0.206877,3.13021,-0.306625,-0.00810215,-0.011348,-0.000685216,-0.0407227,-0.19861,-0.353679,-0.154734,0.398242,-0.000140744,0.208741,3.05932,-0.357225,-0.000171014,0,0,0,0,0,0,0.00568096,0.823576,1.03312,3.13001,-1.5916,0.000886838,2.00036,-8.38923,-8.92984,-2.38028,-4.43871,0.219929,0,0,0,0,0,0
0.079,0.396127,-0.000413994,0.206833,3.12998,-0.307032,-0.00828423,-0.0113816,-0.000681576,-0.0409562,-0.200899,-0.357007,-0.156452,0.398253,-0.000140696,0.208721,3.05828,-0.358178,-0.000170955,0,0,0,0,0,0,0.00581736,0.82399,1.03268,3.12977,-1.59205,0.000908902,2.01545,-8.43608,-9.00006,-2.40139,-4.47707,0.22256,0,0,0,0,0,0
0.08,0.396115,-0.000414622,0.206788,3.12974,-0.30744,-0.00846785,-0.0113998,-0.000678183,-0.0411602,-0.203179,-0.360219,-0.158159,0.398264,-0.000140648,0.208701,3.05723,-0.359131,-0.000170896,0,0,0,0,0,0,0.00595499,0.824407,1.03222,3.12953,-1.59249,0.000931229,2.03049,-8.47437,-9.06697,-2.42241,-4.51493,0.225187,0,0,0,0,0,0
0.081,0.396103,-0.000415246,0.206744,3.1295,-0.307849,-0.00865301,-0.0114021,-0.000674777,-0.0413341,-0.205449,-0.363311,-0.159855,0.398275,-0.0001406,0.208681,3.05618,-0.360083,-0.000170838,0,0,0,0,0,0,0.00609386,0.824827,1.03177,3.12929,-1.59294,0.000953819,2.04547,-8.50383,-9.13055,-2.44334,-4.55232,0.22781,0,0,0,0,0,0
0.082,0.396092,-0.000415862,0.206701,3.12926,-0.30826,-0.00883969,-0.0113885,-0.000671117,-0.0414779,-0.20771,-0.366283,-0.161541,0.398286,-0.000140551,0.208661,3.05514,-0.361036,-0.000170779,0,0,0,0,0,0,0.00623395,0.825248,1.03131,3.12905,-1.5934,0.00097667,2.06033,-8.52431,-9.19083,-2.46419,-4.58929,0.230428,0,0,0,0,0,0
0.083,0.396081,-0.000416468,0.206658,3.12901,-0.308672,-0.00902791,-0.0113589,-0.000666988,-0.0415919,-0.209962,-0.369134,-0.163217,0.398296,-0.000140503,0.20864,3.05409,-0.361989,-0.000170721,0,0,0,0,0,0,0.00637529,0.825672,1.03084,3.1288,-1.59385,0.000999784,2.07506,-8.53581,-9.24787,-2.48494,-4.62588,0.233042,0,0,0,0,0,0
0.084,0.396071,-0.000417059,0.206615,3.12877,-0.309084,-0.00921766,-0.0113138,-0.000662196,-0.0416767,-0.212205,-0.371868,-0.164884,0.398307,-0.000140455,0.20862,3.05304,-0.362942,-0.000170662,0,0,0,0,0,0,0.00651786,0.826098,1.03037,3.12855,-1.59431,0.00102316,2.08963,-8.53845,-9.30176,-2.50561,-4.66214,0.235651,0,0,0,0,0,0
0.085,0.39606,-0.000417631,0.206572,3.12852,-0.309498,-0.00940894,-0.0112533,-0.000656568,-0.0417333,-0.21444,-0.374486,-0.166543,0.398318,-0.000140407,0.2086,3.05199,-0.363895,-0.000170604,0,0,0,0,0,0,0.00666168,0.826527,1.0299,3.1283,-1.59478,0.00104679,2.10401,-8.53246,-9.35261,-2.5262,-4.69812,0.238256,0,0,0,0,0,0
0.086,0.39605,-0.000418182,0.20653,3.12827,-0.309912,-0.00960174,-0.0111782,-0.000649953,-0.0417631,-0.216665,-0.376992,-0.168193,0.398329,-0.000140359,0.20858,3.05095,-0.364848,-0.000170545,0,0,0,0,0,0,0.00680674,0.826957,1.02942,3.12805,-1.59525,0.00107069,2.11818,-8.51819,-9.40053,-2.54669,-4.73385,0.240856,0,0,0,0,0,0
0.087,0.396041,-0.000418709,0.206488,3.12802,-0.310327,-0.00979607,-0.0110889,-0.00064222,-0.0417675,-0.218882,-0.379391,-0.169835,0.39834,-0.000140311,0.20856,3.0499,-0.365801,-0.000170487,0,0,0,0,0,0,0.00695305,0.82739,1.02893,3.1278,-1.59572,0.00109484,2.13213,-8.49608,-9.44566,-2.5671,-4.76937,0.243451,0,0,0,0,0,0
0.088,0.396031,-0.000419209,0.206447,3.12776,-0.310743,-0.00999192,-0.0109864,-0.000633259,-0.0417484,-0.221089,-0.38169,-0.17147,0.398351,-0.000140262,0.20854,3.04885,-0.366754,-0.000170428,0,0,0,0,0,0,0.00710062,0.827824,1.02844,3.12754,-1.59619,0.00111926,2.14583,-8.46662,-9.48817,-2.58741,-4.80473,0.246042,0,0,0,0,0,0
0.089,0.396022,-0.000419679,0.206405,3.12751,-0.31116,-0.0101893,-0.0108715,-0.000622982,-0.0417076,-0.223289,-0.383894,-0.173097,0.398362,-0.000140214,0.20852,3.04781,-0.367707,-0.00017037,0,0,0,0,0,0,0.00724943,0.828261,1.02795,3.12728,-1.59667,0.00114393,2.15928,-8.43041,-9.52821,-2.60764,-4.83997,0.248628,0,0,0,0,0,0
0.09,0.396013,-0.000420116,0.206365,3.12725,-0.311578,-0.0103882,-0.0107451,-0.000611315,-0.0416472,-0.22548,-0.386011,-0.174717,0.398373,-0.000140166,0.2085,3.04676,-0.36866,-0.000170311,0,0,0,0,0,0,0.0073995,0.8287,1.02745,3.12702,-1.59715,0.00116887,2.17246,-8.38807,-9.56599,-2.62778,-4.87512,0.251208,0,0,0,0,0,0
0.091,0.396005,-0.000420519,0.206324,3.12699,-0.311996,-0.0105886,-0.0106083,-0.000598208,-0.0415694,-0.227662,-0.388049,-0.176331,0.398383,-0.000140118,0.20848,3.04571,-0.369612,-0.000170253,0,0,0,0,0,0,0.00755081,0.829141,1.02695,3.12676,-1.59764,0.00119405,2.18537,-8.34027,-9.6017,-2.64783,-4.91022,0.253784,0,0,0,0,0,0
0.092,0.395996,-0.000420885,0.206284,3.12673,-0.312416,-0.0107905,-0.0104623,-0.000583623,-0.0414765,-0.229836,-0.390015,-0.177938,0.398394,-0.00014007,0.20846,3.04467,-0.370565,-0.000170194,0,0,0,0,0,0,0.00770338,0.829585,1.02644,3.12649,-1.59813,0.0012195,2.19799,-8.2877,-9.63556,-2.66779,-4.94529,0.256355,0,0,0,0,0,0
0.093,0.395988,-0.000421212,0.206244,3.12646,-0.312836,-0.0109939,-0.0103083,-0.000567542,-0.0413708,-0.232001,-0.391918,-0.179539,0.398405,-0.000140022,0.208439,3.04362,-0.371518,-0.000170136,0,0,0,0,0,0,0.0078572,0.83003,1.02593,3.12623,-1.59862,0.00124521,2.21033,-8.23105,-9.66781,-2.68766,-4.98038,0.25892,0,0,0,0,0,0
0.094,0.39598,-0.0004215,0.206205,3.1262,-0.313257,-0.0111988,-0.0101475,-0.000549959,-0.0412546,-0.234158,-0.393767,-0.181133,0.398416,-0.000139973,0.208419,3.04257,-0.372471,-0.000170077,0,0,0,0,0,0,0.00801227,0.830478,1.02541,3.12596,-1.59912,0.00127117,2.22238,-8.17103,-9.69868,-2.70744,-5.01551,0.261481,0,0,0,0,0,0
0.095,0.395973,-0.000421747,0.206166,3.12593,-0.31368,-0.0114052,-0.00998112,-0.000530885,-0.0411302,-0.236307,-0.395569,-0.182721,0.398427,-0.000139925,0.208399,3.04152,-0.373424,-0.000170019,0,0,0,0,0,0,0.00816858,0.830928,1.02489,3.12569,-1.59962,0.00129738,2.23414,-8.10833,-9.72844,-2.72713,-5.0507,0.264036,0,0,0,0,0,0
0.096,0.395966,-0.00042195,0.206127,3.12566,-0.314103,-0.0116131,-0.00981053,-0.000510341,-0.0409999,-0.238447,-0.397335,-0.184302,0.398438,-0.000139877,0.208379,3.04048,-0.374377,-0.00016996,0,0,0,0,0,0,0.00832614,0.831381,1.02436,3.12542,-1.60012,0.00132385,2.24561,-8.04362,-9.75732,-2.74672,-5.08597,0.266586,0,0,0,0,0,0
0.097,0.395959,-0.000422111,0.206088,3.12539,-0.314528,-0.0118225,-0.00963697,-0.000488362,-0.0408658,-0.240579,-0.399072,-0.185878,0.398449,-0.000139829,0.208359,3.03943,-0.37533,-0.000169902,0,0,0,0,0,0,0.00848493,0.831836,1.02383,3.12514,-1.60063,0.00135058,2.2568,-7.97756,-9.78558,-2.76622,-5.12134,0.269131,0,0,0,0,0,0
0.098,0.395952,-0.000422227,0.206049,3.12511,-0.314955,-0.0120333,-0.00946164,-0.000464991,-0.04073,-0.242702,-0.400788,-0.187447,0.398459,-0.000139781,0.208339,3.03838,-0.376283,-0.000169843,0,0,0,0,0,0,0.00864497,0.832294,1.0233,3.12487,-1.60114,0.00137756,2.26771,-7.91078,-9.81346,-2.78562,-5.15682,0.27167,0,0,0,0,0,0
0.099,0.395945,-0.000422299,0.20601,3.12484,-0.315383,-0.0122457,-0.00928573,-0.000440283,-0.0405944,-0.244817,-0.402491,-0.18901,0.39847,-0.000139733,0.208319,3.03734,-0.377236,-0.000169784,0,0,0,0,0,0,0.00880623,0.832754,1.02276,3.12459,-1.60165,0.00140479,2.27834,-7.84386,-9.84118,-2.80493,-5.19242,0.274204,0,0,0,0,0,0
0.1,0.395939,-0.000422326,0.205972,3.12456,-0.315812,-0.0124595,-0.00911033,-0.000414299,-0.0404609,-0.246924,-0.404189,-0.190567,0.398481,-0.000139684,0.208299,3.03629,-0.378189,-0.000169726,0,0,0,0,0,0,0.00896873,0.833217,1.02221,3.12431,-1.60217,0.00143228,2.2887,-7.77736,-9.86896,-2.82415,-5.22816,0.276733,0,0,0,0,0,0
0.101,0.395932,-0.000422307,0.205934,3.12428,-0.316243,-0.0126747,-0.00893647,-0.000387108,-0.0403311,-0.249022,-0.405887,-0.192118,0.398492,-0.000139636,0.208279,3.03524,-0.379141,-0.000169667,0,0,0,0,0,0,0.00913244,0.833682,1.02166,3.12403,-1.60269,0.00146001,2.2988,-7.7118,-9.89699,-2.84327,-5.26402,0.279257,0,0,0,0,0,0
0.102,0.395926,-0.000422244,0.205895,3.12399,-0.316676,-0.0128914,-0.00876509,-0.000358785,-0.0402066,-0.251112,-0.407593,-0.193662,0.398503,-0.000139588,0.208258,3.0342,-0.380094,-0.000169609,0,0,0,0,0,0,0.00929737,0.834151,1.02111,3.12374,-1.60322,0.001488,2.30865,-7.64764,-9.92545,-2.86229,-5.30001,0.281775,0,0,0,0,0,0
0.103,0.39592,-0.000422135,0.205857,3.12371,-0.317111,-0.0131095,-0.00859701,-0.000329408,-0.0400885,-0.253193,-0.409312,-0.195199,0.398514,-0.00013954,0.208238,3.03315,-0.381047,-0.00016955,0,0,0,0,0,0,0.00946352,0.834622,1.02055,3.12346,-1.60374,0.00151625,2.31825,-7.5853,-9.95448,-2.88122,-5.33613,0.284288,0,0,0,0,0,0
0.104,0.395914,-0.000421981,0.205819,3.12342,-0.317548,-0.0133291,-0.00843296,-0.000299063,-0.0399782,-0.255266,-0.411048,-0.196729,0.398525,-0.000139492,0.208218,3.0321,-0.382,-0.000169492,0,0,0,0,0,0,0.00963087,0.835096,1.01999,3.12317,-1.60428,0.00154474,2.32762,-7.52516,-9.98423,-2.90006,-5.37237,0.286796,0,0,0,0,0,0
0.105,0.395908,-0.000421783,0.20578,3.12314,-0.317987,-0.0135501,-0.00827358,-0.000267835,-0.0398765,-0.25733,-0.412806,-0.198253,0.398536,-0.000139444,0.208198,3.03105,-0.382953,-0.000169433,0,0,0,0,0,0,0.00979941,0.835573,1.01943,3.12288,-1.60481,0.00157348,2.33677,-7.46754,-10.0148,-2.91879,-5.40872,0.289298,0,0,0,0,0,0
0.106,0.395902,-0.000421542,0.205742,3.12285,-0.318428,-0.0137724,-0.00811938,-0.000235812,-0.0397843,-0.259386,-0.41459,-0.19977,0.398546,-0.000139395,0.208178,3.03001,-0.383906,-0.000169375,0,0,0,0,0,0,0.00996915,0.836053,1.01885,3.12259,-1.60535,0.00160247,2.34571,-7.4127,-10.0463,-2.93743,-5.44517,0.291795,0,0,0,0,0,0
0.107,0.395897,-0.000421257,0.205703,3.12255,-0.318872,-0.0139962,-0.00797079,-0.000203086,-0.0397021,-0.261434,-0.416402,-0.201279,0.398557,-0.000139347,0.208158,3.02896,-0.384859,-0.000169316,0,0,0,0,0,0,0.0101401,0.836535,1.01828,3.12229,-1.60589,0.00163171,2.35445,-7.36088,-10.0788,-2.95598,-5.48171,0.294286,0,0,0,0,0,0
0.108,0.395891,-0.000420929,0.205665,3.12226,-0.319318,-0.0142214,-0.00782814,-0.000169745,-0.0396305,-0.263472,-0.418244,-0.202781,0.398568,-0.000139299,0.208138,3.02791,-0.385812,-0.000169258,0,0,0,0,0,0,0.0103122,0.837021,1.0177,3.122,-1.60644,0.0016612,2.36299,-7.31222,-10.1122,-2.97443,-5.51834,0.296772,0,0,0,0,0,0
0.109,0.395885,-0.00042056,0.205626,3.12196,-0.319766,-0.014448,-0.00769166,-0.000135881,-0.0395696,-0.265503,-0.420118,-0.204276,0.398579,-0.000139251,0.208118,3.02687,-0.386765,-0.000169199,0,0,0,0,0,0,0.0104854,0.83751,1.01712,3.1217,-1.60699,0.00169094,2.37137,-7.26684,-10.1468,-2.99278,-5.55502,0.299253,0,0,0,0,0,0
0.11,0.39588,-0.00042015,0.205587,3.12167,-0.320216,-0.0146759,-0.0075615,-0.000101583,-0.0395196,-0.267525,-0.422025,-0.205762,0.39859,-0.000139203,0.208098,3.02582,-0.387718,-0.000169141,0,0,0,0,0,0,0.0106598,0.838002,1.01653,3.1214,-1.60754,0.00172092,2.37957,-7.22481,-10.1824,-3.01104,-5.59175,0.301728,0,0,0,0,0,0
0.111,0.395874,-0.0004197,0.205548,3.12137,-0.320669,-0.0149052,-0.00743772,-6.6939e-05,-0.0394805,-0.269538,-0.423965,-0.207241,0.398601,-0.000139155,0.208078,3.02477,-0.38867,-0.000169082,0,0,0,0,0,0,0.0108354,0.838498,1.01594,3.1211,-1.6081,0.00175116,2.38762,-7.18614,-10.2192,-3.0292,-5.62852,0.304198,0,0,0,0,0,0
0.112,0.395868,-0.000419211,0.205509,3.12107,-0.321124,-0.0151359,-0.00732032,-3.20342e-05,-0.0394522,-0.271543,-0.425938,-0.208711,0.398612,-0.000139106,0.208057,3.02373,-0.389623,-0.000169024,0,0,0,0,0,0,0.0110121,0.838996,1.01535,3.1208,-1.60866,0.00178163,2.39553,-7.1508,-10.257,-3.04727,-5.66531,0.306662,0,0,0,0,0,0
0.113,0.395863,-0.000418685,0.20547,3.12076,-0.321582,-0.0153678,-0.0072092,3.04785e-06,-0.0394342,-0.273539,-0.427943,-0.210173,0.398622,-0.000139058,0.208037,3.02268,-0.390576,-0.000168965,0,0,0,0,0,0,0.01119,0.839497,1.01475,3.1205,-1.60923,0.00181236,2.40331,-7.11873,-10.2958,-3.06524,-5.7021,0.309122,0,0,0,0,0,0
0.114,0.395857,-0.000418122,0.205431,3.12046,-0.322043,-0.0156011,-0.00710421,3.82268e-05,-0.0394263,-0.275527,-0.42998,-0.211626,0.398633,-0.00013901,0.208017,3.02163,-0.391529,-0.000168907,0,0,0,0,0,0,0.011369,0.840002,1.01414,3.12019,-1.6098,0.00184333,2.41097,-7.08982,-10.3357,-3.08312,-5.73887,0.311575,0,0,0,0,0,0
0.115,0.395852,-0.000417524,0.205391,3.12015,-0.322505,-0.0158358,-0.00700514,7.3426e-05,-0.039428,-0.277506,-0.432046,-0.213071,0.398644,-0.000138962,0.207997,3.02058,-0.392482,-0.000168848,0,0,0,0,0,0,0.0115491,0.84051,1.01353,3.11988,-1.61037,0.00187454,2.41852,-7.06392,-10.3765,-3.1009,-5.77562,0.314024,0,0,0,0,0,0
0.116,0.395846,-0.000416891,0.205352,3.11984,-0.322971,-0.0160717,-0.00691172,0.000108572,-0.0394385,-0.279477,-0.43414,-0.214506,0.398655,-0.000138914,0.207977,3.01954,-0.393435,-0.00016879,0,0,0,0,0,0,0.0117303,0.841021,1.01292,3.11957,-1.61094,0.001906,2.42597,-7.04087,-10.4183,-3.11859,-5.81232,0.316467,0,0,0,0,0,0
0.117,0.395841,-0.000416225,0.205312,3.11953,-0.323439,-0.0163089,-0.00682364,0.000143596,-0.0394573,-0.281439,-0.43626,-0.215933,0.398666,-0.000138866,0.207957,3.01849,-0.394388,-0.000168731,0,0,0,0,0,0,0.0119126,0.841535,1.01231,3.11926,-1.61152,0.0019377,2.43333,-7.02048,-10.4609,-3.13619,-5.84897,0.318905,0,0,0,0,0,0
0.118,0.395835,-0.000415527,0.205272,3.11922,-0.323909,-0.0165474,-0.00674053,0.000178434,-0.0394837,-0.283393,-0.438403,-0.217349,0.398677,-0.000138817,0.207937,3.01744,-0.395341,-0.000168672,0,0,0,0,0,0,0.012096,0.842052,1.01169,3.11895,-1.61211,0.00196964,2.44061,-7.00253,-10.5042,-3.15369,-5.88554,0.321338,0,0,0,0,0,0
0.119,0.39583,-0.000414798,0.205232,3.1189,-0.324382,-0.0167871,-0.006662,0.000213025,-0.0395168,-0.285338,-0.440567,-0.218756,0.398688,-0.000138769,0.207917,3.0164,-0.396294,-0.000168614,0,0,0,0,0,0,0.0122804,0.842572,1.01106,3.11863,-1.61269,0.00200183,2.44782,-6.9868,-10.5483,-3.1711,-5.92203,0.323765,0,0,0,0,0,0
0.12,0.395824,-0.000414039,0.205192,3.11859,-0.324857,-0.0170281,-0.00658763,0.000247313,-0.0395558,-0.287275,-0.442748,-0.220154,0.398699,-0.000138721,0.207897,3.01535,-0.397246,-0.000168555,0,0,0,0,0,0,0.012466,0.843095,1.01043,3.11832,-1.61328,0.00203425,2.45496,-6.97304,-10.593,-3.18843,-5.95843,0.326188,0,0,0,0,0,0
0.121,0.395819,-0.000413252,0.205152,3.11827,-0.325335,-0.0172703,-0.00651698,0.000281248,-0.0396,-0.289204,-0.444944,-0.221541,0.398709,-0.000138673,0.207877,3.0143,-0.398199,-0.000168497,0,0,0,0,0,0,0.0126526,0.843622,1.0098,3.118,-1.61388,0.00206692,2.46206,-6.96101,-10.6382,-3.20566,-5.99472,0.328605,0,0,0,0,0,0
0.122,0.395813,-0.000412437,0.205111,3.11795,-0.325815,-0.0175138,-0.00644958,0.000314783,-0.0396485,-0.291125,-0.447151,-0.222919,0.39872,-0.000138625,0.207856,3.01326,-0.399152,-0.000168438,0,0,0,0,0,0,0.0128403,0.844151,1.00917,3.11768,-1.61448,0.00209983,2.4691,-6.95045,-10.6839,-3.2228,-6.03089,0.331016,0,0,0,0,0,0
0.123,0.395808,-0.000411595,0.205071,3.11763,-0.326297,-0.0177585,-0.00638498,0.000347878,-0.0397004,-0.293037,-0.449366,-0.224286,0.398731,-0.000138577,0.207836,3.01221,-0.400105,-0.00016838,0,0,0,0,0,0,0.013029,0.844684,1.00852,3.11736,-1.61508,0.00213298,2.47611,-6.94111,-10.7299,-3.23985,-6.06693,0.333423,0,0,0,0,0,0
0.124,0.395803,-0.000410728,0.20503,3.1173,-0.326782,-0.0180044,-0.0063227,0.000380494,-0.0397549,-0.294941,-0.451587,-0.225642,0.398742,-0.000138528,0.207816,3.01116,-0.401058,-0.000168321,0,0,0,0,0,0,0.0132187,0.845219,1.00788,3.11703,-1.61568,0.00216638,2.48308,-6.93274,-10.7761,-3.25681,-6.10285,0.335824,0,0,0,0,0,0
0.125,0.395797,-0.000409837,0.20499,3.11698,-0.327269,-0.0182514,-0.0062623,0.0004126,-0.0398113,-0.296836,-0.453809,-0.226988,0.398753,-0.00013848,0.207796,3.01011,-0.402011,-0.000168263,0,0,0,0,0,0,0.0134095,0.845758,1.00723,3.11671,-1.61629,0.0022,2.49002,-6.9251,-10.8226,-3.27369,-6.13863,0.33822,0,0,0,0,0,0
0.126,0.395792,-0.000408922,0.204949,3.11665,-0.327758,-0.0184997,-0.00620331,0.000444169,-0.0398687,-0.298724,-0.456032,-0.228324,0.398764,-0.000138432,0.207776,3.00907,-0.402964,-0.000168204,0,0,0,0,0,0,0.0136014,0.846299,1.00658,3.11638,-1.6169,0.00223387,2.49694,-6.91794,-10.8691,-3.29047,-6.17426,0.340611,0,0,0,0,0,0
0.127,0.395787,-0.000407984,0.204908,3.11632,-0.32825,-0.0187491,-0.00614533,0.000475177,-0.0399264,-0.300604,-0.45825,-0.229648,0.398775,-0.000138384,0.207756,3.00802,-0.403917,-0.000168146,0,0,0,0,0,0,0.0137942,0.846843,1.00592,3.11605,-1.61752,0.00226798,2.50384,-6.91105,-10.9156,-3.30717,-6.20975,0.342997,0,0,0,0,0,0
0.128,0.395781,-0.000407025,0.204867,3.11599,-0.328743,-0.0189996,-0.00608793,0.000505605,-0.0399837,-0.302475,-0.460462,-0.230962,0.398786,-0.000138336,0.207736,3.00697,-0.40487,-0.000168087,0,0,0,0,0,0,0.013988,0.847391,1.00526,3.11572,-1.61814,0.00230232,2.51072,-6.9042,-10.9621,-3.32378,-6.24509,0.345378,0,0,0,0,0,0
0.129,0.395776,-0.000406044,0.204827,3.11566,-0.329239,-0.0192513,-0.00603074,0.000535438,-0.04004,-0.304339,-0.462666,-0.232265,0.398796,-0.000138288,0.207716,3.00593,-0.405823,-0.000168029,0,0,0,0,0,0,0.0141828,0.847941,1.0046,3.11539,-1.61876,0.00233691,2.51759,-6.8972,-11.0084,-3.34031,-6.28028,0.347754,0,0,0,0,0,0
0.13,0.395771,-0.000405044,0.204786,3.11533,-0.329736,-0.0195041,-0.00597341,0.000564665,-0.0400948,-0.306194,-0.464858,-0.233557,0.398807,-0.000138239,0.207696,3.00488,-0.406775,-0.00016797,0,0,0,0,0,0,0.0143787,0.848494,1.00393,3.11506,-1.61939,0.00237173,2.52444,-6.88986,-11.0545,-3.35675,-6.31533,0.350124,0,0,0,0,0,0
0.131,0.395766,-0.000404024,0.204745,3.11499,-0.330236,-0.0197581,-0.00591562,0.000593279,-0.0401474,-0.308042,-0.467037,-0.234837,0.398818,-0.000138191,0.207675,3.00383,-0.407728,-0.000167912,0,0,0,0,0,0,0.0145755,0.849049,1.00325,3.11472,-1.62002,0.00240678,2.5313,-6.88201,-11.1003,-3.37311,-6.35023,0.352489,0,0,0,0,0,0
0.132,0.395761,-0.000402985,0.204704,3.11465,-0.330737,-0.0200131,-0.00585708,0.000621275,-0.0401975,-0.309882,-0.469201,-0.236107,0.398829,-0.000138143,0.207655,3.00279,-0.408681,-0.000167853,0,0,0,0,0,0,0.0147733,0.849608,1.00258,3.11438,-1.62065,0.00244207,2.53814,-6.87352,-11.1458,-3.38938,-6.38498,0.354849,0,0,0,0,0,0
0.133,0.395756,-0.000401928,0.204663,3.11432,-0.33124,-0.0202693,-0.00579754,0.000648653,-0.0402446,-0.311714,-0.471348,-0.237365,0.39884,-0.000138095,0.207635,3.00174,-0.409634,-0.000167795,0,0,0,0,0,0,0.014972,0.850169,1.00189,3.11405,-1.62128,0.0024776,2.54498,-6.86424,-11.191,-3.40557,-6.41959,0.357204,0,0,0,0,0,0
0.134,0.395751,-0.000400853,0.204622,3.11397,-0.331746,-0.0205265,-0.00573677,0.000675415,-0.0402885,-0.313539,-0.473478,-0.238613,0.398851,-0.000138047,0.207615,3.00069,-0.410587,-0.000167736,0,0,0,0,0,0,0.0151717,0.850733,1.00121,3.11371,-1.62193,0.00251336,2.55181,-6.85406,-11.2358,-3.42167,-6.45407,0.359554,0,0,0,0,0,0
0.135,0.395747,-0.000399762,0.204581,3.11363,-0.332253,-0.0207848,-0.00567461,0.000701567,-0.0403288,-0.315355,-0.475588,-0.239849,0.398862,-0.000137999,0.207595,2.99964,-0.41154,-0.000167678,0,0,0,0,0,0,0.0153724,0.8513,1.00052,3.11336,-1.62257,0.00254935,2.55864,-6.8429,-11.2801,-3.43769,-6.48841,0.361898,0,0,0,0,0,0
0.136,0.395742,-0.000398653,0.20454,3.11329,-0.332762,-0.0210441,-0.00561089,0.000727116,-0.0403653,-0.317164,-0.477677,-0.241074,0.398872,-0.00013795,0.207575,2.9986,-0.412493,-0.000167619,0,0,0,0,0,0,0.015574,0.851869,0.999825,3.11302,-1.62322,0.00258558,2.56547,-6.83068,-11.324,-3.45362,-6.52262,0.364238,0,0,0,0,0,0
0.137,0.395737,-0.000397529,0.204499,3.11294,-0.333272,-0.0213045,-0.00554551,0.000752071,-0.040398,-0.318966,-0.479746,-0.242287,0.398883,-0.000137902,0.207555,2.99755,-0.413446,-0.00016756,0,0,0,0,0,0,0.0157766,0.852441,0.999127,3.11268,-1.62387,0.00262204,2.57229,-6.81735,-11.3675,-3.46948,-6.55671,0.366572,0,0,0,0,0,0
0.138,0.395733,-0.000396389,0.204458,3.11259,-0.333785,-0.0215659,-0.00547839,0.000776445,-0.0404267,-0.32076,-0.481794,-0.24349,0.398894,-0.000137854,0.207535,2.9965,-0.414399,-0.000167502,0,0,0,0,0,0,0.0159801,0.853016,0.998425,3.11233,-1.62452,0.00265874,2.5791,-6.80288,-11.4104,-3.48525,-6.59068,0.368901,0,0,0,0,0,0
0.139,0.395728,-0.000395234,0.204417,3.11225,-0.334299,-0.0218284,-0.00540947,0.000800251,-0.0404514,-0.322547,-0.48382,-0.244681,0.398905,-0.000137806,0.207515,2.99546,-0.415352,-0.000167443,0,0,0,0,0,0,0.0161845,0.853594,0.997718,3.11198,-1.62518,0.00269566,2.58591,-6.78724,-11.4529,-3.50094,-6.62454,0.371224,0,0,0,0,0,0
0.14,0.395724,-0.000394063,0.204377,3.11189,-0.334814,-0.0220918,-0.00533874,0.000823505,-0.0404722,-0.324326,-0.485824,-0.245862,0.398916,-0.000137758,0.207495,2.99441,-0.416304,-0.000167385,0,0,0,0,0,0,0.0163898,0.854174,0.997008,3.11163,-1.62584,0.00273282,2.59271,-6.77043,-11.4949,-3.51655,-6.6583,0.373543,0,0,0,0,0,0
0.141,0.39572,-0.000392878,0.204336,3.11154,-0.335332,-0.0223563,-0.00526622,0.000846224,-0.040489,-0.326097,-0.487807,-0.247031,0.398927,-0.00013771,0.207474,2.99336,-0.417257,-0.000167326,0,0,0,0,0,0,0.0165961,0.854756,0.996294,3.11128,-1.6265,0.00277021,2.5995,-6.75248,-11.5364,-3.53207,-6.69196,0.375856,0,0,0,0,0,0
0.142,0.395716,-0.000391679,0.204295,3.11119,-0.335851,-0.0226218,-0.00519193,0.000868424,-0.0405021,-0.327862,-0.489768,-0.24819,0.398938,-0.000137661,0.207454,2.99232,-0.41821,-0.000167268,0,0,0,0,0,0,0.0168033,0.855342,0.995575,3.11093,-1.62717,0.00280783,2.60628,-6.7334,-11.5775,-3.54752,-6.72553,0.378163,0,0,0,0,0,0
0.143,0.395712,-0.000390465,0.204255,3.11083,-0.336371,-0.0228882,-0.00511595,0.000890125,-0.0405115,-0.329619,-0.491709,-0.249337,0.398949,-0.000137613,0.207434,2.99127,-0.419163,-0.000167209,0,0,0,0,0,0,0.0170113,0.85593,0.994853,3.11057,-1.62784,0.00284568,2.61304,-6.71324,-11.6181,-3.56288,-6.75901,0.380466,0,0,0,0,0,0
0.144,0.395708,-0.000389237,0.204214,3.11047,-0.336894,-0.0231557,-0.00503835,0.000911347,-0.0405176,-0.331369,-0.49363,-0.250474,0.398959,-0.000137565,0.207414,2.99022,-0.420116,-0.000167151,0,0,0,0,0,0,0.0172203,0.85652,0.994126,3.11022,-1.62851,0.00288376,2.61978,-6.69205,-11.6583,-3.57817,-6.79242,0.382763,0,0,0,0,0,0
0.145,0.395704,-0.000387995,0.204173,3.11012,-0.337418,-0.0234241,-0.00495923,0.000932109,-0.0405204,-0.333111,-0.495532,-0.2516,0.39897,-0.000137517,0.207394,2.98917,-0.421069,-0.000167092,0,0,0,0,0,0,0.0174302,0.857113,0.993396,3.10986,-1.62919,0.00292207,2.62651,-6.66989,-11.6981,-3.59337,-6.82575,0.385054,0,0,0,0,0,0
0.146,0.395701,-0.00038674,0.204133,3.10976,-0.337943,-0.0236934,-0.00487872,0.000952431,-0.0405203,-0.334846,-0.497415,-0.252715,0.398981,-0.000137469,0.207374,2.98813,-0.422022,-0.000167034,0,0,0,0,0,0,0.0176409,0.857709,0.992661,3.1095,-1.62987,0.00296061,2.63321,-6.64684,-11.7375,-3.60849,-6.85901,0.38734,0,0,0,0,0,0
0.147,0.395697,-0.000385471,0.204092,3.10939,-0.33847,-0.0239637,-0.00479696,0.000972333,-0.0405175,-0.336575,-0.499281,-0.25382,0.398992,-0.000137421,0.207354,2.98708,-0.422975,-0.000166975,0,0,0,0,0,0,0.0178525,0.858307,0.991922,3.10914,-1.63056,0.00299937,2.6399,-6.62297,-11.7765,-3.62354,-6.89222,0.389621,0,0,0,0,0,0
0.148,0.395694,-0.000384188,0.204052,3.10903,-0.338999,-0.0242349,-0.00471408,0.000991838,-0.0405123,-0.338296,-0.50113,-0.254914,0.399003,-0.000137372,0.207334,2.98603,-0.423928,-0.000166917,0,0,0,0,0,0,0.018065,0.858908,0.991179,3.10878,-1.63124,0.00303837,2.64655,-6.59836,-11.8153,-3.6385,-6.92537,0.391896,0,0,0,0,0,0
0.149,0.39569,-0.000382892,0.204012,3.10866,-0.339529,-0.0245071,-0.00463024,0.00101096,-0.0405051,-0.34001,-0.502964,-0.255998,0.399014,-0.000137324,0.207314,2.98499,-0.424881,-0.000166858,0,0,0,0,0,0,0.0182784,0.859512,0.990432,3.10842,-1.63193,0.00307759,2.65317,-6.5731,-11.8537,-3.65339,-6.95847,0.394166,0,0,0,0,0,0
0.15,0.395687,-0.000381582,0.203971,3.1083,-0.340061,-0.0247802,-0.0045456,0.00102973,-0.040496,-0.341716,-0.504784,-0.257072,0.399025,-0.000137276,0.207294,2.98394,-0.425833,-0.0001668,0,0,0,0,0,0,0.0184926,0.860118,0.989681,3.10805,-1.63263,0.00311703,2.65977,-6.54727,-11.892,-3.66819,-6.99152,0.39643,0,0,0,0,0,0
0.151,0.395684,-0.000380259,0.203931,3.10793,-0.340595,-0.0250542,-0.00446033,0.00104816,-0.0404854,-0.343416,-0.506591,-0.258135,0.399035,-0.000137228,0.207273,2.98289,-0.426786,-0.000166741,0,0,0,0,0,0,0.0187077,0.860727,0.988926,3.10768,-1.63332,0.0031567,2.66633,-6.52098,-11.9299,-3.68292,-7.02453,0.398688,0,0,0,0,0,0
0.152,0.395681,-0.000378923,0.203891,3.10756,-0.34113,-0.0253291,-0.00437458,0.00106627,-0.0404737,-0.345109,-0.508387,-0.259188,0.399046,-0.00013718,0.207253,2.98185,-0.427739,-0.000166683,0,0,0,0,0,0,0.0189237,0.861338,0.988167,3.10732,-1.63402,0.0031966,2.67285,-6.49431,-11.9678,-3.69757,-7.05751,0.400941,0,0,0,0,0,0
0.153,0.395678,-0.000377573,0.20385,3.10718,-0.341667,-0.0256049,-0.00428853,0.00108408,-0.040461,-0.346795,-0.510171,-0.260231,0.399057,-0.000137132,0.207233,2.9808,-0.428692,-0.000166624,0,0,0,0,0,0,0.0191405,0.861952,0.987404,3.10695,-1.63473,0.00323672,2.67933,-6.46735,-12.0054,-3.71213,-7.09044,0.403188,0,0,0,0,0,0
0.154,0.395675,-0.00037621,0.20381,3.10681,-0.342205,-0.0258816,-0.00420234,0.0011016,-0.0404478,-0.348474,-0.511946,-0.261264,0.399068,-0.000137083,0.207213,2.97975,-0.429645,-0.000166566,0,0,0,0,0,0,0.0193581,0.862569,0.986637,3.10658,-1.63544,0.00327707,2.68577,-6.44018,-12.043,-3.72663,-7.12335,0.405429,0,0,0,0,0,0
0.155,0.395672,-0.000374834,0.20377,3.10644,-0.342745,-0.0261591,-0.00411615,0.00111886,-0.0404342,-0.350145,-0.513713,-0.262288,0.399079,-0.000137035,0.207193,2.9787,-0.430598,-0.000166507,0,0,0,0,0,0,0.0195766,0.863188,0.985866,3.1062,-1.63615,0.00331764,2.69216,-6.4129,-12.0804,-3.74104,-7.15623,0.407665,0,0,0,0,0,0
0.156,0.395669,-0.000373444,0.20373,3.10606,-0.343287,-0.0264375,-0.00403012,0.00113587,-0.0404206,-0.35181,-0.515472,-0.263301,0.39909,-0.000136987,0.207173,2.97766,-0.431551,-0.000166448,0,0,0,0,0,0,0.0197959,0.86381,0.985091,3.10583,-1.63686,0.00335843,2.69851,-6.38558,-12.1178,-3.75538,-7.18908,0.409894,0,0,0,0,0,0
0.157,0.395666,-0.000372041,0.203689,3.10568,-0.34383,-0.0267168,-0.0039444,0.00115264,-0.0404071,-0.353469,-0.517224,-0.264305,0.399101,-0.000136939,0.207153,2.97661,-0.432504,-0.00016639,0,0,0,0,0,0,0.020016,0.864434,0.984312,3.10546,-1.63758,0.00339944,2.7048,-6.35829,-12.1552,-3.76963,-7.2219,0.412118,0,0,0,0,0,0
0.158,0.395664,-0.000370625,0.203649,3.1053,-0.344375,-0.0269969,-0.0038591,0.0011692,-0.0403941,-0.35512,-0.518971,-0.265299,0.399112,-0.000136891,0.207133,2.97556,-0.433457,-0.000166331,0,0,0,0,0,0,0.0202369,0.865062,0.983529,3.10508,-1.6383,0.00344068,2.71105,-6.33111,-12.1925,-3.78381,-7.25469,0.414336,0,0,0,0,0,0
0.159,0.395661,-0.000369196,0.203609,3.10492,-0.344922,-0.0272779,-0.00377436,0.00118555,-0.0403817,-0.356764,-0.520714,-0.266284,0.399122,-0.000136843,0.207113,2.97452,-0.43441,-0.000166273,0,0,0,0,0,0,0.0204587,0.865691,0.982742,3.1047,-1.63902,0.00348214,2.71724,-6.30411,-12.2299,-3.79792,-7.28746,0.416548,0,0,0,0,0,0
0.16,0.395659,-0.000367753,0.203569,3.10454,-0.34547,-0.0275597,-0.00369028,0.00120171,-0.04037,-0.358402,-0.522452,-0.267259,0.399133,-0.000136794,0.207093,2.97347,-0.435362,-0.000166214,0,0,0,0,0,0,0.0206813,0.866324,0.981951,3.10432,-1.63975,0.00352382,2.72338,-6.27733,-12.2674,-3.81195,-7.32021,0.418754,0,0,0,0,0,0
0.161,0.395657,-0.000366297,0.203529,3.10415,-0.34602,-0.0278423,-0.00360697,0.00121769,-0.0403593,-0.360033,-0.524188,-0.268225,0.399144,-0.000136746,0.207072,2.97242,-0.436315,-0.000166156,0,0,0,0,0,0,0.0209046,0.866959,0.981156,3.10394,-1.64048,0.00356572,2.72946,-6.25084,-12.3048,-3.8259,-7.35293,0.420955,0,0,0,0,0,0
0.162,0.395654,-0.000364828,0.203488,3.10377,-0.346572,-0.0281258,-0.0035245,0.00123349,-0.0403497,-0.361657,-0.525921,-0.269181,0.399155,-0.000136698,0.207052,2.97138,-0.437268,-0.000166097,0,0,0,0,0,0,0.0211288,0.867597,0.980357,3.10356,-1.64121,0.00360783,2.73549,-6.22467,-12.3424,-3.83977,-7.38563,0.423149,0,0,0,0,0,0
0.163,0.395652,-0.000363345,0.203448,3.10338,-0.347126,-0.02841,-0.00344295,0.00124914,-0.0403413,-0.363274,-0.527651,-0.270128,0.399166,-0.00013665,0.207032,2.97033,-0.438221,-0.000166039,0,0,0,0,0,0,0.0213538,0.868238,0.979554,3.10318,-1.64195,0.00365017,2.74145,-6.19886,-12.3801,-3.85358,-7.4183,0.425337,0,0,0,0,0,0
0.164,0.39565,-0.000361849,0.203408,3.10299,-0.347681,-0.0286951,-0.00336238,0.00126464,-0.0403342,-0.364885,-0.529381,-0.271066,0.399177,-0.000136602,0.207012,2.96928,-0.439174,-0.00016598,0,0,0,0,0,0,0.0215795,0.868881,0.978747,3.10279,-1.64269,0.00369273,2.74735,-6.17345,-12.4179,-3.8673,-7.45094,0.427519,0,0,0,0,0,0
0.165,0.395648,-0.00036034,0.203368,3.1026,-0.348238,-0.0289809,-0.00328284,0.00127999,-0.0403285,-0.366489,-0.531108,-0.271995,0.399188,-0.000136554,0.206992,2.96824,-0.440127,-0.000165922,0,0,0,0,0,0,0.0218061,0.869527,0.977937,3.10241,-1.64343,0.0037355,2.75319,-6.14846,-12.4557,-3.88095,-7.48356,0.429695,0,0,0,0,0,0
0.166,0.395646,-0.000358818,0.203327,3.10221,-0.348796,-0.0292676,-0.00320436,0.00129521,-0.0403242,-0.368086,-0.532835,-0.272914,0.399199,-0.000136505,0.206972,2.96719,-0.44108,-0.000165863,0,0,0,0,0,0,0.0220334,0.870175,0.977122,3.10202,-1.64418,0.00377849,2.75897,-6.12391,-12.4938,-3.89453,-7.51615,0.431865,0,0,0,0,0,0
0.167,0.395644,-0.000357283,0.203287,3.10182,-0.349357,-0.029555,-0.00312697,0.0013103,-0.0403213,-0.369677,-0.534561,-0.273825,0.399209,-0.000136457,0.206952,2.96614,-0.442033,-0.000165805,0,0,0,0,0,0,0.0222615,0.870827,0.976303,3.10163,-1.64493,0.00382169,2.76468,-6.0998,-12.5319,-3.90803,-7.54871,0.434029,0,0,0,0,0,0
0.168,0.395642,-0.000355734,0.203247,3.10142,-0.349919,-0.0298431,-0.00305068,0.00132527,-0.0403199,-0.371261,-0.536287,-0.274726,0.39922,-0.000136409,0.206932,2.96509,-0.442986,-0.000165746,0,0,0,0,0,0,0.0224903,0.871481,0.975481,3.10124,-1.64568,0.00386511,2.77034,-6.07614,-12.5702,-3.92146,-7.58123,0.436187,0,0,0,0,0,0
0.169,0.39564,-0.000354173,0.203207,3.10102,-0.350482,-0.0301321,-0.0029755,0.00134012,-0.0403199,-0.372839,-0.538011,-0.275618,0.399231,-0.000136361,0.206912,2.96405,-0.443938,-0.000165688,0,0,0,0,0,0,0.02272,0.872138,0.974654,3.10085,-1.64643,0.00390875,2.77592,-6.05293,-12.6086,-3.93481,-7.61373,0.438338,0,0,0,0,0,0
0.17,0.395638,-0.000352598,0.203166,3.10063,-0.351048,-0.0304217,-0.0029014,0.00135485,-0.0403214,-0.37441,-0.539735,-0.276502,0.399242,-0.000136313,0.206891,2.963,-0.444891,-0.000165629,0,0,0,0,0,0,0.0229503,0.872797,0.973824,3.10045,-1.64719,0.0039526,2.78144,-6.03016,-12.6471,-3.94809,-7.64618,0.440483,0,0,0,0,0,0
0.171,0.395636,-0.00035101,0.203126,3.10023,-0.351615,-0.0307122,-0.00282838,0.00136947,-0.0403242,-0.375974,-0.541459,-0.277376,0.399253,-0.000136265,0.206871,2.96195,-0.445844,-0.000165571,0,0,0,0,0,0,0.0231815,0.873459,0.972989,3.10006,-1.64796,0.00399667,2.7869,-6.00783,-12.6857,-3.9613,-7.6786,0.442622,0,0,0,0,0,0
0.172,0.395635,-0.00034941,0.203085,3.09983,-0.352184,-0.0310033,-0.00275641,0.00138399,-0.0403283,-0.377532,-0.543181,-0.278241,0.399264,-0.000136216,0.206851,2.96091,-0.446797,-0.000165512,0,0,0,0,0,0,0.0234133,0.874124,0.972151,3.09966,-1.64872,0.00404095,2.79229,-5.98591,-12.7245,-3.97444,-7.71099,0.444755,0,0,0,0,0,0
0.173,0.395633,-0.000347797,0.203045,3.09942,-0.352754,-0.0312952,-0.00268544,0.00139839,-0.0403336,-0.379084,-0.544902,-0.279097,0.399275,-0.000136168,0.206831,2.95986,-0.44775,-0.000165454,0,0,0,0,0,0,0.023646,0.874792,0.971308,3.09927,-1.64949,0.00408544,2.79761,-5.96438,-12.7634,-3.9875,-7.74333,0.446882,0,0,0,0,0,0
0.174,0.395632,-0.000346171,0.203005,3.09902,-0.353327,-0.0315878,-0.00261545,0.00141269,-0.0403402,-0.380629,-0.546621,-0.279945,0.399285,-0.00013612,0.206811,2.95881,-0.448703,-0.000165395,0,0,0,0,0,0,0.0238793,0.875462,0.970462,3.09887,-1.65026,0.00413014,2.80287,-5.94323,-12.8024,-4.00049,-7.77564,0.449002,0,0,0,0,0,0
0.175,0.39563,-0.000344532,0.202964,3.09862,-0.353901,-0.031881,-0.00254639,0.00142689,-0.0403478,-0.382168,-0.548339,-0.280783,0.399296,-0.000136072,0.206791,2.95777,-0.449656,-0.000165336,0,0,0,0,0,0,0.0241134,0.876135,0.969612,3.09847,-1.65104,0.00417506,2.80807,-5.92242,-12.8415,-4.01341,-7.8079,0.451116,0,0,0,0,0,0
0.176,0.395629,-0.000342881,0.202924,3.09821,-0.354476,-0.032175,-0.00247819,0.00144098,-0.0403563,-0.383701,-0.550055,-0.281612,0.399307,-0.000136024,0.206771,2.95672,-0.450609,-0.000165278,0,0,0,0,0,0,0.0243482,0.87681,0.968758,3.09807,-1.65182,0.00422018,2.81319,-5.90194,-12.8807,-4.02627,-7.84012,0.453224,0,0,0,0,0,0
0.177,0.395627,-0.000341217,0.202883,3.0978,-0.355054,-0.0324697,-0.00241082,0.00145497,-0.0403658,-0.385227,-0.551769,-0.282433,0.399318,-0.000135976,0.206751,2.95567,-0.451562,-0.000165219,0,0,0,0,0,0,0.0245837,0.877489,0.9679,3.09767,-1.6526,0.00426552,2.81826,-5.88173,-12.9199,-4.03905,-7.87229,0.455325,0,0,0,0,0,0
0.178,0.395626,-0.000339541,0.202843,3.09739,-0.355633,-0.032765,-0.0023442,0.00146885,-0.040376,-0.386747,-0.55348,-0.283244,0.399329,-0.000135927,0.206731,2.95462,-0.452515,-0.000165161,0,0,0,0,0,0,0.02482,0.87817,0.967038,3.09726,-1.65339,0.00431106,2.82326,-5.86179,-12.9593,-4.05176,-7.90442,0.45742,0,0,0,0,0,0
0.179,0.395625,-0.000337853,0.202802,3.09698,-0.356213,-0.0330611,-0.00227828,0.00148262,-0.0403868,-0.388261,-0.555187,-0.284047,0.39934,-0.000135879,0.206711,2.95358,-0.453467,-0.000165102,0,0,0,0,0,0,0.0250569,0.878853,0.966172,3.09686,-1.65417,0.00435682,2.8282,-5.84206,-12.9987,-4.0644,-7.9365,0.459509,0,0,0,0,0,0
0.18,0.395623,-0.000336153,0.202762,3.09657,-0.356796,-0.0333577,-0.002213,0.00149629,-0.0403983,-0.389768,-0.556892,-0.28484,0.399351,-0.000135831,0.20669,2.95253,-0.45442,-0.000165044,0,0,0,0,0,0,0.0252946,0.87954,0.965303,3.09645,-1.65497,0.00440278,2.83307,-5.82252,-13.0381,-4.07697,-7.96853,0.461592,0,0,0,0,0,0
0.181,0.395622,-0.000334441,0.202721,3.09615,-0.35738,-0.0336551,-0.00214829,0.00150985,-0.0404102,-0.39127,-0.558592,-0.285625,0.399362,-0.000135783,0.20667,2.95148,-0.455373,-0.000164985,0,0,0,0,0,0,0.0255329,0.880229,0.964429,3.09604,-1.65576,0.00444895,2.83788,-5.80314,-13.0776,-4.08947,-8.00052,0.463668,0,0,0,0,0,0
0.182,0.395621,-0.000332717,0.20268,3.09574,-0.357965,-0.033953,-0.0020841,0.00152329,-0.0404224,-0.392765,-0.560288,-0.2864,0.399372,-0.000135735,0.20665,2.95044,-0.456326,-0.000164927,0,0,0,0,0,0,0.0257719,0.880921,0.963552,3.09564,-1.65656,0.00449532,2.84263,-5.78388,-13.1171,-4.1019,-8.03245,0.465737,0,0,0,0,0,0
0.183,0.39562,-0.000330982,0.20264,3.09532,-0.358552,-0.0342516,-0.00202036,0.00153663,-0.0404348,-0.394254,-0.56198,-0.287167,0.399383,-0.000135687,0.20663,2.94939,-0.457279,-0.000164868,0,0,0,0,0,0,0.0260117,0.881615,0.96267,3.09523,-1.65736,0.00454191,2.84732,-5.76472,-13.1567,-4.11427,-8.06434,0.4678,0,0,0,0,0,0
0.184,0.395619,-0.000329235,0.202599,3.09491,-0.359141,-0.0345508,-0.00195701,0.00154984,-0.0404475,-0.395738,-0.563666,-0.287924,0.399394,-0.000135638,0.20661,2.94834,-0.458232,-0.00016481,0,0,0,0,0,0,0.0262521,0.882312,0.961785,3.09482,-1.65816,0.0045887,2.85195,-5.74561,-13.1962,-4.12657,-8.09618,0.469857,0,0,0,0,0,0
0.185,0.395618,-0.000327476,0.202558,3.09449,-0.359732,-0.0348507,-0.00189401,0.00156294,-0.0404601,-0.397215,-0.565347,-0.288673,0.399405,-0.00013559,0.20659,2.9473,-0.459185,-0.000164751,0,0,0,0,0,0,0.0264931,0.883012,0.960895,3.0944,-1.65897,0.00463569,2.85651,-5.72653,-13.2357,-4.1388,-8.12798,0.471908,0,0,0,0,0,0
0.186,0.395617,-0.000325707,0.202518,3.09407,-0.360324,-0.0351511,-0.00183129,0.00157592,-0.0404728,-0.398686,-0.567023,-0.289413,0.399416,-0.000135542,0.20657,2.94625,-0.460138,-0.000164693,0,0,0,0,0,0,0.0267349,0.883714,0.960002,3.09399,-1.65978,0.00468289,2.86102,-5.70746,-13.2753,-4.15096,-8.15972,0.473951,0,0,0,0,0,0
0.187,0.395616,-0.000323926,0.202477,3.09364,-0.360917,-0.0354522,-0.00176881,0.00158878,-0.0404853,-0.400151,-0.568692,-0.290143,0.399427,-0.000135494,0.20655,2.9452,-0.461091,-0.000164634,0,0,0,0,0,0,0.0269773,0.884419,0.959105,3.09358,-1.6606,0.00473029,2.86547,-5.68837,-13.3148,-4.16306,-8.19142,0.475989,0,0,0,0,0,0
0.188,0.395615,-0.000322135,0.202436,3.09322,-0.361512,-0.0357538,-0.00170653,0.00160151,-0.0404977,-0.401611,-0.570355,-0.290865,0.399438,-0.000135446,0.20653,2.94415,-0.462044,-0.000164576,0,0,0,0,0,0,0.0272204,0.885127,0.958204,3.09316,-1.66141,0.00477789,2.86986,-5.66922,-13.3543,-4.17509,-8.22306,0.47802,0,0,0,0,0,0
0.189,0.395615,-0.000320333,0.202396,3.0928,-0.362109,-0.036056,-0.0016444,0.00161412,-0.0405098,-0.403064,-0.572012,-0.291577,0.399449,-0.000135398,0.20651,2.94311,-0.462996,-0.000164517,0,0,0,0,0,0,0.0274641,0.885837,0.957299,3.09274,-1.66223,0.0048257,2.8742,-5.65002,-13.3937,-4.18705,-8.25467,0.480044,0,0,0,0,0,0
0.19,0.395614,-0.00031852,0.202355,3.09237,-0.362707,-0.0363588,-0.00158238,0.00162659,-0.0405216,-0.404512,-0.573662,-0.292281,0.399459,-0.000135349,0.206489,2.94206,-0.463949,-0.000164459,0,0,0,0,0,0,0.0277085,0.88655,0.95639,3.09232,-1.66306,0.00487371,2.87848,-5.63072,-13.4331,-4.19895,-8.28622,0.482062,0,0,0,0,0,0
0.191,0.395613,-0.000316697,0.202314,3.09194,-0.363307,-0.0366621,-0.00152044,0.00163893,-0.0405331,-0.405954,-0.575306,-0.292975,0.39947,-0.000135301,0.206469,2.94101,-0.464902,-0.0001644,0,0,0,0,0,0,0.0279535,0.887266,0.955477,3.09191,-1.66388,0.00492192,2.8827,-5.61132,-13.4725,-4.21078,-8.31773,0.484074,0,0,0,0,0,0
0.192,0.395613,-0.000314864,0.202274,3.09151,-0.363908,-0.036966,-0.00145856,0.00165114,-0.0405441,-0.40739,-0.576942,-0.293661,0.399481,-0.000135253,0.206449,2.93997,-0.465855,-0.000164342,0,0,0,0,0,0,0.0281991,0.887984,0.954561,3.09148,-1.66471,0.00497033,2.88687,-5.59181,-13.5118,-4.22255,-8.3492,0.486079,0,0,0,0,0,0
0.193,0.395612,-0.000313021,0.202233,3.09108,-0.364511,-0.0372704,-0.00139671,0.0016632,-0.0405548,-0.40882,-0.578571,-0.294337,0.399492,-0.000135205,0.206429,2.93892,-0.466808,-0.000164283,0,0,0,0,0,0,0.0284454,0.888705,0.95364,3.09106,-1.66555,0.00501894,2.89098,-5.57217,-13.5511,-4.23425,-8.38062,0.488077,0,0,0,0,0,0
0.194,0.395612,-0.000311168,0.202192,3.09065,-0.365116,-0.0375754,-0.00133487,0.00167513,-0.040565,-0.410245,-0.580193,-0.295004,0.399503,-0.000135157,0.206409,2.93787,-0.467761,-0.000164224,0,0,0,0,0,0,0.0286923,0.889429,0.952715,3.09064,-1.66638,0.00506775,2.89504,-5.55239,-13.5903,-4.24589,-8.412,0.490069,0,0,0,0,0,0
0.195,0.395612,-0.000309305,0.202151,3.09022,-0.365722,-0.0378809,-0.00127302,0.00168691,-0.0405748,-0.411664,-0.581807,-0.295663,0.399514,-0.000135109,0.206389,2.93683,-0.468714,-0.000164166,0,0,0,0,0,0,0.0289398,0.890155,0.951787,3.09022,-1.66722,0.00511676,2.89905,-5.53247,-13.6295,-4.25747,-8.44334,0.492055,0,0,0,0,0,0
0.196,0.395611,-0.000307433,0.202111,3.08978,-0.366329,-0.0381869,-0.00121117,0.00169855,-0.0405841,-0.413078,-0.583414,-0.296312,0.399525,-0.00013506,0.206369,2.93578,-0.469667,-0.000164107,0,0,0,0,0,0,0.029188,0.890883,0.950855,3.08979,-1.66806,0.00516597,2.903,-5.51239,-13.6686,-4.26898,-8.47464,0.494033,0,0,0,0,0,0
0.197,0.395611,-0.000305552,0.20207,3.08935,-0.366938,-0.0384934,-0.00114929,0.00171005,-0.040593,-0.414486,-0.585014,-0.296952,0.399535,-0.000135012,0.206349,2.93473,-0.47062,-0.000164049,0,0,0,0,0,0,0.0294367,0.891615,0.949918,3.08936,-1.66891,0.00521537,2.90691,-5.49217,-13.7077,-4.28043,-8.50591,0.496006,0,0,0,0,0,0
0.198,0.395611,-0.000303661,0.202029,3.08891,-0.367548,-0.0388004,-0.00108739,0.00172139,-0.0406013,-0.415888,-0.586606,-0.297584,0.399546,-0.000134964,0.206329,2.93368,-0.471573,-0.00016399,0,0,0,0,0,0,0.0296861,0.892349,0.948978,3.08894,-1.66976,0.00526497,2.91076,-5.4718,-13.7467,-4.29181,-8.53713,0.497971,0,0,0,0,0,0
0.199,0.395611,-0.000301761,0.201989,3.08847,-0.36816,-0.0391079,-0.00102547,0.00173259,-0.0406093,-0.417285,-0.588191,-0.298206,0.399557,-0.000134916,0.206308,2.93264,-0.472525,-0.000163932,0,0,0,0,0,0,0.029936,0.893086,0.948034,3.08851,-1.67061,0.00531477,2.91456,-5.45128,-13.7856,-4.30314,-8.56832,0.49993,0,0,0,0,0,0
0.2,0.395611,-0.000299853,0.201948,3.08803,-0.368773,-0.0394158,-0.000963532,0.00174363,-0.0406168,-0.418676,-0.589769,-0.298819,0.399568,-0.000134868,0.206288,2.93159,-0.473478,-0.000163873,0,0,0,0,0,0,0.0301866,0.893825,0.947086,3.08808,-1.67146,0.00536476,2.91831,-5.43061,-13.8246,-4.3144,-8.59947,0.501882,0,0,0,0,0,0
0.201,0.395611,-0.000297936,0.201907,3.08759,-0.369388,-0.0397243,-0.000901586,0.00175453,-0.0406239,-0.420062,-0.59134,-0.299424,0.399579,-0.00013482,0.206268,2.93054,-0.474431,-0.000163815,0,0,0,0,0,0,0.0304377,0.894567,0.946134,3.08765,-1.67232,0.00541495,2.922,-5.4098,-13.8634,-4.3256,-8.63059,0.503828,0,0,0,0,0,0
0.202,0.395611,-0.000296011,0.201866,3.08715,-0.370004,-0.0400332,-0.000839641,0.00176526,-0.0406306,-0.421443,-0.592904,-0.300019,0.39959,-0.000134771,0.206248,2.9295,-0.475384,-0.000163756,0,0,0,0,0,0,0.0306894,0.895311,0.945178,3.08722,-1.67318,0.00546533,2.92565,-5.38885,-13.9023,-4.33673,-8.66168,0.505767,0,0,0,0,0,0
0.203,0.395611,-0.000294077,0.201826,3.08671,-0.370622,-0.0403425,-0.00077771,0.00177585,-0.040637,-0.422818,-0.59446,-0.300605,0.399601,-0.000134723,0.206228,2.92845,-0.476337,-0.000163698,0,0,0,0,0,0,0.0309417,0.896059,0.944218,3.08678,-1.67404,0.0055159,2.92925,-5.36778,-13.9411,-4.34781,-8.69274,0.507699,0,0,0,0,0,0
0.204,0.395611,-0.000292135,0.201785,3.08626,-0.371241,-0.0406523,-0.000715808,0.00178628,-0.040643,-0.424188,-0.59601,-0.301183,0.399612,-0.000134675,0.206208,2.9274,-0.47729,-0.000163639,0,0,0,0,0,0,0.0311946,0.896808,0.943254,3.08635,-1.67491,0.00556667,2.9328,-5.34659,-13.9798,-4.35882,-8.72377,0.509624,0,0,0,0,0,0
0.205,0.395612,-0.000290185,0.201744,3.08582,-0.371862,-0.0409625,-0.000653951,0.00179655,-0.0406488,-0.425552,-0.597553,-0.301751,0.399622,-0.000134627,0.206188,2.92636,-0.478243,-0.000163581,0,0,0,0,0,0,0.031448,0.897561,0.942286,3.08591,-1.67578,0.00561762,2.9363,-5.32529,-14.0186,-4.36978,-8.75477,0.511543,0,0,0,0,0,0
0.206,0.395612,-0.000288228,0.201703,3.08537,-0.372484,-0.0412732,-0.000592157,0.00180667,-0.0406543,-0.426911,-0.59909,-0.302311,0.399633,-0.000134579,0.206168,2.92531,-0.479196,-0.000163522,0,0,0,0,0,0,0.031702,0.898316,0.941315,3.08548,-1.67666,0.00566877,2.93975,-5.30389,-14.0573,-4.38067,-8.78574,0.513455,0,0,0,0,0,0
0.207,0.395612,-0.000286262,0.201663,3.08492,-0.373107,-0.0415843,-0.000530444,0.00181663,-0.0406596,-0.428265,-0.60062,-0.302862,0.399644,-0.000134531,0.206148,2.92426,-0.480149,-0.000163464,0,0,0,0,0,0,0.0319566,0.899074,0.940339,3.08504,-1.67753,0.00572011,2.94315,-5.2824,-14.096,-4.3915,-8.81668,0.51536,0,0,0,0,0,0
0.208,0.395613,-0.00028429,0.201622,3.08447,-0.373732,-0.0418958,-0.000468832,0.00182643,-0.0406647,-0.429614,-0.602144,-0.303404,0.399655,-0.000134482,0.206128,2.92321,-0.481102,-0.000163405,0,0,0,0,0,0,0.0322117,0.899834,0.93936,3.0846,-1.67841,0.00577164,2.94651,-5.26084,-14.1347,-4.40228,-8.8476,0.517258,0,0,0,0,0,0
0.209,0.395613,-0.00028231,0.201581,3.08402,-0.374358,-0.0422076,-0.00040734,0.00183608,-0.0406697,-0.430958,-0.603662,-0.303937,0.399666,-0.000134434,0.206107,2.92217,-0.482054,-0.000163347,0,0,0,0,0,0,0.0324673,0.900597,0.938376,3.08416,-1.67929,0.00582336,2.94982,-5.23921,-14.1734,-4.41299,-8.8785,0.51915,0,0,0,0,0,0
0.21,0.395614,-0.000280323,0.20154,3.08357,-0.374986,-0.0425199,-0.000345989,0.00184557,-0.0406746,-0.432296,-0.605174,-0.304461,0.399677,-0.000134386,0.206087,2.92112,-0.483007,-0.000163288,0,0,0,0,0,0,0.0327235,0.901363,0.937389,3.08372,-1.68018,0.00587527,2.95307,-5.21752,-14.2121,-4.42365,-8.90937,0.521034,0,0,0,0,0,0
0.211,0.395614,-0.000278329,0.2015,3.08312,-0.375615,-0.0428326,-0.000284798,0.0018549,-0.0406795,-0.433629,-0.606681,-0.304976,0.399688,-0.000134338,0.206067,2.92007,-0.48396,-0.00016323,0,0,0,0,0,0,0.0329802,0.902131,0.936398,3.08328,-1.68107,0.00592736,2.95628,-5.19579,-14.2507,-4.43425,-8.94022,0.522912,0,0,0,0,0,0
0.212,0.395615,-0.000276328,0.201459,3.08266,-0.376246,-0.0431456,-0.000223786,0.00186408,-0.0406843,-0.434957,-0.608181,-0.305483,0.399698,-0.00013429,0.206047,2.91903,-0.484913,-0.000163171,0,0,0,0,0,0,0.0332374,0.902902,0.935402,3.08284,-1.68196,0.00597964,2.95944,-5.17402,-14.2894,-4.44479,-8.97105,0.524783,0,0,0,0,0,0
0.213,0.395616,-0.00027432,0.201418,3.0822,-0.376878,-0.043459,-0.000162971,0.00187311,-0.0406892,-0.436281,-0.609677,-0.305981,0.399709,-0.000134242,0.206027,2.91798,-0.485866,-0.000163112,0,0,0,0,0,0,0.0334952,0.903675,0.934403,3.08239,-1.68285,0.00603211,2.96256,-5.15223,-14.3281,-4.45527,-9.00185,0.526647,0,0,0,0,0,0
0.214,0.395617,-0.000272306,0.201377,3.08175,-0.377511,-0.0437728,-0.000102373,0.00188198,-0.0406941,-0.437599,-0.611167,-0.30647,0.39972,-0.000134193,0.206007,2.91693,-0.486819,-0.000163054,0,0,0,0,0,0,0.0337535,0.904451,0.9334,3.08195,-1.68375,0.00608477,2.96562,-5.13043,-14.3669,-4.46569,-9.03264,0.528504,0,0,0,0,0,0
0.215,0.395618,-0.000270285,0.201337,3.08129,-0.378146,-0.0440869,-4.20055e-05,0.0018907,-0.0406991,-0.438912,-0.612652,-0.30695,0.399731,-0.000134145,0.205987,2.91589,-0.487772,-0.000162995,0,0,0,0,0,0,0.0340123,0.90523,0.932393,3.0815,-1.68465,0.00613761,2.96864,-5.10862,-14.4056,-4.47606,-9.06341,0.530354,0,0,0,0,0,0
0.216,0.395618,-0.000268258,0.201296,3.08083,-0.378782,-0.0444014,1.81142e-05,0.00189926,-0.0407042,-0.44022,-0.614132,-0.307421,0.399742,-0.000134097,0.205967,2.91484,-0.488725,-0.000162937,0,0,0,0,0,0,0.0342716,0.906011,0.931382,3.08105,-1.68556,0.00619063,2.97161,-5.08681,-14.4444,-4.48637,-9.09416,0.532197,0,0,0,0,0,0
0.217,0.395619,-0.000266225,0.201255,3.08037,-0.37942,-0.0447161,7.79725e-05,0.00190768,-0.0407094,-0.441523,-0.615607,-0.307884,0.399753,-0.000134049,0.205947,2.91379,-0.489678,-0.000162878,0,0,0,0,0,0,0.0345314,0.906795,0.930367,3.08061,-1.68647,0.00624384,2.97454,-5.06501,-14.4832,-4.49663,-9.12489,0.534033,0,0,0,0,0,0
0.218,0.39562,-0.000264185,0.201214,3.07991,-0.380059,-0.0450313,0.000137557,0.00191594,-0.0407148,-0.442821,-0.617077,-0.308339,0.399764,-0.000134001,0.205927,2.91274,-0.49063,-0.00016282,0,0,0,0,0,0,0.0347917,0.907582,0.929348,3.08016,-1.68738,0.00629723,2.97741,-5.04323,-14.5221,-4.50683,-9.1556,0.535862,0,0,0,0,0,0
0.219,0.395622,-0.00026214,0.201173,3.07944,-0.380699,-0.0453467,0.000196856,0.00192406,-0.0407204,-0.444115,-0.618543,-0.308784,0.399775,-0.000133953,0.205906,2.9117,-0.491583,-0.000162761,0,0,0,0,0,0,0.0350525,0.908372,0.928326,3.07971,-1.68829,0.0063508,2.98024,-5.02147,-14.561,-4.51697,-9.18629,0.537684,0,0,0,0,0,0
0.22,0.395623,-0.000260089,0.201133,3.07898,-0.381341,-0.0456624,0.000255861,0.00193203,-0.0407261,-0.445404,-0.620004,-0.309221,0.399785,-0.000133904,0.205886,2.91065,-0.492536,-0.000162703,0,0,0,0,0,0,0.0353138,0.909164,0.927299,3.07926,-1.6892,0.00640456,2.98302,-4.99974,-14.5999,-4.52706,-9.21697,0.539498,0,0,0,0,0,0
0.221,0.395624,-0.000258033,0.201092,3.07851,-0.381984,-0.0459785,0.000314564,0.00193985,-0.0407321,-0.446687,-0.62146,-0.309649,0.399796,-0.000133856,0.205866,2.9096,-0.493489,-0.000162644,0,0,0,0,0,0,0.0355756,0.909958,0.926268,3.0788,-1.69012,0.00645849,2.98575,-4.97804,-14.6389,-4.53709,-9.24763,0.541306,0,0,0,0,0,0
0.222,0.395625,-0.000255971,0.201051,3.07805,-0.382629,-0.0462948,0.000372958,0.00194753,-0.0407383,-0.447966,-0.622912,-0.310069,0.399807,-0.000133808,0.205846,2.90856,-0.494442,-0.000162586,0,0,0,0,0,0,0.0358378,0.910755,0.925233,3.07835,-1.69105,0.00651261,2.98843,-4.95638,-14.6779,-4.54707,-9.27828,0.543107,0,0,0,0,0,0
0.223,0.395626,-0.000253903,0.20101,3.07758,-0.383275,-0.0466114,0.000431039,0.00195507,-0.0407448,-0.449241,-0.62436,-0.31048,0.399818,-0.00013376,0.205826,2.90751,-0.495395,-0.000162527,0,0,0,0,0,0,0.0361006,0.911555,0.924195,3.0779,-1.69197,0.0065669,2.99107,-4.93475,-14.717,-4.55699,-9.30891,0.5449,0,0,0,0,0,0
0.224,0.395628,-0.00025183,0.200969,3.07711,-0.383922,-0.0469283,0.000488803,0.00196247,-0.0407515,-0.45051,-0.625804,-0.310883,0.399829,-0.000133712,0.205806,2.90646,-0.496348,-0.000162469,0,0,0,0,0,0,0.0363638,0.912358,0.923152,3.07744,-1.6929,0.00662138,2.99365,-4.91316,-14.7561,-4.56686,-9.33952,0.546686,0,0,0,0,0,0
0.225,0.395629,-0.000249752,0.200928,3.07664,-0.384571,-0.0472455,0.00054625,0.00196973,-0.0407584,-0.451775,-0.627243,-0.311277,0.39984,-0.000133664,0.205786,2.90542,-0.497301,-0.00016241,0,0,0,0,0,0,0.0366274,0.913163,0.922106,3.07698,-1.69383,0.00667603,2.99619,-4.89162,-14.7953,-4.57668,-9.37012,0.548465,0,0,0,0,0,0
0.226,0.395631,-0.000247669,0.200888,3.07616,-0.385221,-0.0475629,0.000603378,0.00197685,-0.0407656,-0.453035,-0.628677,-0.311663,0.399851,-0.000133615,0.205766,2.90437,-0.498254,-0.000162352,0,0,0,0,0,0,0.0368915,0.913971,0.921055,3.07653,-1.69477,0.00673086,2.99868,-4.87011,-14.8345,-4.58644,-9.40071,0.550237,0,0,0,0,0,0
0.227,0.395632,-0.000245581,0.200847,3.07569,-0.385872,-0.0478805,0.000660189,0.00198383,-0.0407731,-0.454291,-0.630108,-0.31204,0.399862,-0.000133567,0.205746,2.90332,-0.499207,-0.000162293,0,0,0,0,0,0,0.0371561,0.914782,0.920001,3.07607,-1.69571,0.00678586,3.00113,-4.84864,-14.8738,-4.59615,-9.43128,0.552002,0,0,0,0,0,0
0.228,0.395634,-0.000243488,0.200806,3.07522,-0.386525,-0.0481984,0.000716686,0.00199068,-0.0407808,-0.455542,-0.631534,-0.312408,0.399872,-0.000133519,0.205726,2.90227,-0.500159,-0.000162235,0,0,0,0,0,0,0.0374211,0.915595,0.918942,3.07561,-1.69665,0.00684104,3.00352,-4.82721,-14.9131,-4.60581,-9.46184,0.553759,0,0,0,0,0,0
0.229,0.395635,-0.000241391,0.200765,3.07474,-0.387179,-0.0485166,0.000772873,0.0019974,-0.0407887,-0.456789,-0.632956,-0.312768,0.399883,-0.000133471,0.205705,2.90123,-0.501112,-0.000162176,0,0,0,0,0,0,0.0376866,0.916411,0.91788,3.07515,-1.69759,0.0068964,3.00587,-4.80582,-14.9526,-4.61542,-9.49238,0.555509,0,0,0,0,0,0
0.23,0.395637,-0.000239289,0.200724,3.07427,-0.387835,-0.0488349,0.000828753,0.00200399,-0.0407969,-0.458031,-0.634374,-0.31312,0.399894,-0.000133423,0.205685,2.90018,-0.502065,-0.000162118,0,0,0,0,0,0,0.0379525,0.91723,0.916813,3.07469,-1.69854,0.00695193,3.00817,-4.78446,-14.992,-4.62498,-9.52291,0.557252,0,0,0,0,0,0
0.231,0.395639,-0.000237182,0.200683,3.07379,-0.388492,-0.0491535,0.000884333,0.00201045,-0.0408053,-0.459268,-0.635788,-0.313463,0.399905,-0.000133375,0.205665,2.89913,-0.503018,-0.000162059,0,0,0,0,0,0,0.0382188,0.918051,0.915743,3.07423,-1.69949,0.00700764,3.01042,-4.76313,-15.0315,-4.63448,-9.55343,0.558988,0,0,0,0,0,0
0.232,0.39564,-0.00023507,0.200642,3.07331,-0.38915,-0.0494723,0.00093962,0.00201679,-0.0408139,-0.460501,-0.637197,-0.313797,0.399916,-0.000133326,0.205645,2.89809,-0.503971,-0.000162001,0,0,0,0,0,0,0.0384856,0.918875,0.914669,3.07377,-1.70044,0.00706351,3.01262,-4.74182,-15.0711,-4.64394,-9.58394,0.560716,0,0,0,0,0,0
0.233,0.395642,-0.000232955,0.200601,3.07283,-0.389809,-0.0497913,0.000994621,0.00202299,-0.0408227,-0.46173,-0.638602,-0.314124,0.399927,-0.000133278,0.205625,2.89704,-0.504924,-0.000161942,0,0,0,0,0,0,0.0387527,0.919702,0.91359,3.0733,-1.7014,0.00711956,3.01478,-4.72054,-15.1108,-4.65334,-9.61443,0.562437,0,0,0,0,0,0
0.234,0.395644,-0.000230835,0.20056,3.07235,-0.39047,-0.0501105,0.00104934,0.00202908,-0.0408317,-0.462954,-0.640002,-0.314442,0.399938,-0.00013323,0.205605,2.89599,-0.505877,-0.000161883,0,0,0,0,0,0,0.0390203,0.920531,0.912508,3.07284,-1.70236,0.00717579,3.01689,-4.69927,-15.1505,-4.6627,-9.64491,0.56415,0,0,0,0,0,0
0.235,0.395646,-0.000228711,0.200519,3.07187,-0.391133,-0.0504298,0.0011038,0.00203504,-0.0408409,-0.464174,-0.641398,-0.314751,0.399948,-0.000133182,0.205585,2.89495,-0.50683,-0.000161825,0,0,0,0,0,0,0.0392884,0.921363,0.911422,3.07237,-1.70332,0.00723218,3.01895,-4.67802,-15.1902,-4.672,-9.67538,0.565856,0,0,0,0,0,0
0.236,0.395648,-0.000226583,0.200478,3.07138,-0.391796,-0.0507494,0.00115799,0.00204088,-0.0408502,-0.46539,-0.64279,-0.315052,0.399959,-0.000133134,0.205565,2.8939,-0.507783,-0.000161766,0,0,0,0,0,0,0.0395568,0.922197,0.910331,3.0719,-1.70428,0.00728874,3.02096,-4.65678,-15.2301,-4.68126,-9.70584,0.567554,0,0,0,0,0,0
0.237,0.39565,-0.000224451,0.200437,3.0709,-0.392461,-0.0510691,0.00121193,0.00204661,-0.0408598,-0.466602,-0.644178,-0.315345,0.39997,-0.000133086,0.205545,2.89285,-0.508736,-0.000161708,0,0,0,0,0,0,0.0398256,0.923035,0.909237,3.07144,-1.70525,0.00734547,3.02292,-4.63554,-15.2699,-4.69046,-9.73629,0.569245,0,0,0,0,0,0
0.238,0.395652,-0.000222315,0.200396,3.07041,-0.393127,-0.051389,0.00126562,0.00205222,-0.0408694,-0.467809,-0.64556,-0.315629,0.399981,-0.000133037,0.205524,2.8918,-0.509688,-0.000161649,0,0,0,0,0,0,0.0400948,0.923875,0.908139,3.07097,-1.70622,0.00740237,3.02484,-4.6143,-15.3099,-4.69962,-9.76673,0.570929,0,0,0,0,0,0
0.239,0.395654,-0.000220176,0.200355,3.06992,-0.393795,-0.051709,0.00131909,0.00205771,-0.0408792,-0.469012,-0.646939,-0.315905,0.399992,-0.000132989,0.205504,2.89076,-0.510641,-0.000161591,0,0,0,0,0,0,0.0403644,0.924717,0.907036,3.0705,-1.7072,0.00745944,3.0267,-4.59306,-15.3499,-4.70874,-9.79716,0.572605,0,0,0,0,0,0
0.24,0.395656,-0.000218032,0.200314,3.06944,-0.394463,-0.0520292,0.00137233,0.00206309,-0.0408891,-0.470211,-0.648312,-0.316173,0.400003,-0.000132941,0.205484,2.88971,-0.511594,-0.000161532,0,0,0,0,0,0,0.0406345,0.925563,0.90593,3.07003,-1.70817,0.00751667,3.02852,-4.5718,-15.3899,-4.7178,-9.82758,0.574274,0,0,0,0,0,0
0.241,0.395659,-0.000215885,0.200273,3.06895,-0.395134,-0.0523495,0.00142535,0.00206835,-0.0408992,-0.471405,-0.649682,-0.316432,0.400014,-0.000132893,0.205464,2.88866,-0.512547,-0.000161474,0,0,0,0,0,0,0.0409048,0.926411,0.904819,3.06956,-1.70915,0.00757407,3.0303,-4.55053,-15.4301,-4.72682,-9.85799,0.575934,0,0,0,0,0,0
0.242,0.395661,-0.000213735,0.200232,3.06846,-0.395805,-0.0526699,0.00147817,0.0020735,-0.0409093,-0.472596,-0.651046,-0.316683,0.400025,-0.000132845,0.205444,2.88762,-0.5135,-0.000161415,0,0,0,0,0,0,0.0411756,0.927262,0.903705,3.06909,-1.71014,0.00763164,3.03202,-4.52924,-15.4702,-4.73579,-9.8884,0.577588,0,0,0,0,0,0
0.243,0.395663,-0.000211581,0.200191,3.06797,-0.396478,-0.0529904,0.00153079,0.00207855,-0.0409195,-0.473783,-0.652406,-0.316926,0.400035,-0.000132797,0.205424,2.88657,-0.514453,-0.000161357,0,0,0,0,0,0,0.0414468,0.928115,0.902586,3.06861,-1.71112,0.00768937,3.0337,-4.50793,-15.5105,-4.74471,-9.91879,0.579234,0,0,0,0,0,0
0.244,0.395666,-0.000209424,0.20015,3.06747,-0.397152,-0.0533111,0.00158322,0.00208348,-0.0409298,-0.474965,-0.653761,-0.31716,0.400046,-0.000132748,0.205404,2.88552,-0.515406,-0.000161298,0,0,0,0,0,0,0.0417183,0.928971,0.901464,3.06814,-1.71211,0.00774727,3.03533,-4.48658,-15.5507,-4.75359,-9.94918,0.580872,0,0,0,0,0,0
0.245,0.395668,-0.000207264,0.200109,3.06698,-0.397827,-0.0536318,0.00163546,0.00208831,-0.0409401,-0.476144,-0.655111,-0.317386,0.400057,-0.0001327,0.205384,2.88448,-0.516359,-0.00016124,0,0,0,0,0,0,0.0419902,0.92983,0.900337,3.06766,-1.71311,0.00780532,3.03691,-4.46521,-15.5911,-4.76242,-9.97957,0.582502,0,0,0,0,0,0
0.246,0.39567,-0.0002051,0.200068,3.06648,-0.398503,-0.0539527,0.00168753,0.00209303,-0.0409505,-0.477318,-0.656457,-0.317604,0.400068,-0.000132652,0.205364,2.88343,-0.517312,-0.000161181,0,0,0,0,0,0,0.0422624,0.930692,0.899206,3.06719,-1.7141,0.00786354,3.03844,-4.44379,-15.6315,-4.77121,-10.0099,0.584125,0,0,0,0,0,0
0.247,0.395673,-0.000202934,0.200027,3.06599,-0.399181,-0.0542736,0.00173944,0.00209765,-0.040961,-0.478489,-0.657798,-0.317813,0.400079,-0.000132604,0.205344,2.88238,-0.518265,-0.000161123,0,0,0,0,0,0,0.042535,0.931556,0.898071,3.06671,-1.7151,0.00792193,3.03993,-4.42234,-15.672,-4.77995,-10.0403,0.58574,0,0,0,0,0,0
0.248,0.395676,-0.000200764,0.199985,3.06549,-0.39986,-0.0545946,0.00179118,0.00210217,-0.0409715,-0.479656,-0.659134,-0.318014,0.40009,-0.000132556,0.205323,2.88133,-0.519217,-0.000161064,0,0,0,0,0,0,0.042808,0.932423,0.896933,3.06623,-1.7161,0.00798047,3.04137,-4.40085,-15.7125,-4.78865,-10.0707,0.587348,0,0,0,0,0,0
0.249,0.395678,-0.000198592,0.199944,3.06499,-0.400541,-0.0549157,0.00184276,0.00210658,-0.0409821,-0.480819,-0.660465,-0.318207,0.400101,-0.000132508,0.205303,2.88029,-0.52017,-0.000161006,0,0,0,0,0,0,0.0430812,0.933293,0.89579,3.06576,-1.71711,0.00803917,3.04276,-4.3793,-15.7531,-4.79731,-10.1011,0.588947,0,0,0,0,0,0
0.25,0.395681,-0.000196417,0.199903,3.06449,-0.401222,-0.0552369,0.0018942,0.00211089,-0.0409926,-0.481978,-0.661792,-0.318392,0.400111,-0.000132459,0.205283,2.87924,-0.521123,-0.000160947,0,0,0,0,0,0,0.0433549,0.934165,0.894643,3.06528,-1.71811,0.00809804,3.0441,-4.35771,-15.7937,-4.80592,-10.1314,0.590539,0,0,0,0,0,0
0.251,0.395683,-0.000194239,0.199862,3.06399,-0.401905,-0.0555581,0.00194549,0.0021151,-0.0410033,-0.483133,-0.663113,-0.318569,0.400122,-0.000132411,0.205263,2.87819,-0.522076,-0.000160889,0,0,0,0,0,0,0.0436289,0.93504,0.893492,3.0648,-1.71912,0.00815706,3.0454,-4.33607,-15.8344,-4.81449,-10.1618,0.592123,0,0,0,0,0,0
0.252,0.395686,-0.000192058,0.199821,3.06349,-0.402589,-0.0558793,0.00199663,0.00211921,-0.0410139,-0.484285,-0.66443,-0.318737,0.400133,-0.000132363,0.205243,2.87715,-0.523029,-0.00016083,0,0,0,0,0,0,0.0439032,0.935918,0.892336,3.06432,-1.72014,0.00821624,3.04665,-4.31438,-15.8752,-4.82302,-10.1921,0.5937,0,0,0,0,0,0
0.253,0.395689,-0.000189875,0.19978,3.06299,-0.403274,-0.0562006,0.00204764,0.00212322,-0.0410246,-0.485433,-0.665742,-0.318897,0.400144,-0.000132315,0.205223,2.8761,-0.523982,-0.000160771,0,0,0,0,0,0,0.0441778,0.936798,0.891177,3.06383,-1.72116,0.00827557,3.04786,-4.29263,-15.9161,-4.8315,-10.2225,0.595268,0,0,0,0,0,0
0.254,0.395692,-0.00018769,0.199738,3.06249,-0.403961,-0.0565219,0.00209851,0.00212713,-0.0410353,-0.486577,-0.667049,-0.319049,0.400155,-0.000132267,0.205203,2.87505,-0.524935,-0.000160713,0,0,0,0,0,0,0.0444527,0.937682,0.890014,3.06335,-1.72218,0.00833506,3.04901,-4.27082,-15.957,-4.83995,-10.2529,0.596829,0,0,0,0,0,0
0.255,0.395695,-0.000185502,0.199697,3.06198,-0.404649,-0.0568433,0.00214924,0.00213094,-0.041046,-0.487718,-0.668351,-0.319192,0.400166,-0.000132219,0.205183,2.87401,-0.525888,-0.000160654,0,0,0,0,0,0,0.044728,0.938568,0.888846,3.06287,-1.7232,0.00839471,3.05013,-4.24896,-15.9979,-4.84835,-10.2832,0.598381,0,0,0,0,0,0
0.256,0.395698,-0.000183312,0.199656,3.06148,-0.405338,-0.0571646,0.00219984,0.00213466,-0.0410567,-0.488855,-0.669648,-0.319328,0.400177,-0.00013217,0.205163,2.87296,-0.526841,-0.000160596,0,0,0,0,0,0,0.0450036,0.939456,0.887674,3.06238,-1.72422,0.00845452,3.05119,-4.22704,-16.039,-4.85671,-10.3136,0.599926,0,0,0,0,0,0
0.257,0.395701,-0.00018112,0.199615,3.06097,-0.406028,-0.057486,0.00225032,0.00213829,-0.0410675,-0.489988,-0.670941,-0.319455,0.400188,-0.000132122,0.205143,2.87191,-0.527794,-0.000160537,0,0,0,0,0,0,0.0452795,0.940348,0.886499,3.0619,-1.72525,0.00851447,3.05221,-4.20506,-16.0801,-4.86503,-10.344,0.601463,0,0,0,0,0,0
0.258,0.395704,-0.000178925,0.199574,3.06046,-0.406719,-0.0578073,0.00230066,0.00214181,-0.0410784,-0.491118,-0.672229,-0.319574,0.400198,-0.000132074,0.205122,2.87086,-0.528746,-0.000160479,0,0,0,0,0,0,0.0455557,0.941242,0.885319,3.06141,-1.72628,0.00857458,3.05318,-4.18302,-16.1213,-4.87331,-10.3743,0.602992,0,0,0,0,0,0
0.259,0.395707,-0.000176729,0.199532,3.05995,-0.407412,-0.0581286,0.00235087,0.00214525,-0.0410892,-0.492245,-0.673512,-0.319685,0.400209,-0.000132026,0.205102,2.86982,-0.529699,-0.00016042,0,0,0,0,0,0,0.0458322,0.942139,0.884135,3.06093,-1.72732,0.00863484,3.0541,-4.16092,-16.1625,-4.88155,-10.4047,0.604512,0,0,0,0,0,0
0.26,0.39571,-0.00017453,0.199491,3.05944,-0.408106,-0.05845,0.00240096,0.00214859,-0.0411001,-0.493368,-0.67479,-0.319788,0.40022,-0.000131978,0.205082,2.86877,-0.530652,-0.000160362,0,0,0,0,0,0,0.046109,0.943038,0.882946,3.06044,-1.72836,0.00869526,3.05498,-4.13876,-16.2039,-4.88975,-10.4351,0.606025,0,0,0,0,0,0
0.261,0.395713,-0.00017233,0.19945,3.05893,-0.408801,-0.0587713,0.00245092,0.00215184,-0.041111,-0.494487,-0.676064,-0.319883,0.400231,-0.00013193,0.205062,2.86772,-0.531605,-0.000160303,0,0,0,0,0,0,0.0463861,0.943941,0.881754,3.05995,-1.7294,0.00875582,3.05581,-4.11654,-16.2453,-4.89791,-10.4655,0.60753,0,0,0,0,0,0
0.262,0.395717,-0.000170128,0.199408,3.05842,-0.409497,-0.0590925,0.00250075,0.00215499,-0.041122,-0.495603,-0.677333,-0.319969,0.400242,-0.000131881,0.205042,2.86668,-0.532558,-0.000160245,0,0,0,0,0,0,0.0466634,0.944846,0.880557,3.05946,-1.73044,0.00881653,3.0566,-4.09426,-16.2868,-4.90604,-10.4959,0.609026,0,0,0,0,0,0
0.263,0.39572,-0.000167924,0.199367,3.0579,-0.410195,-0.0594137,0.00255044,0.00215806,-0.0411331,-0.496716,-0.678597,-0.320048,0.400253,-0.000131833,0.205022,2.86563,-0.533511,-0.000160186,0,0,0,0,0,0,0.0469411,0.945754,0.879357,3.05897,-1.73149,0.0088774,3.05734,-4.07192,-16.3284,-4.91413,-10.5263,0.610515,0,0,0,0,0,0
0.264,0.395723,-0.000165719,0.199326,3.05739,-0.410893,-0.0597349,0.00260001,0.00216103,-0.0411442,-0.497826,-0.679856,-0.320118,0.400264,-0.000131785,0.205002,2.86458,-0.534464,-0.000160128,0,0,0,0,0,0,0.047219,0.946664,0.878152,3.05848,-1.73254,0.00893841,3.05804,-4.04952,-16.37,-4.92217,-10.5567,0.611995,0,0,0,0,0,0
0.265,0.395727,-0.000163512,0.199285,3.05687,-0.411593,-0.060056,0.00264945,0.00216392,-0.0411553,-0.498932,-0.681111,-0.32018,0.400275,-0.000131737,0.204982,2.86354,-0.535417,-0.000160069,0,0,0,0,0,0,0.0474972,0.947578,0.876942,3.05799,-1.73359,0.00899957,3.05869,-4.02706,-16.4117,-4.93019,-10.5871,0.613467,0,0,0,0,0,0
0.266,0.39573,-0.000161303,0.199243,3.05636,-0.412294,-0.0603771,0.00269876,0.00216671,-0.0411666,-0.500035,-0.682361,-0.320234,0.400285,-0.000131689,0.204962,2.86249,-0.53637,-0.000160011,0,0,0,0,0,0,0.0477757,0.948494,0.875729,3.0575,-1.73465,0.00906087,3.05929,-4.00454,-16.4536,-4.93816,-10.6175,0.614931,0,0,0,0,0,0
0.267,0.395733,-0.000159094,0.199202,3.05584,-0.412996,-0.060698,0.00274793,0.00216941,-0.0411779,-0.501135,-0.683607,-0.32028,0.400296,-0.000131641,0.204941,2.86144,-0.537322,-0.000159952,0,0,0,0,0,0,0.0480544,0.949413,0.874511,3.057,-1.73571,0.00912232,3.05985,-3.98196,-16.4955,-4.9461,-10.648,0.616387,0,0,0,0,0,0
0.268,0.395737,-0.000156883,0.199161,3.05532,-0.4137,-0.0610189,0.00279697,0.00217203,-0.0411893,-0.502232,-0.684848,-0.320318,0.400307,-0.000131592,0.204921,2.86039,-0.538275,-0.000159894,0,0,0,0,0,0,0.0483334,0.950335,0.87329,3.05651,-1.73677,0.00918392,3.06036,-3.95933,-16.5375,-4.954,-10.6784,0.617834,0,0,0,0,0,0
0.269,0.395741,-0.00015467,0.199119,3.0548,-0.414404,-0.0613397,0.00284587,0.00217456,-0.0412008,-0.503325,-0.686085,-0.320348,0.400318,-0.000131544,0.204901,2.85935,-0.539228,-0.000159835,0,0,0,0,0,0,0.0486126,0.951259,0.872064,3.05602,-1.73784,0.00924566,3.06083,-3.93663,-16.5796,-4.96187,-10.7089,0.619273,0,0,0,0,0,0
0.27,0.395744,-0.000152457,0.199078,3.05428,-0.41511,-0.0616604,0.00289464,0.002177,-0.0412124,-0.504416,-0.687317,-0.32037,0.400329,-0.000131496,0.204881,2.8583,-0.540181,-0.000159777,0,0,0,0,0,0,0.0488921,0.952186,0.870833,3.05552,-1.73891,0.00930754,3.06125,-3.91389,-16.6218,-4.96971,-10.7394,0.620704,0,0,0,0,0,0
0.271,0.395748,-0.000150242,0.199036,3.05376,-0.415817,-0.061981,0.00294328,0.00217935,-0.0412241,-0.505503,-0.688544,-0.320384,0.40034,-0.000131448,0.204861,2.85725,-0.541134,-0.000159718,0,0,0,0,0,0,0.0491719,0.953116,0.869599,3.05502,-1.73998,0.00936957,3.06163,-3.89108,-16.6641,-4.97751,-10.7699,0.622126,0,0,0,0,0,0
0.272,0.395752,-0.000148027,0.198995,3.05324,-0.416525,-0.0623015,0.00299177,0.00218162,-0.0412359,-0.506587,-0.689767,-0.320389,0.400351,-0.0001314,0.204841,2.85621,-0.542087,-0.000159659,0,0,0,0,0,0,0.0494518,0.954049,0.86836,3.05453,-1.74105,0.00943173,3.06196,-3.86822,-16.7065,-4.98527,-10.8004,0.62354,0,0,0,0,0,0
0.273,0.395755,-0.000145811,0.198954,3.05271,-0.417234,-0.0626218,0.00304013,0.0021838,-0.0412478,-0.507669,-0.690986,-0.320387,0.400361,-0.000131352,0.204821,2.85516,-0.54304,-0.000159601,0,0,0,0,0,0,0.049732,0.954985,0.867117,3.05403,-1.74213,0.00949404,3.06225,-3.8453,-16.749,-4.993,-10.8309,0.624945,0,0,0,0,0,0
0.274,0.395759,-0.000143594,0.198912,3.05219,-0.417944,-0.062942,0.00308835,0.0021859,-0.0412598,-0.508747,-0.6922,-0.320377,0.400372,-0.000131303,0.204801,2.85411,-0.543993,-0.000159542,0,0,0,0,0,0,0.0500125,0.955923,0.865869,3.05353,-1.74321,0.00955649,3.0625,-3.82232,-16.7917,-5.0007,-10.8615,0.626342,0,0,0,0,0,0
0.275,0.395763,-0.000141376,0.198871,3.05166,-0.418656,-0.0632621,0.00313643,0.00218791,-0.0412719,-0.509823,-0.69341,-0.320358,0.400383,-0.000131255,0.204781,2.85307,-0.544946,-0.000159484,0,0,0,0,0,0,0.0502931,0.956864,0.864618,3.05303,-1.74429,0.00961908,3.0627,-3.79928,-16.8344,-5.00837,-10.892,0.627731,0,0,0,0,0,0
0.276,0.395767,-0.000139157,0.198829,3.05114,-0.419368,-0.0635821,0.00318438,0.00218984,-0.0412841,-0.510896,-0.694616,-0.320332,0.400394,-0.000131207,0.204761,2.85202,-0.545899,-0.000159425,0,0,0,0,0,0,0.050574,0.957809,0.863362,3.05253,-1.74538,0.0096818,3.06285,-3.77619,-16.8772,-5.016,-10.9226,0.629111,0,0,0,0,0,0
0.277,0.395771,-0.000136938,0.198788,3.05061,-0.420082,-0.0639018,0.00323218,0.00219168,-0.0412965,-0.511965,-0.695817,-0.320297,0.400405,-0.000131159,0.20474,2.85097,-0.546851,-0.000159367,0,0,0,0,0,0,0.0508551,0.958755,0.862102,3.05203,-1.74647,0.00974466,3.06296,-3.75305,-16.9202,-5.0236,-10.9532,0.630482,0,0,0,0,0,0
0.278,0.395775,-0.000134718,0.198746,3.05008,-0.420797,-0.0642215,0.00327985,0.00219345,-0.041309,-0.513032,-0.697014,-0.320255,0.400416,-0.000131111,0.20472,2.84992,-0.547804,-0.000159308,0,0,0,0,0,0,0.0511365,0.959705,0.860837,3.05153,-1.74756,0.00980766,3.06303,-3.72984,-16.9632,-5.03117,-10.9838,0.631845,0,0,0,0,0,0
0.279,0.395779,-0.000132498,0.198705,3.04955,-0.421513,-0.0645409,0.00332738,0.00219513,-0.0413217,-0.514097,-0.698206,-0.320205,0.400427,-0.000131063,0.2047,2.84888,-0.548757,-0.00015925,0,0,0,0,0,0,0.051418,0.960658,0.859568,3.05103,-1.74866,0.0098708,3.06305,-3.70658,-17.0064,-5.03871,-11.0145,0.633199,0,0,0,0,0,0
0.28,0.395783,-0.000130277,0.198663,3.04902,-0.42223,-0.0648602,0.00337477,0.00219672,-0.0413345,-0.515158,-0.699395,-0.320146,0.400438,-0.000131014,0.20468,2.84783,-0.54971,-0.000159191,0,0,0,0,0,0,0.0516997,0.961613,0.858295,3.05052,-1.74976,0.00993407,3.06303,-3.68325,-17.0497,-5.04622,-11.0451,0.634544,0,0,0,0,0,0
0.281,0.395787,-0.000128056,0.198622,3.04849,-0.422948,-0.0651793,0.00342203,0.00219824,-0.0413474,-0.516217,-0.700579,-0.32008,0.400448,-0.000130966,0.20466,2.84678,-0.550663,-0.000159133,0,0,0,0,0,0,0.0519817,0.962571,0.857017,3.05002,-1.75086,0.00999747,3.06296,-3.65987,-17.0931,-5.0537,-11.0758,0.635881,0,0,0,0,0,0
0.282,0.395791,-0.000125835,0.19858,3.04795,-0.423668,-0.0654982,0.00346915,0.00219968,-0.0413604,-0.517273,-0.701758,-0.320005,0.400459,-0.000130918,0.20464,2.84574,-0.551616,-0.000159074,0,0,0,0,0,0,0.0522638,0.963532,0.855735,3.04952,-1.75196,0.010061,3.06285,-3.63643,-17.1366,-5.06115,-11.1065,0.637209,0,0,0,0,0,0
0.283,0.395795,-0.000123614,0.198538,3.04742,-0.424388,-0.0658169,0.00351613,0.00220103,-0.0413736,-0.518327,-0.702934,-0.319923,0.40047,-0.00013087,0.20462,2.84469,-0.552569,-0.000159016,0,0,0,0,0,0,0.0525461,0.964496,0.854448,3.04901,-1.75307,0.0101247,3.0627,-3.61292,-17.1803,-5.06858,-11.1372,0.638528,0,0,0,0,0,0
0.284,0.3958,-0.000121393,0.198497,3.04688,-0.42511,-0.0661354,0.00356299,0.00220231,-0.041387,-0.519378,-0.704105,-0.319832,0.400481,-0.000130822,0.2046,2.84364,-0.553522,-0.000158957,0,0,0,0,0,0,0.0528286,0.965463,0.853158,3.0485,-1.75418,0.0101885,3.0625,-3.58935,-17.2241,-5.07597,-11.168,0.639839,0,0,0,0,0,0
0.285,0.395804,-0.000119171,0.198455,3.04635,-0.425832,-0.0664536,0.00360971,0.00220351,-0.0414005,-0.520427,-0.705272,-0.319734,0.400492,-0.000130774,0.20458,2.8426,-0.554475,-0.000158899,0,0,0,0,0,0,0.0531113,0.966432,0.851862,3.048,-1.7553,0.0102524,3.06226,-3.56572,-17.268,-5.08334,-11.1988,0.64114,0,0,0,0,0,0
0.286,0.395808,-0.00011695,0.198414,3.04581,-0.426556,-0.0667717,0.00365631,0.00220463,-0.0414141,-0.521473,-0.706435,-0.319628,0.400503,-0.000130725,0.20456,2.84155,-0.555428,-0.00015884,0,0,0,0,0,0,0.0533942,0.967405,0.850563,3.04749,-1.75641,0.0103165,3.06197,-3.54203,-17.312,-5.09067,-11.2296,0.642433,0,0,0,0,0,0
0.287,0.395813,-0.000114729,0.198372,3.04527,-0.427281,-0.0670895,0.00370277,0.00220568,-0.0414279,-0.522516,-0.707593,-0.319513,0.400514,-0.000130677,0.204539,2.8405,-0.55638,-0.000158782,0,0,0,0,0,0,0.0536772,0.96838,0.849259,3.04698,-1.75753,0.0103807,3.06165,-3.51826,-17.3562,-5.09799,-11.2604,0.643717,0,0,0,0,0,0
0.288,0.395817,-0.000112508,0.19833,3.04473,-0.428007,-0.067407,0.00374912,0.00220664,-0.0414418,-0.523557,-0.708747,-0.319391,0.400524,-0.000130629,0.204519,2.83945,-0.557333,-0.000158723,0,0,0,0,0,0,0.0539604,0.969358,0.84795,3.04647,-1.75866,0.010445,3.06128,-3.49443,-17.4006,-5.10527,-11.2913,0.644991,0,0,0,0,0,0
0.289,0.395822,-0.000110287,0.198289,3.04419,-0.428734,-0.0677244,0.00379534,0.00220754,-0.0414559,-0.524596,-0.709897,-0.319261,0.400535,-0.000130581,0.204499,2.83841,-0.558286,-0.000158665,0,0,0,0,0,0,0.0542438,0.97034,0.846637,3.04596,-1.75978,0.0105094,3.06086,-3.47052,-17.445,-5.11253,-11.3222,0.646257,0,0,0,0,0,0
0.29,0.395826,-0.000108066,0.198247,3.04365,-0.429462,-0.0680414,0.00384144,0.00220835,-0.0414701,-0.525633,-0.711043,-0.319123,0.400546,-0.000130533,0.204479,2.83736,-0.559239,-0.000158606,0,0,0,0,0,0,0.0545273,0.971324,0.84532,3.04545,-1.76091,0.010574,3.06041,-3.44655,-17.4896,-5.11976,-11.3532,0.647514,0,0,0,0,0,0
0.291,0.395831,-0.000105846,0.198205,3.04311,-0.430191,-0.0683582,0.00388742,0.0022091,-0.0414844,-0.526667,-0.712185,-0.318977,0.400557,-0.000130485,0.204459,2.83631,-0.560192,-0.000158547,0,0,0,0,0,0,0.054811,0.97231,0.843998,3.04494,-1.76205,0.0106387,3.05991,-3.4225,-17.5343,-5.12697,-11.3841,0.648761,0,0,0,0,0,0
0.292,0.395835,-0.000103626,0.198164,3.04257,-0.430922,-0.0686747,0.00393329,0.00220976,-0.041499,-0.527699,-0.713322,-0.318822,0.400568,-0.000130436,0.204439,2.83527,-0.561145,-0.000158489,0,0,0,0,0,0,0.0550949,0.9733,0.842671,3.04443,-1.76318,0.0107035,3.05937,-3.39838,-17.5792,-5.13416,-11.4151,0.65,0,0,0,0,0,0
0.293,0.39584,-0.000101407,0.198122,3.04202,-0.431653,-0.068991,0.00397905,0.00221036,-0.0415136,-0.528729,-0.714455,-0.31866,0.400579,-0.000130388,0.204419,2.83422,-0.562098,-0.00015843,0,0,0,0,0,0,0.0553789,0.974293,0.84134,3.04392,-1.76432,0.0107684,3.05878,-3.37417,-17.6242,-5.14132,-11.4461,0.651229,0,0,0,0,0,0
0.294,0.395845,-9.91885e-05,0.19808,3.04148,-0.432385,-0.0693069,0.00402469,0.00221088,-0.0415284,-0.529756,-0.715584,-0.31849,0.40059,-0.00013034,0.204399,2.83317,-0.563051,-0.000158372,0,0,0,0,0,0,0.055663,0.975289,0.840005,3.0434,-1.76546,0.0108335,3.05815,-3.34989,-17.6694,-5.14845,-11.4772,0.652449,0,0,0,0,0,0
0.295,0.39585,-9.69704e-05,0.198038,3.04093,-0.433119,-0.0696226,0.00407023,0.00221133,-0.0415434,-0.530782,-0.716709,-0.318312,0.400601,-0.000130292,0.204379,2.83213,-0.564004,-0.000158313,0,0,0,0,0,0,0.0559473,0.976287,0.838665,3.04289,-1.76661,0.0108987,3.05749,-3.32553,-17.7147,-5.15557,-11.5083,0.65366,0,0,0,0,0,0
0.296,0.395854,-9.4753e-05,0.197997,3.04038,-0.433853,-0.0699379,0.00411567,0.00221171,-0.0415585,-0.531805,-0.717829,-0.318126,0.400611,-0.000130244,0.204359,2.83108,-0.564957,-0.000158255,0,0,0,0,0,0,0.0562317,0.977289,0.83732,3.04237,-1.76776,0.010964,3.05677,-3.30108,-17.7602,-5.16266,-11.5395,0.654861,0,0,0,0,0,0
0.297,0.395859,-9.25364e-05,0.197955,3.03984,-0.434589,-0.070253,0.00416101,0.00221202,-0.0415737,-0.532826,-0.718945,-0.317932,0.400622,-0.000130196,0.204338,2.83003,-0.565909,-0.000158196,0,0,0,0,0,0,0.0565162,0.978293,0.835971,3.04186,-1.76891,0.0110294,3.05602,-3.27655,-17.8058,-5.16973,-11.5706,0.656053,0,0,0,0,0,0
0.298,0.395864,-9.03206e-05,0.197913,3.03929,-0.435326,-0.0705677,0.00420624,0.00221226,-0.0415891,-0.533846,-0.720057,-0.31773,0.400633,-0.000130147,0.204318,2.82898,-0.566862,-0.000158138,0,0,0,0,0,0,0.0568009,0.9793,0.834617,3.04134,-1.77006,0.011095,3.05522,-3.25193,-17.8516,-5.17678,-11.6019,0.657236,0,0,0,0,0,0
0.299,0.395869,-8.81056e-05,0.197871,3.03874,-0.436063,-0.0708821,0.00425139,0.00221243,-0.0416046,-0.534863,-0.721165,-0.31752,0.400644,-0.000130099,0.204298,2.82794,-0.567815,-0.000158079,0,0,0,0,0,0,0.0570857,0.980311,0.833259,3.04083,-1.77122,0.0111606,3.05439,-3.22722,-17.8976,-5.18381,-11.6331,0.658409,0,0,0,0,0,0
0.3,0.395874,-8.58915e-05,0.197829,3.03819,-0.436802,-0.0711961,0.00429644,0.00221253,-0.0416203,-0.535878,-0.722268,-0.317303,0.400655,-0.000130051,0.204278,2.82689,-0.568768,-0.000158021,0,0,0,0,0,0,0.0573706,0.981324,0.831896,3.04031,-1.77238,0.0112264,3.05351,-3.20242,-17.9437,-5.19082,-11.6644,0.659573,0,0,0,0,0,0
0.301,0.395879,-8.36784e-05,0.197787,3.03763,-0.437542,-0.0715098,0.0043414,0.00221257,-0.0416362,-0.536892,-0.723367,-0.317077,0.400666,-0.000130003,0.204258,2.82584,-0.569721,-0.000157962,0,0,0,0,0,0,0.0576557,0.98234,0.830528,3.03979,-1.77354,0.0112923,3.05258,-3.17753,-17.9899,-5.19781,-11.6958,0.660727,0,0,0,0,0,0
0.302,0.395884,-8.14664e-05,0.197746,3.03708,-0.438283,-0.0718232,0.00438627,0.00221254,-0.0416521,-0.537904,-0.724462,-0.316843,0.400677,-0.000129955,0.204238,2.8248,-0.570674,-0.000157904,0,0,0,0,0,0,0.0579408,0.98336,0.829156,3.03927,-1.77471,0.0113583,3.05162,-3.15254,-18.0364,-5.20477,-11.7271,0.661872,0,0,0,0,0,0
0.303,0.395889,-7.92554e-05,0.197704,3.03653,-0.439024,-0.0721362,0.00443106,0.00221244,-0.0416682,-0.538914,-0.725553,-0.316601,0.400688,-0.000129907,0.204218,2.82375,-0.571627,-0.000157845,0,0,0,0,0,0,0.058226,0.984382,0.827779,3.03875,-1.77588,0.0114244,3.05061,-3.12745,-18.083,-5.21172,-11.7586,0.663007,0,0,0,0,0,0
0.304,0.395894,-7.70456e-05,0.197662,3.03597,-0.439767,-0.0724488,0.00447577,0.00221227,-0.0416845,-0.539922,-0.726639,-0.316351,0.400698,-0.000129858,0.204198,2.8227,-0.57258,-0.000157787,0,0,0,0,0,0,0.0585114,0.985407,0.826397,3.03823,-1.77706,0.0114907,3.04957,-3.10226,-18.1297,-5.21866,-11.79,0.664133,0,0,0,0,0,0
0.305,0.395899,-7.48369e-05,0.19762,3.03542,-0.440511,-0.0727611,0.0045204,0.00221205,-0.0417009,-0.540928,-0.727721,-0.316093,0.400709,-0.00012981,0.204178,2.82166,-0.573533,-0.000157728,0,0,0,0,0,0,0.0587968,0.986435,0.825011,3.03771,-1.77823,0.011557,3.04848,-3.07697,-18.1767,-5.22557,-11.8216,0.665248,0,0,0,0,0,0
0.306,0.395905,-7.26295e-05,0.197578,3.03486,-0.441256,-0.0730729,0.00456496,0.00221175,-0.0417175,-0.541933,-0.728799,-0.315828,0.40072,-0.000129762,0.204157,2.82061,-0.574486,-0.00015767,0,0,0,0,0,0,0.0590824,0.987466,0.82362,3.03719,-1.77941,0.0116235,3.04735,-3.05157,-18.2238,-5.23247,-11.8531,0.666354,0,0,0,0,0,0
0.307,0.39591,-7.04234e-05,0.197536,3.0343,-0.442002,-0.0733844,0.00460944,0.0022114,-0.0417342,-0.542936,-0.729873,-0.315554,0.400731,-0.000129714,0.204137,2.81956,-0.575438,-0.000157611,0,0,0,0,0,0,0.059368,0.988501,0.822224,3.03667,-1.78059,0.01169,3.04618,-3.02607,-18.2711,-5.23935,-11.8848,0.667451,0,0,0,0,0,0
0.308,0.395915,-6.82187e-05,0.197494,3.03374,-0.442749,-0.0736955,0.00465385,0.00221098,-0.041751,-0.543938,-0.730942,-0.315272,0.400742,-0.000129666,0.204117,2.81851,-0.576391,-0.000157553,0,0,0,0,0,0,0.0596537,0.989538,0.820823,3.03614,-1.78178,0.0117567,3.04497,-3.00046,-18.3186,-5.24622,-11.9164,0.668537,0,0,0,0,0,0
